(.../pcb-gcode-3.6.0.4/pcb-gcode.ulp)
(Copyright 2005 - 2012 by John Johnson)
(See readme.txt for licensing terms.)
(This file generated from the board:)
(.../OpenHealth_Hardware/OpenHealth_rj45.brd)
(Current profile is .../pcb-gcode-3.6.0.4/profiles/emc.pp  )
(This file generated 27/09/16 19:58)
(Settings from pcb-machine.h)
(  Tool Size)
(0.6000 )
(Z Axis Settings)
(  High     Up        Down     Drill)
(1.1000 	1.0000 	0.0000 	0.0100 )
(spindle on time = 3.0000)
(milling depth = -0.0100)
(text depth = 0.0000)
(tool change at 0.0000 0.0000 0.0000 )
(feed rate xy = F254.00 )
(feed rate z  = F127.00 )
(Settings from pcb-defaults.h)
(isolate min = 0.0254)
(isolate max = 0.5080)
(isolate step = 0.1270)
(Generated top outlines, bottom outlines, )
(Unit of measure: mm)
(Metric Mode)
G21
(Absolute Coordinates)
G90
G00 X0.0000 Y0.0000 
M03
G04 P3.000000
G00 Z1.0000 
G00 X66.6798 Y26.3826 
G01 Z0.0000 F127.00 
G01 X66.6798 Y24.4174 F254.00 
G01 X66.7020 Y24.3346 
G01 X66.7448 Y24.2604 
G01 X66.8054 Y24.1998 
G01 X66.8796 Y24.1570 
G01 X66.9624 Y24.1348 
G01 X68.9276 Y24.1348 
G01 X69.0104 Y24.1570 
G01 X69.0846 Y24.1998 
G01 X69.1452 Y24.2604 
G01 X69.1880 Y24.3346 
G01 X69.2102 Y24.4174 
G01 X69.2102 Y26.3826 
G01 X69.1880 Y26.4654 
G01 X69.1452 Y26.5396 
G01 X69.0846 Y26.6002 
G01 X69.0104 Y26.6430 
G01 X68.9276 Y26.6652 
G01 X66.9624 Y26.6652 
G01 X66.8796 Y26.6430 
G01 X66.8054 Y26.6002 
G01 X66.7448 Y26.5396 
G01 X66.7020 Y26.4654 
G01 X66.6798 Y26.3826 
G00 Z1.0000 
G00 X66.6702 Y25.3004 
G01 Z0.0000 F127.00 
G01 X66.6702 Y25.4996 F254.00 
G01 X66.6390 Y25.6963 
G01 X66.5775 Y25.8857 
G01 X66.4871 Y26.0631 
G01 X66.3700 Y26.2242 
G01 X66.2292 Y26.3650 
G01 X66.0681 Y26.4821 
G01 X65.8907 Y26.5725 
G01 X65.7013 Y26.6340 
G01 X65.5046 Y26.6652 
G01 X65.3054 Y26.6652 
G01 X65.1087 Y26.6340 
G01 X64.9193 Y26.5725 
G01 X64.7419 Y26.4821 
G01 X64.5808 Y26.3650 
G01 X64.4400 Y26.2242 
G01 X64.3229 Y26.0631 
G01 X64.2325 Y25.8857 
G01 X64.1710 Y25.6963 
G01 X64.1398 Y25.4996 
G01 X64.1398 Y25.3004 
G01 X64.1710 Y25.1037 
G01 X64.2325 Y24.9143 
G01 X64.3229 Y24.7369 
G01 X64.4400 Y24.5758 
G01 X64.5808 Y24.4350 
G01 X64.7419 Y24.3179 
G01 X64.9193 Y24.2275 
G01 X65.1087 Y24.1660 
G01 X65.3054 Y24.1348 
G01 X65.5046 Y24.1348 
G01 X65.7013 Y24.1660 
G01 X65.8907 Y24.2275 
G01 X66.0681 Y24.3179 
G01 X66.2292 Y24.4350 
G01 X66.3700 Y24.5758 
G01 X66.4871 Y24.7369 
G01 X66.5775 Y24.9143 
G01 X66.6390 Y25.1037 
G01 X66.6702 Y25.3004 
G00 Z1.0000 
G00 X64.1302 Y25.3004 
G01 Z0.0000 F127.00 
G01 X64.1302 Y25.4996 F254.00 
G01 X64.0990 Y25.6963 
G01 X64.0375 Y25.8857 
G01 X63.9471 Y26.0631 
G01 X63.8300 Y26.2242 
G01 X63.6892 Y26.3650 
G01 X63.5281 Y26.4821 
G01 X63.3507 Y26.5725 
G01 X63.1613 Y26.6340 
G01 X62.9646 Y26.6652 
G01 X62.7654 Y26.6652 
G01 X62.5687 Y26.6340 
G01 X62.3793 Y26.5725 
G01 X62.2019 Y26.4821 
G01 X62.0408 Y26.3650 
G01 X61.9000 Y26.2242 
G01 X61.7829 Y26.0631 
G01 X61.6925 Y25.8857 
G01 X61.6310 Y25.6963 
G01 X61.5998 Y25.4996 
G01 X61.5998 Y25.3004 
G01 X61.6310 Y25.1037 
G01 X61.6925 Y24.9143 
G01 X61.7829 Y24.7369 
G01 X61.9000 Y24.5758 
G01 X62.0408 Y24.4350 
G01 X62.2019 Y24.3179 
G01 X62.3793 Y24.2275 
G01 X62.5687 Y24.1660 
G01 X62.7654 Y24.1348 
G01 X62.9646 Y24.1348 
G01 X63.1613 Y24.1660 
G01 X63.3507 Y24.2275 
G01 X63.5281 Y24.3179 
G01 X63.6892 Y24.4350 
G01 X63.8300 Y24.5758 
G01 X63.9471 Y24.7369 
G01 X64.0375 Y24.9143 
G01 X64.0990 Y25.1037 
G01 X64.1302 Y25.3004 
G00 Z1.0000 
G00 X65.4002 Y22.7604 
G01 Z0.0000 F127.00 
G01 X65.4002 Y22.9596 F254.00 
G01 X65.3690 Y23.1563 
G01 X65.3075 Y23.3457 
G01 X65.2171 Y23.5231 
G01 X65.1000 Y23.6842 
G01 X64.9592 Y23.8250 
G01 X64.7981 Y23.9421 
G01 X64.6207 Y24.0325 
G01 X64.4313 Y24.0940 
G01 X64.2346 Y24.1252 
G01 X64.0354 Y24.1252 
G01 X63.8387 Y24.0940 
G01 X63.6493 Y24.0325 
G01 X63.4719 Y23.9421 
G01 X63.3108 Y23.8250 
G01 X63.1700 Y23.6842 
G01 X63.0529 Y23.5231 
G01 X62.9625 Y23.3457 
G01 X62.9010 Y23.1563 
G01 X62.8698 Y22.9596 
G01 X62.8698 Y22.7604 
G01 X62.9010 Y22.5637 
G01 X62.9625 Y22.3743 
G01 X63.0529 Y22.1969 
G01 X63.1700 Y22.0358 
G01 X63.3016 Y21.9041 
G01 X63.3016 Y19.2272 
G01 X63.2475 Y19.1730 
G01 X63.1398 Y19.0249 
G01 X63.0567 Y18.8617 
G01 X63.0001 Y18.6875 
G01 X62.9714 Y18.5066 
G01 X62.9714 Y18.3234 
G01 X63.0001 Y18.1425 
G01 X63.0567 Y17.9683 
G01 X63.1398 Y17.8051 
G01 X63.2475 Y17.6570 
G01 X63.3770 Y17.5275 
G01 X63.5251 Y17.4198 
G01 X63.6883 Y17.3367 
G01 X63.8625 Y17.2801 
G01 X64.0434 Y17.2514 
G01 X64.2266 Y17.2514 
G01 X64.4075 Y17.2801 
G01 X64.5817 Y17.3367 
G01 X64.7449 Y17.4198 
G01 X64.8930 Y17.5275 
G01 X65.0225 Y17.6570 
G01 X65.1302 Y17.8051 
G01 X65.2133 Y17.9683 
G01 X65.2699 Y18.1425 
G01 X65.2986 Y18.3234 
G01 X65.2986 Y18.5066 
G01 X65.2699 Y18.6875 
G01 X65.2133 Y18.8617 
G01 X65.1302 Y19.0249 
G01 X65.0225 Y19.1730 
G01 X64.9684 Y19.2272 
G01 X64.9684 Y21.9041 
G01 X65.1000 Y22.0358 
G01 X65.2171 Y22.1969 
G01 X65.3075 Y22.3743 
G01 X65.3690 Y22.5637 
G01 X65.4002 Y22.7604 
G00 Z1.0000 
G00 X62.8602 Y22.7604 
G01 Z0.0000 F127.00 
G01 X62.8602 Y22.9596 F254.00 
G01 X62.8290 Y23.1563 
G01 X62.7675 Y23.3457 
G01 X62.6771 Y23.5231 
G01 X62.5600 Y23.6842 
G01 X62.4192 Y23.8250 
G01 X62.2581 Y23.9421 
G01 X62.0807 Y24.0325 
G01 X61.8913 Y24.0940 
G01 X61.6946 Y24.1252 
G01 X61.4954 Y24.1252 
G01 X61.2987 Y24.0940 
G01 X61.1093 Y24.0325 
G01 X60.9319 Y23.9421 
G01 X60.7708 Y23.8250 
G01 X60.6300 Y23.6842 
G01 X60.5129 Y23.5231 
G01 X60.4225 Y23.3457 
G01 X60.3610 Y23.1563 
G01 X60.3298 Y22.9596 
G01 X60.3298 Y22.7604 
G01 X60.3610 Y22.5637 
G01 X60.4225 Y22.3743 
G01 X60.5129 Y22.1969 
G01 X60.6300 Y22.0358 
G01 X60.7616 Y21.9041 
G01 X60.7616 Y21.7672 
G01 X60.7075 Y21.7130 
G01 X60.5998 Y21.5649 
G01 X60.5167 Y21.4017 
G01 X60.4601 Y21.2275 
G01 X60.4314 Y21.0466 
G01 X60.4314 Y20.8634 
G01 X60.4601 Y20.6825 
G01 X60.5167 Y20.5083 
G01 X60.5998 Y20.3451 
G01 X60.7075 Y20.1970 
G01 X60.8370 Y20.0675 
G01 X60.9851 Y19.9598 
G01 X61.1483 Y19.8767 
G01 X61.3225 Y19.8201 
G01 X61.5034 Y19.7914 
G01 X61.6866 Y19.7914 
G01 X61.8675 Y19.8201 
G01 X62.0417 Y19.8767 
G01 X62.2049 Y19.9598 
G01 X62.3530 Y20.0675 
G01 X62.4825 Y20.1970 
G01 X62.5902 Y20.3451 
G01 X62.6733 Y20.5083 
G01 X62.7299 Y20.6825 
G01 X62.7586 Y20.8634 
G01 X62.7586 Y21.0466 
G01 X62.7299 Y21.2275 
G01 X62.6733 Y21.4017 
G01 X62.5902 Y21.5649 
G01 X62.4825 Y21.7130 
G01 X62.4284 Y21.7672 
G01 X62.4284 Y21.9041 
G01 X62.5600 Y22.0358 
G01 X62.6771 Y22.1969 
G01 X62.7675 Y22.3743 
G01 X62.8290 Y22.5637 
G01 X62.8602 Y22.7604 
G00 Z1.0000 
G00 X61.5902 Y25.3004 
G01 Z0.0000 F127.00 
G01 X61.5902 Y25.4996 F254.00 
G01 X61.5590 Y25.6963 
G01 X61.4975 Y25.8857 
G01 X61.4071 Y26.0631 
G01 X61.2900 Y26.2242 
G01 X61.1492 Y26.3650 
G01 X60.9881 Y26.4821 
G01 X60.8107 Y26.5725 
G01 X60.6213 Y26.6340 
G01 X60.4246 Y26.6652 
G01 X60.2254 Y26.6652 
G01 X60.0287 Y26.6340 
G01 X59.8393 Y26.5725 
G01 X59.6619 Y26.4821 
G01 X59.5008 Y26.3650 
G01 X59.3600 Y26.2242 
G01 X59.2429 Y26.0631 
G01 X59.1525 Y25.8857 
G01 X59.0910 Y25.6963 
G01 X59.0598 Y25.4996 
G01 X59.0598 Y25.3004 
G01 X59.0910 Y25.1037 
G01 X59.1525 Y24.9143 
G01 X59.2429 Y24.7369 
G01 X59.3600 Y24.5758 
G01 X59.5008 Y24.4350 
G01 X59.6619 Y24.3179 
G01 X59.8393 Y24.2275 
G01 X60.0287 Y24.1660 
G01 X60.2254 Y24.1348 
G01 X60.4246 Y24.1348 
G01 X60.6213 Y24.1660 
G01 X60.8107 Y24.2275 
G01 X60.9881 Y24.3179 
G01 X61.1492 Y24.4350 
G01 X61.2900 Y24.5758 
G01 X61.4071 Y24.7369 
G01 X61.4975 Y24.9143 
G01 X61.5590 Y25.1037 
G01 X61.5902 Y25.3004 
G00 Z1.0000 
G00 X48.8998 Y26.3826 
G01 Z0.0000 F127.00 
G01 X48.8998 Y24.4174 F254.00 
G01 X48.9220 Y24.3346 
G01 X48.9648 Y24.2604 
G01 X49.0254 Y24.1998 
G01 X49.0996 Y24.1570 
G01 X49.1824 Y24.1348 
G01 X51.1476 Y24.1348 
G01 X51.2304 Y24.1570 
G01 X51.3046 Y24.1998 
G01 X51.3652 Y24.2604 
G01 X51.4080 Y24.3346 
G01 X51.4302 Y24.4174 
G01 X51.4302 Y26.3826 
G01 X51.4080 Y26.4654 
G01 X51.3652 Y26.5396 
G01 X51.3046 Y26.6002 
G01 X51.2304 Y26.6430 
G01 X51.1476 Y26.6652 
G01 X49.1824 Y26.6652 
G01 X49.0996 Y26.6430 
G01 X49.0254 Y26.6002 
G01 X48.9648 Y26.5396 
G01 X48.9220 Y26.4654 
G01 X48.8998 Y26.3826 
G00 Z1.0000 
G00 X48.8902 Y25.3004 
G01 Z0.0000 F127.00 
G01 X48.8902 Y25.4996 F254.00 
G01 X48.8590 Y25.6963 
G01 X48.7975 Y25.8857 
G01 X48.7071 Y26.0631 
G01 X48.5900 Y26.2242 
G01 X48.4492 Y26.3650 
G01 X48.2881 Y26.4821 
G01 X48.1107 Y26.5725 
G01 X47.9213 Y26.6340 
G01 X47.7246 Y26.6652 
G01 X47.5254 Y26.6652 
G01 X47.3287 Y26.6340 
G01 X47.1393 Y26.5725 
G01 X46.9619 Y26.4821 
G01 X46.8008 Y26.3650 
G01 X46.6600 Y26.2242 
G01 X46.5429 Y26.0631 
G01 X46.4525 Y25.8857 
G01 X46.3910 Y25.6963 
G01 X46.3598 Y25.4996 
G01 X46.3598 Y25.3004 
G01 X46.3910 Y25.1037 
G01 X46.4525 Y24.9143 
G01 X46.5429 Y24.7369 
G01 X46.6600 Y24.5758 
G01 X46.8008 Y24.4350 
G01 X46.9619 Y24.3179 
G01 X47.1393 Y24.2275 
G01 X47.3287 Y24.1660 
G01 X47.5254 Y24.1348 
G01 X47.7246 Y24.1348 
G01 X47.9213 Y24.1660 
G01 X48.1107 Y24.2275 
G01 X48.2881 Y24.3179 
G01 X48.4492 Y24.4350 
G01 X48.5900 Y24.5758 
G01 X48.7071 Y24.7369 
G01 X48.7975 Y24.9143 
G01 X48.8590 Y25.1037 
G01 X48.8902 Y25.3004 
G00 Z1.0000 
G00 X46.3502 Y25.3004 
G01 Z0.0000 F127.00 
G01 X46.3502 Y25.4996 F254.00 
G01 X46.3190 Y25.6963 
G01 X46.2575 Y25.8857 
G01 X46.1671 Y26.0631 
G01 X46.0500 Y26.2242 
G01 X45.9184 Y26.3559 
G01 X45.9184 Y27.3871 
G01 X45.8864 Y27.5481 
G01 X45.8235 Y27.6998 
G01 X45.7323 Y27.8363 
G01 X45.0973 Y28.4713 
G01 X44.9813 Y28.5873 
G01 X44.8448 Y28.6785 
G01 X44.6931 Y28.7414 
G01 X44.5321 Y28.7734 
G01 X40.5579 Y28.7734 
G01 X40.3969 Y28.7414 
G01 X40.2452 Y28.6785 
G01 X40.1087 Y28.5873 
G01 X39.9927 Y28.4713 
G01 X34.9127 Y23.3913 
G01 X34.8214 Y23.2548 
G01 X34.7586 Y23.1031 
G01 X34.7266 Y22.9421 
G01 X34.7266 Y6.2679 
G01 X34.7586 Y6.1069 
G01 X34.8214 Y5.9552 
G01 X34.9127 Y5.8187 
G01 X35.0287 Y5.7027 
G01 X36.1827 Y4.5487 
G01 X36.2987 Y4.4327 
G01 X36.4352 Y4.3415 
G01 X36.5869 Y4.2786 
G01 X36.7479 Y4.2466 
G01 X119.4621 Y4.2466 
G01 X119.6231 Y4.2786 
G01 X119.7748 Y4.3415 
G01 X119.9113 Y4.4327 
G01 X120.0273 Y4.5487 
G01 X121.2973 Y5.8187 
G01 X121.3885 Y5.9552 
G01 X121.4514 Y6.1069 
G01 X121.4834 Y6.2679 
G01 X121.4834 Y22.1556 
G01 X121.7374 Y22.4096 
G01 X121.7374 Y23.3104 
G01 X121.1004 Y23.9474 
G01 X120.1996 Y23.9474 
G01 X119.5626 Y23.3104 
G01 X119.5626 Y22.4096 
G01 X119.8166 Y22.1556 
G01 X119.8166 Y6.6952 
G01 X119.0348 Y5.9134 
G01 X37.1752 Y5.9134 
G01 X36.3934 Y6.6952 
G01 X36.3934 Y22.5148 
G01 X40.9852 Y27.1066 
G01 X44.1048 Y27.1066 
G01 X44.2516 Y26.9598 
G01 X44.2516 Y26.3559 
G01 X44.1200 Y26.2242 
G01 X44.0029 Y26.0631 
G01 X43.9125 Y25.8857 
G01 X43.8510 Y25.6963 
G01 X43.8198 Y25.4996 
G01 X43.8198 Y25.3004 
G01 X43.8510 Y25.1037 
G01 X43.9125 Y24.9143 
G01 X44.0029 Y24.7369 
G01 X44.1200 Y24.5758 
G01 X44.2608 Y24.4350 
G01 X44.4219 Y24.3179 
G01 X44.5993 Y24.2275 
G01 X44.7887 Y24.1660 
G01 X44.9854 Y24.1348 
G01 X45.1846 Y24.1348 
G01 X45.3813 Y24.1660 
G01 X45.5707 Y24.2275 
G01 X45.7481 Y24.3179 
G01 X45.9092 Y24.4350 
G01 X46.0500 Y24.5758 
G01 X46.1671 Y24.7369 
G01 X46.2575 Y24.9143 
G01 X46.3190 Y25.1037 
G01 X46.3502 Y25.3004 
G00 Z1.0000 
G00 X47.6202 Y22.7604 
G01 Z0.0000 F127.00 
G01 X47.6202 Y22.9596 F254.00 
G01 X47.5890 Y23.1563 
G01 X47.5275 Y23.3457 
G01 X47.4371 Y23.5231 
G01 X47.3200 Y23.6842 
G01 X47.1792 Y23.8250 
G01 X47.0181 Y23.9421 
G01 X46.8407 Y24.0325 
G01 X46.6513 Y24.0940 
G01 X46.4546 Y24.1252 
G01 X46.2554 Y24.1252 
G01 X46.0587 Y24.0940 
G01 X45.8693 Y24.0325 
G01 X45.6919 Y23.9421 
G01 X45.5308 Y23.8250 
G01 X45.3900 Y23.6842 
G01 X45.2729 Y23.5231 
G01 X45.1825 Y23.3457 
G01 X45.1210 Y23.1563 
G01 X45.0898 Y22.9596 
G01 X45.0898 Y22.7604 
G01 X45.1210 Y22.5637 
G01 X45.1825 Y22.3743 
G01 X45.2729 Y22.1969 
G01 X45.3900 Y22.0358 
G01 X45.5216 Y21.9041 
G01 X45.5216 Y19.2272 
G01 X45.4675 Y19.1730 
G01 X45.3598 Y19.0249 
G01 X45.2767 Y18.8617 
G01 X45.2201 Y18.6875 
G01 X45.1914 Y18.5066 
G01 X45.1914 Y18.3234 
G01 X45.2201 Y18.1425 
G01 X45.2767 Y17.9683 
G01 X45.3598 Y17.8051 
G01 X45.4675 Y17.6570 
G01 X45.5970 Y17.5275 
G01 X45.7451 Y17.4198 
G01 X45.9083 Y17.3367 
G01 X46.0825 Y17.2801 
G01 X46.2634 Y17.2514 
G01 X46.4466 Y17.2514 
G01 X46.6275 Y17.2801 
G01 X46.8017 Y17.3367 
G01 X46.9649 Y17.4198 
G01 X47.1130 Y17.5275 
G01 X47.2425 Y17.6570 
G01 X47.3502 Y17.8051 
G01 X47.4333 Y17.9683 
G01 X47.4899 Y18.1425 
G01 X47.5186 Y18.3234 
G01 X47.5186 Y18.5066 
G01 X47.4899 Y18.6875 
G01 X47.4333 Y18.8617 
G01 X47.3502 Y19.0249 
G01 X47.2425 Y19.1730 
G01 X47.1884 Y19.2272 
G01 X47.1884 Y21.9041 
G01 X47.3200 Y22.0358 
G01 X47.4371 Y22.1969 
G01 X47.5275 Y22.3743 
G01 X47.5890 Y22.5637 
G01 X47.6202 Y22.7604 
G00 Z1.0000 
G00 X45.0802 Y22.7604 
G01 Z0.0000 F127.00 
G01 X45.0802 Y22.9596 F254.00 
G01 X45.0490 Y23.1563 
G01 X44.9875 Y23.3457 
G01 X44.8971 Y23.5231 
G01 X44.7800 Y23.6842 
G01 X44.6392 Y23.8250 
G01 X44.4781 Y23.9421 
G01 X44.3007 Y24.0325 
G01 X44.1113 Y24.0940 
G01 X43.9146 Y24.1252 
G01 X43.7154 Y24.1252 
G01 X43.5187 Y24.0940 
G01 X43.3293 Y24.0325 
G01 X43.1519 Y23.9421 
G01 X42.9908 Y23.8250 
G01 X42.8500 Y23.6842 
G01 X42.7329 Y23.5231 
G01 X42.6425 Y23.3457 
G01 X42.5810 Y23.1563 
G01 X42.5498 Y22.9596 
G01 X42.5498 Y22.7604 
G01 X42.5810 Y22.5637 
G01 X42.6425 Y22.3743 
G01 X42.7329 Y22.1969 
G01 X42.8500 Y22.0358 
G01 X42.9816 Y21.9041 
G01 X42.9816 Y21.7672 
G01 X42.9275 Y21.7130 
G01 X42.8198 Y21.5649 
G01 X42.7367 Y21.4017 
G01 X42.6801 Y21.2275 
G01 X42.6514 Y21.0466 
G01 X42.6514 Y20.8634 
G01 X42.6801 Y20.6825 
G01 X42.7367 Y20.5083 
G01 X42.8198 Y20.3451 
G01 X42.9275 Y20.1970 
G01 X43.0570 Y20.0675 
G01 X43.2051 Y19.9598 
G01 X43.3683 Y19.8767 
G01 X43.5425 Y19.8201 
G01 X43.7234 Y19.7914 
G01 X43.9066 Y19.7914 
G01 X44.0875 Y19.8201 
G01 X44.2617 Y19.8767 
G01 X44.4249 Y19.9598 
G01 X44.5730 Y20.0675 
G01 X44.7025 Y20.1970 
G01 X44.8102 Y20.3451 
G01 X44.8933 Y20.5083 
G01 X44.9499 Y20.6825 
G01 X44.9786 Y20.8634 
G01 X44.9786 Y21.0466 
G01 X44.9499 Y21.2275 
G01 X44.8933 Y21.4017 
G01 X44.8102 Y21.5649 
G01 X44.7025 Y21.7130 
G01 X44.6484 Y21.7672 
G01 X44.6484 Y21.9041 
G01 X44.7800 Y22.0358 
G01 X44.8971 Y22.1969 
G01 X44.9875 Y22.3743 
G01 X45.0490 Y22.5637 
G01 X45.0802 Y22.7604 
G00 Z1.0000 
G00 X42.5402 Y22.7604 
G01 Z0.0000 F127.00 
G01 X42.5402 Y22.9596 F254.00 
G01 X42.5090 Y23.1563 
G01 X42.4475 Y23.3457 
G01 X42.3571 Y23.5231 
G01 X42.2400 Y23.6842 
G01 X42.0992 Y23.8250 
G01 X41.9381 Y23.9421 
G01 X41.7607 Y24.0325 
G01 X41.5713 Y24.0940 
G01 X41.3746 Y24.1252 
G01 X41.1754 Y24.1252 
G01 X40.9787 Y24.0940 
G01 X40.7893 Y24.0325 
G01 X40.6119 Y23.9421 
G01 X40.4508 Y23.8250 
G01 X40.3100 Y23.6842 
G01 X40.1929 Y23.5231 
G01 X40.1025 Y23.3457 
G01 X40.0410 Y23.1563 
G01 X40.0098 Y22.9596 
G01 X40.0098 Y22.7604 
G01 X40.0410 Y22.5637 
G01 X40.1025 Y22.3743 
G01 X40.1929 Y22.1969 
G01 X40.3100 Y22.0358 
G01 X40.4416 Y21.9041 
G01 X40.4416 Y10.7129 
G01 X40.4736 Y10.5519 
G01 X40.5365 Y10.4002 
G01 X40.6277 Y10.2637 
G01 X41.3787 Y9.5127 
G01 X41.5152 Y9.4215 
G01 X41.6669 Y9.3586 
G01 X41.8279 Y9.3266 
G01 X114.3821 Y9.3266 
G01 X114.5431 Y9.3586 
G01 X114.6948 Y9.4215 
G01 X114.8313 Y9.5127 
G01 X114.9473 Y9.6287 
G01 X116.2173 Y10.8987 
G01 X116.3085 Y11.0352 
G01 X116.3714 Y11.1869 
G01 X116.4034 Y11.3479 
G01 X116.4034 Y22.1556 
G01 X116.6574 Y22.4096 
G01 X116.6574 Y23.3104 
G01 X116.0204 Y23.9474 
G01 X115.1196 Y23.9474 
G01 X114.4826 Y23.3104 
G01 X114.4826 Y22.4096 
G01 X114.7366 Y22.1556 
G01 X114.7366 Y11.7752 
G01 X113.9548 Y10.9934 
G01 X42.2552 Y10.9934 
G01 X42.1084 Y11.1402 
G01 X42.1084 Y21.9041 
G01 X42.2400 Y22.0358 
G01 X42.3571 Y22.1969 
G01 X42.4475 Y22.3743 
G01 X42.5090 Y22.5637 
G01 X42.5402 Y22.7604 
G00 Z1.0000 
G00 X31.1102 Y25.3004 
G01 Z0.0000 F127.00 
G01 X31.1102 Y25.4996 F254.00 
G01 X31.0790 Y25.6963 
G01 X31.0175 Y25.8857 
G01 X30.9271 Y26.0631 
G01 X30.8100 Y26.2242 
G01 X30.6692 Y26.3650 
G01 X30.5850 Y26.4262 
G01 X30.5835 Y26.4298 
G01 X30.4923 Y26.5663 
G01 X27.5034 Y29.5552 
G01 X27.5034 Y34.3721 
G01 X27.4714 Y34.5331 
G01 X27.4085 Y34.6848 
G01 X27.3173 Y34.8213 
G01 X25.9313 Y36.2073 
G01 X25.7948 Y36.2985 
G01 X25.6431 Y36.3614 
G01 X25.4821 Y36.3934 
G01 X7.5379 Y36.3934 
G01 X7.3769 Y36.3614 
G01 X7.2252 Y36.2985 
G01 X7.0887 Y36.2073 
G01 X6.9727 Y36.0913 
G01 X5.7027 Y34.8213 
G01 X5.6115 Y34.6848 
G01 X5.5486 Y34.5331 
G01 X5.5166 Y34.3721 
G01 X5.5166 Y26.1044 
G01 X5.2626 Y25.8504 
G01 X5.2626 Y24.9496 
G01 X5.8996 Y24.3126 
G01 X6.8004 Y24.3126 
G01 X7.4374 Y24.9496 
G01 X7.4374 Y25.8504 
G01 X7.1834 Y26.1044 
G01 X7.1834 Y33.9448 
G01 X7.9652 Y34.7266 
G01 X25.0548 Y34.7266 
G01 X25.8366 Y33.9448 
G01 X25.8366 Y29.1279 
G01 X25.8686 Y28.9669 
G01 X25.9315 Y28.8152 
G01 X26.0227 Y28.6787 
G01 X26.1387 Y28.5627 
G01 X28.7208 Y25.9806 
G01 X28.6725 Y25.8857 
G01 X28.6110 Y25.6963 
G01 X28.5798 Y25.4996 
G01 X28.5798 Y25.3004 
G01 X28.6110 Y25.1037 
G01 X28.6725 Y24.9143 
G01 X28.7629 Y24.7369 
G01 X28.8800 Y24.5758 
G01 X29.0208 Y24.4350 
G01 X29.1819 Y24.3179 
G01 X29.3593 Y24.2275 
G01 X29.5487 Y24.1660 
G01 X29.7454 Y24.1348 
G01 X29.9446 Y24.1348 
G01 X30.1413 Y24.1660 
G01 X30.3307 Y24.2275 
G01 X30.5081 Y24.3179 
G01 X30.6692 Y24.4350 
G01 X30.8100 Y24.5758 
G01 X30.9271 Y24.7369 
G01 X31.0175 Y24.9143 
G01 X31.0790 Y25.1037 
G01 X31.1102 Y25.3004 
G00 Z1.0000 
G00 X27.3002 Y22.7604 
G01 Z0.0000 F127.00 
G01 X27.3002 Y22.9596 F254.00 
G01 X27.2690 Y23.1563 
G01 X27.2075 Y23.3457 
G01 X27.1171 Y23.5231 
G01 X27.0000 Y23.6842 
G01 X26.8592 Y23.8250 
G01 X26.6981 Y23.9421 
G01 X26.5207 Y24.0325 
G01 X26.3313 Y24.0940 
G01 X26.1346 Y24.1252 
G01 X25.9354 Y24.1252 
G01 X25.7387 Y24.0940 
G01 X25.5493 Y24.0325 
G01 X25.3719 Y23.9421 
G01 X25.2108 Y23.8250 
G01 X25.0700 Y23.6842 
G01 X24.9529 Y23.5231 
G01 X24.8625 Y23.3457 
G01 X24.8010 Y23.1563 
G01 X24.7698 Y22.9596 
G01 X24.7698 Y22.7604 
G01 X24.8010 Y22.5637 
G01 X24.8625 Y22.3743 
G01 X24.9529 Y22.1969 
G01 X25.0700 Y22.0358 
G01 X25.2016 Y21.9041 
G01 X25.2016 Y21.7672 
G01 X25.1475 Y21.7130 
G01 X25.0398 Y21.5649 
G01 X24.9566 Y21.4017 
G01 X24.9001 Y21.2275 
G01 X24.8883 Y21.1534 
G01 X15.5852 Y21.1534 
G01 X14.8034 Y21.9352 
G01 X14.8034 Y22.1556 
G01 X15.0574 Y22.4096 
G01 X15.0574 Y23.3104 
G01 X14.4204 Y23.9474 
G01 X13.5196 Y23.9474 
G01 X12.8826 Y23.3104 
G01 X12.8826 Y22.4096 
G01 X13.1366 Y22.1556 
G01 X13.1366 Y21.5079 
G01 X13.1686 Y21.3469 
G01 X13.2315 Y21.1952 
G01 X13.3227 Y21.0587 
G01 X14.7087 Y19.6727 
G01 X14.8452 Y19.5815 
G01 X14.9969 Y19.5186 
G01 X15.1579 Y19.4866 
G01 X25.4821 Y19.4866 
G01 X25.6431 Y19.5186 
G01 X25.7948 Y19.5815 
G01 X25.9313 Y19.6727 
G01 X26.0500 Y19.7914 
G01 X26.1266 Y19.7914 
G01 X26.3075 Y19.8201 
G01 X26.4817 Y19.8767 
G01 X26.6449 Y19.9598 
G01 X26.7930 Y20.0675 
G01 X26.9225 Y20.1970 
G01 X27.0302 Y20.3451 
G01 X27.1133 Y20.5083 
G01 X27.1699 Y20.6825 
G01 X27.1986 Y20.8634 
G01 X27.1986 Y21.0466 
G01 X27.1699 Y21.2275 
G01 X27.1133 Y21.4017 
G01 X27.0302 Y21.5649 
G01 X26.9225 Y21.7130 
G01 X26.8684 Y21.7672 
G01 X26.8684 Y21.9041 
G01 X27.0000 Y22.0358 
G01 X27.1171 Y22.1969 
G01 X27.2075 Y22.3743 
G01 X27.2690 Y22.5637 
G01 X27.3002 Y22.7604 
G00 Z1.0000 
G00 X24.7602 Y22.7604 
G01 Z0.0000 F127.00 
G01 X24.7602 Y22.9596 F254.00 
G01 X24.7290 Y23.1563 
G01 X24.6675 Y23.3457 
G01 X24.5771 Y23.5231 
G01 X24.4600 Y23.6842 
G01 X24.3192 Y23.8250 
G01 X24.1581 Y23.9421 
G01 X23.9807 Y24.0325 
G01 X23.7913 Y24.0940 
G01 X23.5946 Y24.1252 
G01 X23.3954 Y24.1252 
G01 X23.1987 Y24.0940 
G01 X23.0093 Y24.0325 
G01 X22.8319 Y23.9421 
G01 X22.6708 Y23.8250 
G01 X22.5391 Y23.6934 
G01 X20.6652 Y23.6934 
G01 X18.4273 Y25.9313 
G01 X18.3113 Y26.0473 
G01 X18.1748 Y26.1385 
G01 X18.0231 Y26.2014 
G01 X17.8621 Y26.2334 
G01 X14.6744 Y26.2334 
G01 X14.4204 Y26.4874 
G01 X13.5196 Y26.4874 
G01 X12.8826 Y25.8504 
G01 X12.8826 Y24.9496 
G01 X13.5196 Y24.3126 
G01 X14.4204 Y24.3126 
G01 X14.6744 Y24.5666 
G01 X17.4348 Y24.5666 
G01 X19.6727 Y22.3287 
G01 X19.7887 Y22.2127 
G01 X19.9252 Y22.1214 
G01 X20.0769 Y22.0586 
G01 X20.2379 Y22.0266 
G01 X22.5391 Y22.0266 
G01 X22.6708 Y21.8950 
G01 X22.8319 Y21.7779 
G01 X23.0093 Y21.6875 
G01 X23.1987 Y21.6260 
G01 X23.3954 Y21.5948 
G01 X23.5946 Y21.5948 
G01 X23.7913 Y21.6260 
G01 X23.9807 Y21.6875 
G01 X24.1581 Y21.7779 
G01 X24.3192 Y21.8950 
G01 X24.4600 Y22.0358 
G01 X24.5771 Y22.1969 
G01 X24.6675 Y22.3743 
G01 X24.7290 Y22.5637 
G01 X24.7602 Y22.7604 
G00 Z1.0000 
G00 X100.9602 Y22.7604 
G01 Z0.0000 F127.00 
G01 X100.9602 Y22.9596 F254.00 
G01 X100.9290 Y23.1563 
G01 X100.8675 Y23.3457 
G01 X100.7771 Y23.5231 
G01 X100.6600 Y23.6842 
G01 X100.5192 Y23.8250 
G01 X100.3581 Y23.9421 
G01 X100.1807 Y24.0325 
G01 X99.9913 Y24.0940 
G01 X99.7946 Y24.1252 
G01 X99.5954 Y24.1252 
G01 X99.3987 Y24.0940 
G01 X99.2093 Y24.0325 
G01 X99.0319 Y23.9421 
G01 X98.8708 Y23.8250 
G01 X98.7300 Y23.6842 
G01 X98.6129 Y23.5231 
G01 X98.5225 Y23.3457 
G01 X98.4610 Y23.1563 
G01 X98.4298 Y22.9596 
G01 X98.4298 Y22.7604 
G01 X98.4610 Y22.5637 
G01 X98.5225 Y22.3743 
G01 X98.6129 Y22.1969 
G01 X98.7300 Y22.0358 
G01 X98.8616 Y21.9041 
G01 X98.8616 Y19.2272 
G01 X98.8075 Y19.1730 
G01 X98.6998 Y19.0249 
G01 X98.6167 Y18.8617 
G01 X98.5601 Y18.6875 
G01 X98.5314 Y18.5066 
G01 X98.5314 Y18.3234 
G01 X98.5601 Y18.1425 
G01 X98.6167 Y17.9683 
G01 X98.6998 Y17.8051 
G01 X98.8075 Y17.6570 
G01 X98.9370 Y17.5275 
G01 X99.0851 Y17.4198 
G01 X99.2483 Y17.3367 
G01 X99.4225 Y17.2801 
G01 X99.6034 Y17.2514 
G01 X99.7866 Y17.2514 
G01 X99.9675 Y17.2801 
G01 X100.1417 Y17.3367 
G01 X100.3049 Y17.4198 
G01 X100.4530 Y17.5275 
G01 X100.5825 Y17.6570 
G01 X100.6902 Y17.8051 
G01 X100.7733 Y17.9683 
G01 X100.8299 Y18.1425 
G01 X100.8586 Y18.3234 
G01 X100.8586 Y18.5066 
G01 X100.8299 Y18.6875 
G01 X100.7733 Y18.8617 
G01 X100.6902 Y19.0249 
G01 X100.5825 Y19.1730 
G01 X100.5284 Y19.2272 
G01 X100.5284 Y21.9041 
G01 X100.6600 Y22.0358 
G01 X100.7771 Y22.1969 
G01 X100.8675 Y22.3743 
G01 X100.9290 Y22.5637 
G01 X100.9602 Y22.7604 
G00 Z1.0000 
G00 X98.4202 Y22.7604 
G01 Z0.0000 F127.00 
G01 X98.4202 Y22.9596 F254.00 
G01 X98.3890 Y23.1563 
G01 X98.3275 Y23.3457 
G01 X98.2371 Y23.5231 
G01 X98.1200 Y23.6842 
G01 X97.9792 Y23.8250 
G01 X97.8181 Y23.9421 
G01 X97.6407 Y24.0325 
G01 X97.4513 Y24.0940 
G01 X97.2546 Y24.1252 
G01 X97.0554 Y24.1252 
G01 X96.8587 Y24.0940 
G01 X96.6693 Y24.0325 
G01 X96.4919 Y23.9421 
G01 X96.3308 Y23.8250 
G01 X96.1900 Y23.6842 
G01 X96.0729 Y23.5231 
G01 X95.9825 Y23.3457 
G01 X95.9210 Y23.1563 
G01 X95.8898 Y22.9596 
G01 X95.8898 Y22.7604 
G01 X95.9210 Y22.5637 
G01 X95.9825 Y22.3743 
G01 X96.0729 Y22.1969 
G01 X96.1900 Y22.0358 
G01 X96.3216 Y21.9041 
G01 X96.3216 Y21.7672 
G01 X96.2675 Y21.7130 
G01 X96.1598 Y21.5649 
G01 X96.0767 Y21.4017 
G01 X96.0201 Y21.2275 
G01 X95.9914 Y21.0466 
G01 X95.9914 Y20.8634 
G01 X96.0201 Y20.6825 
G01 X96.0767 Y20.5083 
G01 X96.1598 Y20.3451 
G01 X96.2675 Y20.1970 
G01 X96.3970 Y20.0675 
G01 X96.5451 Y19.9598 
G01 X96.7083 Y19.8767 
G01 X96.8825 Y19.8201 
G01 X97.0634 Y19.7914 
G01 X97.2466 Y19.7914 
G01 X97.4275 Y19.8201 
G01 X97.6017 Y19.8767 
G01 X97.7649 Y19.9598 
G01 X97.9130 Y20.0675 
G01 X98.0425 Y20.1970 
G01 X98.1502 Y20.3451 
G01 X98.2333 Y20.5083 
G01 X98.2899 Y20.6825 
G01 X98.3186 Y20.8634 
G01 X98.3186 Y21.0466 
G01 X98.2899 Y21.2275 
G01 X98.2333 Y21.4017 
G01 X98.1502 Y21.5649 
G01 X98.0425 Y21.7130 
G01 X97.9884 Y21.7672 
G01 X97.9884 Y21.9041 
G01 X98.1200 Y22.0358 
G01 X98.2371 Y22.1969 
G01 X98.3275 Y22.3743 
G01 X98.3890 Y22.5637 
G01 X98.4202 Y22.7604 
G00 Z1.0000 
G00 X97.1502 Y25.3004 
G01 Z0.0000 F127.00 
G01 X97.1502 Y25.4996 F254.00 
G01 X97.1190 Y25.6963 
G01 X97.0575 Y25.8857 
G01 X96.9671 Y26.0631 
G01 X96.8500 Y26.2242 
G01 X96.7092 Y26.3650 
G01 X96.5481 Y26.4821 
G01 X96.3707 Y26.5725 
G01 X96.1813 Y26.6340 
G01 X95.9846 Y26.6652 
G01 X95.7854 Y26.6652 
G01 X95.5887 Y26.6340 
G01 X95.3993 Y26.5725 
G01 X95.2219 Y26.4821 
G01 X95.0608 Y26.3650 
G01 X94.9200 Y26.2242 
G01 X94.8029 Y26.0631 
G01 X94.7125 Y25.8857 
G01 X94.6510 Y25.6963 
G01 X94.6198 Y25.4996 
G01 X94.6198 Y25.3004 
G01 X94.6510 Y25.1037 
G01 X94.7125 Y24.9143 
G01 X94.8029 Y24.7369 
G01 X94.9200 Y24.5758 
G01 X95.0608 Y24.4350 
G01 X95.2219 Y24.3179 
G01 X95.3993 Y24.2275 
G01 X95.5887 Y24.1660 
G01 X95.7854 Y24.1348 
G01 X95.9846 Y24.1348 
G01 X96.1813 Y24.1660 
G01 X96.3707 Y24.2275 
G01 X96.5481 Y24.3179 
G01 X96.7092 Y24.4350 
G01 X96.8500 Y24.5758 
G01 X96.9671 Y24.7369 
G01 X97.0575 Y24.9143 
G01 X97.1190 Y25.1037 
G01 X97.1502 Y25.3004 
G00 Z1.0000 
G00 X95.8802 Y22.7604 
G01 Z0.0000 F127.00 
G01 X95.8802 Y22.9596 F254.00 
G01 X95.8490 Y23.1563 
G01 X95.7875 Y23.3457 
G01 X95.6971 Y23.5231 
G01 X95.5800 Y23.6842 
G01 X95.4392 Y23.8250 
G01 X95.2781 Y23.9421 
G01 X95.1007 Y24.0325 
G01 X94.9113 Y24.0940 
G01 X94.7146 Y24.1252 
G01 X94.5154 Y24.1252 
G01 X94.3187 Y24.0940 
G01 X94.1293 Y24.0325 
G01 X93.9519 Y23.9421 
G01 X93.7908 Y23.8250 
G01 X93.6500 Y23.6842 
G01 X93.5329 Y23.5231 
G01 X93.4425 Y23.3457 
G01 X93.3810 Y23.1563 
G01 X93.3498 Y22.9596 
G01 X93.3498 Y22.7604 
G01 X93.3810 Y22.5637 
G01 X93.4425 Y22.3743 
G01 X93.5329 Y22.1969 
G01 X93.6500 Y22.0358 
G01 X93.7908 Y21.8950 
G01 X93.9519 Y21.7779 
G01 X94.1293 Y21.6875 
G01 X94.3187 Y21.6260 
G01 X94.5154 Y21.5948 
G01 X94.7146 Y21.5948 
G01 X94.9113 Y21.6260 
G01 X95.1007 Y21.6875 
G01 X95.2781 Y21.7779 
G01 X95.4392 Y21.8950 
G01 X95.5800 Y22.0358 
G01 X95.6971 Y22.1969 
G01 X95.7875 Y22.3743 
G01 X95.8490 Y22.5637 
G01 X95.8802 Y22.7604 
G00 Z1.0000 
G00 X12.5174 Y24.9496 
G01 Z0.0000 F127.00 
G01 X12.5174 Y25.8504 F254.00 
G01 X12.2634 Y26.1044 
G01 X12.2634 Y26.3248 
G01 X13.0452 Y27.1066 
G01 X17.4348 Y27.1066 
G01 X19.6727 Y24.8687 
G01 X19.7887 Y24.7527 
G01 X19.9252 Y24.6615 
G01 X20.0769 Y24.5986 
G01 X20.2379 Y24.5666 
G01 X23.8091 Y24.5666 
G01 X23.9408 Y24.4350 
G01 X24.1019 Y24.3179 
G01 X24.2793 Y24.2275 
G01 X24.4687 Y24.1660 
G01 X24.6654 Y24.1348 
G01 X24.8646 Y24.1348 
G01 X25.0613 Y24.1660 
G01 X25.2507 Y24.2275 
G01 X25.4281 Y24.3179 
G01 X25.5892 Y24.4350 
G01 X25.7300 Y24.5758 
G01 X25.8471 Y24.7369 
G01 X25.9375 Y24.9143 
G01 X25.9990 Y25.1037 
G01 X26.0302 Y25.3004 
G01 X26.0302 Y25.4962 
G01 X26.0398 Y25.4866 
G01 X26.0398 Y25.3004 
G01 X26.0710 Y25.1037 
G01 X26.1325 Y24.9143 
G01 X26.2229 Y24.7369 
G01 X26.3400 Y24.5758 
G01 X26.4808 Y24.4350 
G01 X26.6419 Y24.3179 
G01 X26.8193 Y24.2275 
G01 X27.0087 Y24.1660 
G01 X27.2054 Y24.1348 
G01 X27.4046 Y24.1348 
G01 X27.6013 Y24.1660 
G01 X27.7907 Y24.2275 
G01 X27.9681 Y24.3179 
G01 X28.1292 Y24.4350 
G01 X28.2700 Y24.5758 
G01 X28.3871 Y24.7369 
G01 X28.4775 Y24.9143 
G01 X28.5390 Y25.1037 
G01 X28.5702 Y25.3004 
G01 X28.5702 Y25.4996 
G01 X28.5390 Y25.6963 
G01 X28.4775 Y25.8857 
G01 X28.3871 Y26.0631 
G01 X28.2700 Y26.2242 
G01 X28.1292 Y26.3650 
G01 X27.9681 Y26.4821 
G01 X27.7907 Y26.5725 
G01 X27.6013 Y26.6340 
G01 X27.4046 Y26.6652 
G01 X27.2184 Y26.6652 
G01 X25.2963 Y28.5873 
G01 X25.1598 Y28.6785 
G01 X25.0081 Y28.7414 
G01 X24.8471 Y28.7734 
G01 X20.6652 Y28.7734 
G01 X18.3113 Y31.1273 
G01 X18.1748 Y31.2185 
G01 X18.0231 Y31.2814 
G01 X17.8621 Y31.3134 
G01 X10.0779 Y31.3134 
G01 X9.9169 Y31.2814 
G01 X9.7652 Y31.2185 
G01 X9.6287 Y31.1273 
G01 X9.5127 Y31.0113 
G01 X8.2427 Y29.7413 
G01 X8.1515 Y29.6048 
G01 X8.0886 Y29.4531 
G01 X8.0566 Y29.2921 
G01 X8.0566 Y26.1044 
G01 X7.8026 Y25.8504 
G01 X7.8026 Y24.9496 
G01 X8.4396 Y24.3126 
G01 X9.3404 Y24.3126 
G01 X9.9774 Y24.9496 
G01 X9.9774 Y25.8504 
G01 X9.7234 Y26.1044 
G01 X9.7234 Y28.8648 
G01 X10.5052 Y29.6466 
G01 X17.4348 Y29.6466 
G01 X19.6727 Y27.4087 
G01 X19.7887 Y27.2927 
G01 X19.9252 Y27.2015 
G01 X20.0769 Y27.1386 
G01 X20.2379 Y27.1066 
G01 X24.4198 Y27.1066 
G01 X24.8612 Y26.6652 
G01 X24.6654 Y26.6652 
G01 X24.4687 Y26.6340 
G01 X24.2793 Y26.5725 
G01 X24.1019 Y26.4821 
G01 X23.9408 Y26.3650 
G01 X23.8091 Y26.2334 
G01 X20.6652 Y26.2334 
G01 X18.3113 Y28.5873 
G01 X18.1748 Y28.6785 
G01 X18.0231 Y28.7414 
G01 X17.8621 Y28.7734 
G01 X12.6179 Y28.7734 
G01 X12.4569 Y28.7414 
G01 X12.3052 Y28.6785 
G01 X12.1687 Y28.5873 
G01 X12.0527 Y28.4713 
G01 X10.7827 Y27.2013 
G01 X10.6914 Y27.0648 
G01 X10.6286 Y26.9131 
G01 X10.5966 Y26.7521 
G01 X10.5966 Y26.1044 
G01 X10.3426 Y25.8504 
G01 X10.3426 Y24.9496 
G01 X10.9796 Y24.3126 
G01 X11.8804 Y24.3126 
G01 X12.5174 Y24.9496 
G00 Z1.0000 
G00 X124.2774 Y22.4096 
G01 Z0.0000 F127.00 
G01 X124.2774 Y23.3104 F254.00 
G01 X123.6404 Y23.9474 
G01 X122.7396 Y23.9474 
G01 X122.1026 Y23.3104 
G01 X122.1026 Y22.4096 
G01 X122.3566 Y22.1556 
G01 X122.3566 Y5.4252 
G01 X120.3048 Y3.3734 
G01 X33.3652 Y3.3734 
G01 X32.5834 Y4.1552 
G01 X32.5834 Y6.4321 
G01 X32.5514 Y6.5931 
G01 X32.4885 Y6.7448 
G01 X32.3973 Y6.8813 
G01 X32.2813 Y6.9973 
G01 X31.6586 Y7.6200 
G01 X32.3973 Y8.3587 
G01 X32.4885 Y8.4952 
G01 X32.5514 Y8.6469 
G01 X32.5834 Y8.8079 
G01 X32.5834 Y21.2448 
G01 X33.6673 Y22.3287 
G01 X37.4773 Y26.1387 
G01 X37.5685 Y26.2752 
G01 X37.6314 Y26.4269 
G01 X37.6634 Y26.5879 
G01 X37.6634 Y35.2148 
G01 X38.4452 Y35.9966 
G01 X52.9948 Y35.9966 
G01 X53.7766 Y35.2148 
G01 X53.7766 Y24.4752 
G01 X52.9948 Y23.6934 
G01 X49.8509 Y23.6934 
G01 X49.7192 Y23.8250 
G01 X49.5581 Y23.9421 
G01 X49.3807 Y24.0325 
G01 X49.1913 Y24.0940 
G01 X48.9946 Y24.1252 
G01 X48.7954 Y24.1252 
G01 X48.5987 Y24.0940 
G01 X48.4093 Y24.0325 
G01 X48.2319 Y23.9421 
G01 X48.0708 Y23.8250 
G01 X47.9300 Y23.6842 
G01 X47.8129 Y23.5231 
G01 X47.7225 Y23.3457 
G01 X47.6610 Y23.1563 
G01 X47.6298 Y22.9596 
G01 X47.6298 Y22.7604 
G01 X47.6610 Y22.5637 
G01 X47.7225 Y22.3743 
G01 X47.8129 Y22.1969 
G01 X47.9300 Y22.0358 
G01 X48.0708 Y21.8950 
G01 X48.2319 Y21.7779 
G01 X48.4093 Y21.6875 
G01 X48.5987 Y21.6260 
G01 X48.7954 Y21.5948 
G01 X48.9946 Y21.5948 
G01 X49.1913 Y21.6260 
G01 X49.3807 Y21.6875 
G01 X49.5581 Y21.7779 
G01 X49.7192 Y21.8950 
G01 X49.8509 Y22.0266 
G01 X53.4221 Y22.0266 
G01 X53.5831 Y22.0586 
G01 X53.7348 Y22.1214 
G01 X53.8713 Y22.2127 
G01 X55.1413 Y23.4827 
G01 X55.2573 Y23.5987 
G01 X55.3485 Y23.7352 
G01 X55.4114 Y23.8869 
G01 X55.4434 Y24.0479 
G01 X55.4434 Y35.2148 
G01 X56.2252 Y35.9966 
G01 X70.7748 Y35.9966 
G01 X71.5566 Y35.2148 
G01 X71.5566 Y24.4752 
G01 X70.7748 Y23.6934 
G01 X67.6309 Y23.6934 
G01 X67.4992 Y23.8250 
G01 X67.3381 Y23.9421 
G01 X67.1607 Y24.0325 
G01 X66.9713 Y24.0940 
G01 X66.7746 Y24.1252 
G01 X66.5754 Y24.1252 
G01 X66.3787 Y24.0940 
G01 X66.1893 Y24.0325 
G01 X66.0119 Y23.9421 
G01 X65.8508 Y23.8250 
G01 X65.7100 Y23.6842 
G01 X65.5929 Y23.5231 
G01 X65.5025 Y23.3457 
G01 X65.4410 Y23.1563 
G01 X65.4098 Y22.9596 
G01 X65.4098 Y22.7604 
G01 X65.4410 Y22.5637 
G01 X65.5025 Y22.3743 
G01 X65.5929 Y22.1969 
G01 X65.7100 Y22.0358 
G01 X65.8508 Y21.8950 
G01 X66.0119 Y21.7779 
G01 X66.1893 Y21.6875 
G01 X66.3787 Y21.6260 
G01 X66.5754 Y21.5948 
G01 X66.7746 Y21.5948 
G01 X66.9713 Y21.6260 
G01 X67.1607 Y21.6875 
G01 X67.3381 Y21.7779 
G01 X67.4992 Y21.8950 
G01 X67.6309 Y22.0266 
G01 X70.7748 Y22.0266 
G01 X71.5566 Y21.2448 
G01 X71.5566 Y16.4279 
G01 X71.5886 Y16.2669 
G01 X71.6514 Y16.1152 
G01 X71.7427 Y15.9787 
G01 X73.1287 Y14.5927 
G01 X73.2652 Y14.5015 
G01 X73.4169 Y14.4386 
G01 X73.5779 Y14.4066 
G01 X83.9021 Y14.4066 
G01 X84.0631 Y14.4386 
G01 X84.2148 Y14.5015 
G01 X84.3513 Y14.5927 
G01 X84.4550 Y14.6964 
G01 X84.5587 Y14.5927 
G01 X84.6952 Y14.5015 
G01 X84.8469 Y14.4386 
G01 X85.0079 Y14.4066 
G01 X101.6821 Y14.4066 
G01 X101.8431 Y14.4386 
G01 X101.9948 Y14.5015 
G01 X102.1313 Y14.5927 
G01 X102.2473 Y14.7087 
G01 X102.8823 Y15.3437 
G01 X102.9735 Y15.4802 
G01 X103.0364 Y15.6319 
G01 X103.0684 Y15.7929 
G01 X103.0684 Y21.9041 
G01 X103.2000 Y22.0358 
G01 X103.3171 Y22.1969 
G01 X103.4075 Y22.3743 
G01 X103.4690 Y22.5637 
G01 X103.5002 Y22.7604 
G01 X103.5002 Y22.9596 
G01 X103.4690 Y23.1563 
G01 X103.4075 Y23.3457 
G01 X103.3171 Y23.5231 
G01 X103.2000 Y23.6842 
G01 X103.0592 Y23.8250 
G01 X102.8981 Y23.9421 
G01 X102.7207 Y24.0325 
G01 X102.5313 Y24.0940 
G01 X102.3346 Y24.1252 
G01 X102.1354 Y24.1252 
G01 X101.9387 Y24.0940 
G01 X101.7493 Y24.0325 
G01 X101.5719 Y23.9421 
G01 X101.4108 Y23.8250 
G01 X101.2700 Y23.6842 
G01 X101.1529 Y23.5231 
G01 X101.0625 Y23.3457 
G01 X101.0010 Y23.1563 
G01 X100.9698 Y22.9596 
G01 X100.9698 Y22.7604 
G01 X101.0010 Y22.5637 
G01 X101.0625 Y22.3743 
G01 X101.1529 Y22.1969 
G01 X101.2700 Y22.0358 
G01 X101.4016 Y21.9041 
G01 X101.4016 Y16.2202 
G01 X101.2548 Y16.0734 
G01 X85.4352 Y16.0734 
G01 X85.2884 Y16.2202 
G01 X85.2884 Y21.9041 
G01 X85.4200 Y22.0358 
G01 X85.5371 Y22.1969 
G01 X85.6275 Y22.3743 
G01 X85.6890 Y22.5637 
G01 X85.7202 Y22.7604 
G01 X85.7202 Y22.9596 
G01 X85.6890 Y23.1563 
G01 X85.6275 Y23.3457 
G01 X85.5371 Y23.5231 
G01 X85.4200 Y23.6842 
G01 X85.2792 Y23.8250 
G01 X85.1181 Y23.9421 
G01 X84.9407 Y24.0325 
G01 X84.7513 Y24.0940 
G01 X84.5546 Y24.1252 
G01 X84.3554 Y24.1252 
G01 X84.1587 Y24.0940 
G01 X83.9693 Y24.0325 
G01 X83.7919 Y23.9421 
G01 X83.6308 Y23.8250 
G01 X83.4900 Y23.6842 
G01 X83.3729 Y23.5231 
G01 X83.2825 Y23.3457 
G01 X83.2210 Y23.1563 
G01 X83.1898 Y22.9596 
G01 X83.1898 Y22.7604 
G01 X83.2210 Y22.5637 
G01 X83.2825 Y22.3743 
G01 X83.3729 Y22.1969 
G01 X83.4900 Y22.0358 
G01 X83.6216 Y21.9041 
G01 X83.6216 Y16.2202 
G01 X83.4748 Y16.0734 
G01 X74.0052 Y16.0734 
G01 X73.2234 Y16.8552 
G01 X73.2234 Y21.6721 
G01 X73.1914 Y21.8331 
G01 X73.1285 Y21.9848 
G01 X73.0373 Y22.1213 
G01 X72.9213 Y22.2373 
G01 X72.2986 Y22.8600 
G01 X72.9213 Y23.4827 
G01 X73.0373 Y23.5987 
G01 X73.1285 Y23.7352 
G01 X73.1914 Y23.8869 
G01 X73.2234 Y24.0479 
G01 X73.2234 Y35.6421 
G01 X73.1914 Y35.8031 
G01 X73.1285 Y35.9548 
G01 X73.0373 Y36.0913 
G01 X71.6513 Y37.4773 
G01 X71.5148 Y37.5685 
G01 X71.3631 Y37.6314 
G01 X71.2021 Y37.6634 
G01 X55.7979 Y37.6634 
G01 X55.6369 Y37.6314 
G01 X55.4852 Y37.5685 
G01 X55.3487 Y37.4773 
G01 X55.2327 Y37.3613 
G01 X54.6100 Y36.7386 
G01 X53.8713 Y37.4773 
G01 X53.7348 Y37.5685 
G01 X53.5831 Y37.6314 
G01 X53.4221 Y37.6634 
G01 X38.0179 Y37.6634 
G01 X37.8569 Y37.6314 
G01 X37.7052 Y37.5685 
G01 X37.5687 Y37.4773 
G01 X36.2987 Y36.2073 
G01 X36.1827 Y36.0913 
G01 X36.0915 Y35.9548 
G01 X36.0286 Y35.8031 
G01 X35.9966 Y35.6421 
G01 X35.9966 Y27.0152 
G01 X33.6502 Y24.6688 
G01 X33.6502 Y26.3826 
G01 X33.6280 Y26.4654 
G01 X33.5852 Y26.5396 
G01 X33.5246 Y26.6002 
G01 X33.4504 Y26.6430 
G01 X33.3676 Y26.6652 
G01 X32.9334 Y26.6652 
G01 X30.0434 Y29.5552 
G01 X30.0434 Y36.9121 
G01 X30.0114 Y37.0731 
G01 X29.9485 Y37.2248 
G01 X29.8573 Y37.3613 
G01 X29.7413 Y37.4773 
G01 X28.4713 Y38.7473 
G01 X28.3348 Y38.8385 
G01 X28.1831 Y38.9014 
G01 X28.0221 Y38.9334 
G01 X4.9979 Y38.9334 
G01 X4.8369 Y38.9014 
G01 X4.6852 Y38.8385 
G01 X4.5487 Y38.7473 
G01 X4.4327 Y38.6313 
G01 X3.1627 Y37.3613 
G01 X3.0715 Y37.2248 
G01 X3.0086 Y37.0731 
G01 X2.9766 Y36.9121 
G01 X2.9766 Y26.1044 
G01 X2.7226 Y25.8504 
G01 X2.7226 Y24.9496 
G01 X3.3596 Y24.3126 
G01 X4.2604 Y24.3126 
G01 X4.8974 Y24.9496 
G01 X4.8974 Y25.8504 
G01 X4.6434 Y26.1044 
G01 X4.6434 Y36.4848 
G01 X5.4252 Y37.2666 
G01 X27.5948 Y37.2666 
G01 X28.3766 Y36.4848 
G01 X28.3766 Y29.1279 
G01 X28.4086 Y28.9669 
G01 X28.4715 Y28.8152 
G01 X28.5627 Y28.6787 
G01 X28.6787 Y28.5627 
G01 X31.1198 Y26.1216 
G01 X31.1198 Y24.4174 
G01 X31.1420 Y24.3346 
G01 X31.1848 Y24.2604 
G01 X31.2454 Y24.1998 
G01 X31.3196 Y24.1570 
G01 X31.4024 Y24.1348 
G01 X33.1162 Y24.1348 
G01 X32.6748 Y23.6934 
G01 X32.0709 Y23.6934 
G01 X31.9392 Y23.8250 
G01 X31.7781 Y23.9421 
G01 X31.6007 Y24.0325 
G01 X31.4113 Y24.0940 
G01 X31.2146 Y24.1252 
G01 X31.0154 Y24.1252 
G01 X30.8187 Y24.0940 
G01 X30.6293 Y24.0325 
G01 X30.4519 Y23.9421 
G01 X30.2908 Y23.8250 
G01 X30.1500 Y23.6842 
G01 X30.0329 Y23.5231 
G01 X29.9425 Y23.3457 
G01 X29.8810 Y23.1563 
G01 X29.8498 Y22.9596 
G01 X29.8498 Y22.7604 
G01 X29.8810 Y22.5637 
G01 X29.9425 Y22.3743 
G01 X30.0329 Y22.1969 
G01 X30.1500 Y22.0358 
G01 X30.2908 Y21.8950 
G01 X30.4519 Y21.7779 
G01 X30.6293 Y21.6875 
G01 X30.8187 Y21.6260 
G01 X30.9166 Y21.6105 
G01 X30.9166 Y9.2352 
G01 X30.1348 Y8.4534 
G01 X10.5052 Y8.4534 
G01 X9.7234 Y9.2352 
G01 X9.7234 Y22.1556 
G01 X9.9774 Y22.4096 
G01 X9.9774 Y23.3104 
G01 X9.3404 Y23.9474 
G01 X8.4396 Y23.9474 
G01 X7.8026 Y23.3104 
G01 X7.8026 Y22.4096 
G01 X8.0566 Y22.1556 
G01 X8.0566 Y9.2352 
G01 X7.6200 Y8.7986 
G01 X7.1834 Y9.2352 
G01 X7.1834 Y22.1556 
G01 X7.4374 Y22.4096 
G01 X7.4374 Y23.3104 
G01 X6.8004 Y23.9474 
G01 X5.8996 Y23.9474 
G01 X5.2626 Y23.3104 
G01 X5.2626 Y22.4096 
G01 X5.5166 Y22.1556 
G01 X5.5166 Y9.2352 
G01 X5.0800 Y8.7986 
G01 X4.6434 Y9.2352 
G01 X4.6434 Y22.1556 
G01 X4.8974 Y22.4096 
G01 X4.8974 Y23.3104 
G01 X4.2604 Y23.9474 
G01 X3.3596 Y23.9474 
G01 X2.7226 Y23.3104 
G01 X2.7226 Y22.4096 
G01 X2.9766 Y22.1556 
G01 X2.9766 Y8.8079 
G01 X3.0086 Y8.6469 
G01 X3.0715 Y8.4952 
G01 X3.1627 Y8.3587 
G01 X4.4327 Y7.0887 
G01 X4.5487 Y6.9727 
G01 X4.6852 Y6.8815 
G01 X4.8369 Y6.8186 
G01 X4.9979 Y6.7866 
G01 X5.1621 Y6.7866 
G01 X5.3231 Y6.8186 
G01 X5.4748 Y6.8815 
G01 X5.6113 Y6.9727 
G01 X6.3500 Y7.7114 
G01 X6.9727 Y7.0887 
G01 X7.0887 Y6.9727 
G01 X7.2252 Y6.8815 
G01 X7.3769 Y6.8186 
G01 X7.5379 Y6.7866 
G01 X7.7021 Y6.7866 
G01 X7.8631 Y6.8186 
G01 X8.0148 Y6.8815 
G01 X8.1513 Y6.9727 
G01 X8.8900 Y7.7114 
G01 X9.5127 Y7.0887 
G01 X9.6287 Y6.9727 
G01 X9.7652 Y6.8815 
G01 X9.9169 Y6.8186 
G01 X10.0779 Y6.7866 
G01 X30.1348 Y6.7866 
G01 X30.9166 Y6.0048 
G01 X30.9166 Y3.7279 
G01 X30.9486 Y3.5669 
G01 X31.0114 Y3.4152 
G01 X31.1027 Y3.2787 
G01 X32.4887 Y1.8927 
G01 X32.6252 Y1.8014 
G01 X32.7769 Y1.7386 
G01 X32.9379 Y1.7066 
G01 X120.7321 Y1.7066 
G01 X120.8931 Y1.7386 
G01 X121.0448 Y1.8014 
G01 X121.1813 Y1.8927 
G01 X121.2973 Y2.0087 
G01 X123.7213 Y4.4327 
G01 X123.8373 Y4.5487 
G01 X123.9285 Y4.6852 
G01 X123.9914 Y4.8369 
G01 X124.0234 Y4.9979 
G01 X124.0234 Y22.1556 
G01 X124.2774 Y22.4096 
G00 Z1.0000 
G00 X121.7374 Y24.9496 
G01 Z0.0000 F127.00 
G01 X121.7374 Y25.8504 F254.00 
G01 X121.4834 Y26.1044 
G01 X121.4834 Y36.9121 
G01 X121.4514 Y37.0731 
G01 X121.3885 Y37.2248 
G01 X121.2973 Y37.3613 
G01 X119.9113 Y38.7473 
G01 X119.7748 Y38.8385 
G01 X119.6231 Y38.9014 
G01 X119.4621 Y38.9334 
G01 X91.3579 Y38.9334 
G01 X91.1969 Y38.9014 
G01 X91.0452 Y38.8385 
G01 X90.9087 Y38.7473 
G01 X90.7927 Y38.6313 
G01 X89.5227 Y37.3613 
G01 X89.4314 Y37.2248 
G01 X89.3686 Y37.0731 
G01 X89.3366 Y36.9121 
G01 X89.3366 Y27.0152 
G01 X88.5548 Y26.2334 
G01 X86.9902 Y26.2334 
G01 X86.9902 Y26.3826 
G01 X86.9680 Y26.4654 
G01 X86.9252 Y26.5396 
G01 X86.8646 Y26.6002 
G01 X86.7904 Y26.6430 
G01 X86.7076 Y26.6652 
G01 X84.7424 Y26.6652 
G01 X84.6596 Y26.6430 
G01 X84.5854 Y26.6002 
G01 X84.5248 Y26.5396 
G01 X84.4820 Y26.4654 
G01 X84.4598 Y26.3826 
G01 X84.4598 Y24.4174 
G01 X84.4820 Y24.3346 
G01 X84.5248 Y24.2604 
G01 X84.5854 Y24.1998 
G01 X84.6596 Y24.1570 
G01 X84.7424 Y24.1348 
G01 X86.7076 Y24.1348 
G01 X86.7904 Y24.1570 
G01 X86.8646 Y24.1998 
G01 X86.9252 Y24.2604 
G01 X86.9680 Y24.3346 
G01 X86.9902 Y24.4174 
G01 X86.9902 Y24.5666 
G01 X88.9821 Y24.5666 
G01 X89.1431 Y24.5986 
G01 X89.2948 Y24.6615 
G01 X89.4313 Y24.7527 
G01 X90.7013 Y26.0227 
G01 X90.8173 Y26.1387 
G01 X90.9085 Y26.2752 
G01 X90.9714 Y26.4269 
G01 X91.0034 Y26.5879 
G01 X91.0034 Y36.4848 
G01 X91.7852 Y37.2666 
G01 X119.0348 Y37.2666 
G01 X119.8166 Y36.4848 
G01 X119.8166 Y26.1044 
G01 X119.5626 Y25.8504 
G01 X119.5626 Y24.9496 
G01 X120.1996 Y24.3126 
G01 X121.1004 Y24.3126 
G01 X121.7374 Y24.9496 
G00 Z1.0000 
G00 X119.1974 Y24.9496 
G01 Z0.0000 F127.00 
G01 X119.1974 Y25.8504 F254.00 
G01 X118.9434 Y26.1044 
G01 X118.9434 Y34.3721 
G01 X118.9114 Y34.5331 
G01 X118.8485 Y34.6848 
G01 X118.7573 Y34.8213 
G01 X117.3713 Y36.2073 
G01 X117.2348 Y36.2985 
G01 X117.0831 Y36.3614 
G01 X116.9221 Y36.3934 
G01 X98.9779 Y36.3934 
G01 X98.8169 Y36.3614 
G01 X98.6652 Y36.2985 
G01 X98.5287 Y36.2073 
G01 X97.7777 Y35.4563 
G01 X97.6865 Y35.3198 
G01 X97.6236 Y35.1681 
G01 X97.5916 Y35.0071 
G01 X97.5916 Y26.3559 
G01 X97.4600 Y26.2242 
G01 X97.3429 Y26.0631 
G01 X97.2525 Y25.8857 
G01 X97.1910 Y25.6963 
G01 X97.1598 Y25.4996 
G01 X97.1598 Y25.3004 
G01 X97.1910 Y25.1037 
G01 X97.2525 Y24.9143 
G01 X97.3429 Y24.7369 
G01 X97.4600 Y24.5758 
G01 X97.6008 Y24.4350 
G01 X97.7619 Y24.3179 
G01 X97.9393 Y24.2275 
G01 X98.1287 Y24.1660 
G01 X98.3254 Y24.1348 
G01 X98.5246 Y24.1348 
G01 X98.7213 Y24.1660 
G01 X98.9107 Y24.2275 
G01 X99.0881 Y24.3179 
G01 X99.2492 Y24.4350 
G01 X99.3900 Y24.5758 
G01 X99.5071 Y24.7369 
G01 X99.5975 Y24.9143 
G01 X99.6590 Y25.1037 
G01 X99.6902 Y25.3004 
G01 X99.6902 Y25.4996 
G01 X99.6590 Y25.6963 
G01 X99.5975 Y25.8857 
G01 X99.5071 Y26.0631 
G01 X99.3900 Y26.2242 
G01 X99.2584 Y26.3559 
G01 X99.2584 Y34.5798 
G01 X99.4052 Y34.7266 
G01 X116.4948 Y34.7266 
G01 X117.2766 Y33.9448 
G01 X117.2766 Y26.1044 
G01 X117.0226 Y25.8504 
G01 X117.0226 Y24.9496 
G01 X117.6596 Y24.3126 
G01 X118.5604 Y24.3126 
G01 X119.1974 Y24.9496 
G00 Z1.0000 
G00 X119.1974 Y22.4096 
G01 Z0.0000 F127.00 
G01 X119.1974 Y23.3104 F254.00 
G01 X118.5604 Y23.9474 
G01 X117.6596 Y23.9474 
G01 X117.0226 Y23.3104 
G01 X117.0226 Y22.4096 
G01 X117.2766 Y22.1556 
G01 X117.2766 Y9.2352 
G01 X116.4948 Y8.4534 
G01 X39.7152 Y8.4534 
G01 X38.9334 Y9.2352 
G01 X38.9334 Y22.5148 
G01 X40.9852 Y24.5666 
G01 X41.5891 Y24.5666 
G01 X41.7208 Y24.4350 
G01 X41.8819 Y24.3179 
G01 X42.0593 Y24.2275 
G01 X42.2487 Y24.1660 
G01 X42.4454 Y24.1348 
G01 X42.6446 Y24.1348 
G01 X42.8413 Y24.1660 
G01 X43.0307 Y24.2275 
G01 X43.2081 Y24.3179 
G01 X43.3692 Y24.4350 
G01 X43.5100 Y24.5758 
G01 X43.6271 Y24.7369 
G01 X43.7175 Y24.9143 
G01 X43.7790 Y25.1037 
G01 X43.8102 Y25.3004 
G01 X43.8102 Y25.4996 
G01 X43.7790 Y25.6963 
G01 X43.7175 Y25.8857 
G01 X43.6271 Y26.0631 
G01 X43.5100 Y26.2242 
G01 X43.3692 Y26.3650 
G01 X43.2081 Y26.4821 
G01 X43.0307 Y26.5725 
G01 X42.8413 Y26.6340 
G01 X42.6446 Y26.6652 
G01 X42.4454 Y26.6652 
G01 X42.2487 Y26.6340 
G01 X42.0593 Y26.5725 
G01 X41.8819 Y26.4821 
G01 X41.7208 Y26.3650 
G01 X41.5891 Y26.2334 
G01 X40.5579 Y26.2334 
G01 X40.3969 Y26.2014 
G01 X40.2452 Y26.1385 
G01 X40.1087 Y26.0473 
G01 X39.9927 Y25.9313 
G01 X37.4527 Y23.3913 
G01 X37.3615 Y23.2548 
G01 X37.2986 Y23.1031 
G01 X37.2666 Y22.9421 
G01 X37.2666 Y8.8079 
G01 X37.2986 Y8.6469 
G01 X37.3615 Y8.4952 
G01 X37.4527 Y8.3587 
G01 X37.5687 Y8.2427 
G01 X38.8387 Y6.9727 
G01 X38.9752 Y6.8815 
G01 X39.1269 Y6.8186 
G01 X39.2879 Y6.7866 
G01 X116.9221 Y6.7866 
G01 X117.0831 Y6.8186 
G01 X117.2348 Y6.8815 
G01 X117.3713 Y6.9727 
G01 X117.4873 Y7.0887 
G01 X118.7573 Y8.3587 
G01 X118.8485 Y8.4952 
G01 X118.9114 Y8.6469 
G01 X118.9434 Y8.8079 
G01 X118.9434 Y22.1556 
G01 X119.1974 Y22.4096 
G00 Z1.0000 
G00 X116.6574 Y24.9496 
G01 Z0.0000 F127.00 
G01 X116.6574 Y25.8504 F254.00 
G01 X116.4034 Y26.1044 
G01 X116.4034 Y26.7521 
G01 X116.3714 Y26.9131 
G01 X116.3085 Y27.0648 
G01 X116.2173 Y27.2013 
G01 X116.1013 Y27.3173 
G01 X114.8313 Y28.5873 
G01 X114.6948 Y28.6785 
G01 X114.5431 Y28.7414 
G01 X114.3821 Y28.7734 
G01 X102.7879 Y28.7734 
G01 X102.6269 Y28.7414 
G01 X102.4752 Y28.6785 
G01 X102.3387 Y28.5873 
G01 X102.2227 Y28.4713 
G01 X100.3177 Y26.5663 
G01 X100.2264 Y26.4298 
G01 X100.2250 Y26.4262 
G01 X100.1408 Y26.3650 
G01 X100.0000 Y26.2242 
G01 X99.8829 Y26.0631 
G01 X99.7925 Y25.8857 
G01 X99.7310 Y25.6963 
G01 X99.6998 Y25.4996 
G01 X99.6998 Y25.3004 
G01 X99.7310 Y25.1037 
G01 X99.7925 Y24.9143 
G01 X99.8829 Y24.7369 
G01 X100.0000 Y24.5758 
G01 X100.1408 Y24.4350 
G01 X100.3019 Y24.3179 
G01 X100.4793 Y24.2275 
G01 X100.6687 Y24.1660 
G01 X100.8654 Y24.1348 
G01 X101.0646 Y24.1348 
G01 X101.2613 Y24.1660 
G01 X101.4507 Y24.2275 
G01 X101.6281 Y24.3179 
G01 X101.7892 Y24.4350 
G01 X101.9300 Y24.5758 
G01 X102.0471 Y24.7369 
G01 X102.1375 Y24.9143 
G01 X102.1990 Y25.1037 
G01 X102.2302 Y25.3004 
G01 X102.2302 Y25.4996 
G01 X102.1990 Y25.6963 
G01 X102.1375 Y25.8857 
G01 X102.0892 Y25.9806 
G01 X102.2398 Y26.1312 
G01 X102.2398 Y24.4174 
G01 X102.2620 Y24.3346 
G01 X102.3048 Y24.2604 
G01 X102.3654 Y24.1998 
G01 X102.4396 Y24.1570 
G01 X102.5224 Y24.1348 
G01 X102.9566 Y24.1348 
G01 X103.4927 Y23.5987 
G01 X103.6087 Y23.4827 
G01 X103.7452 Y23.3915 
G01 X103.8969 Y23.3286 
G01 X104.0579 Y23.2966 
G01 X111.8421 Y23.2966 
G01 X111.9503 Y23.3181 
G01 X111.9426 Y23.3104 
G01 X111.9426 Y22.4096 
G01 X112.1966 Y22.1556 
G01 X112.1966 Y14.3152 
G01 X111.4148 Y13.5334 
G01 X60.0352 Y13.5334 
G01 X59.8884 Y13.6802 
G01 X59.8884 Y21.9041 
G01 X60.0200 Y22.0358 
G01 X60.1371 Y22.1969 
G01 X60.2275 Y22.3743 
G01 X60.2890 Y22.5637 
G01 X60.3202 Y22.7604 
G01 X60.3202 Y22.9596 
G01 X60.2890 Y23.1563 
G01 X60.2275 Y23.3457 
G01 X60.1371 Y23.5231 
G01 X60.0200 Y23.6842 
G01 X59.8792 Y23.8250 
G01 X59.7181 Y23.9421 
G01 X59.5407 Y24.0325 
G01 X59.3513 Y24.0940 
G01 X59.1546 Y24.1252 
G01 X58.9554 Y24.1252 
G01 X58.7587 Y24.0940 
G01 X58.5693 Y24.0325 
G01 X58.3919 Y23.9421 
G01 X58.2308 Y23.8250 
G01 X58.0900 Y23.6842 
G01 X57.9729 Y23.5231 
G01 X57.8825 Y23.3457 
G01 X57.8210 Y23.1563 
G01 X57.7898 Y22.9596 
G01 X57.7898 Y22.7604 
G01 X57.8210 Y22.5637 
G01 X57.8825 Y22.3743 
G01 X57.9729 Y22.1969 
G01 X58.0900 Y22.0358 
G01 X58.2216 Y21.9041 
G01 X58.2216 Y13.2529 
G01 X58.2536 Y13.0919 
G01 X58.3165 Y12.9402 
G01 X58.4077 Y12.8037 
G01 X59.1587 Y12.0527 
G01 X59.2952 Y11.9615 
G01 X59.4469 Y11.8986 
G01 X59.6079 Y11.8666 
G01 X111.8421 Y11.8666 
G01 X112.0031 Y11.8986 
G01 X112.1548 Y11.9615 
G01 X112.2913 Y12.0527 
G01 X112.4073 Y12.1687 
G01 X113.6773 Y13.4387 
G01 X113.7685 Y13.5752 
G01 X113.8314 Y13.7269 
G01 X113.8634 Y13.8879 
G01 X113.8634 Y22.1556 
G01 X114.1174 Y22.4096 
G01 X114.1174 Y23.3104 
G01 X113.4804 Y23.9474 
G01 X112.7560 Y23.9474 
G01 X113.1212 Y24.3126 
G01 X113.4804 Y24.3126 
G01 X114.1174 Y24.9496 
G01 X114.1174 Y25.8504 
G01 X113.4804 Y26.4874 
G01 X112.5796 Y26.4874 
G01 X111.9426 Y25.8504 
G01 X111.9426 Y25.4912 
G01 X111.4148 Y24.9634 
G01 X104.7702 Y24.9634 
G01 X104.7702 Y26.3826 
G01 X104.7480 Y26.4654 
G01 X104.7052 Y26.5396 
G01 X104.6446 Y26.6002 
G01 X104.5704 Y26.6430 
G01 X104.4876 Y26.6652 
G01 X102.7738 Y26.6652 
G01 X103.2152 Y27.1066 
G01 X113.9548 Y27.1066 
G01 X114.7366 Y26.3248 
G01 X114.7366 Y26.1044 
G01 X114.4826 Y25.8504 
G01 X114.4826 Y24.9496 
G01 X115.1196 Y24.3126 
G01 X116.0204 Y24.3126 
G01 X116.6574 Y24.9496 
G00 Z1.0000 
G00 X84.4502 Y25.3004 
G01 Z0.0000 F127.00 
G01 X84.4502 Y25.4996 F254.00 
G01 X84.4190 Y25.6963 
G01 X84.3575 Y25.8857 
G01 X84.2671 Y26.0631 
G01 X84.1500 Y26.2242 
G01 X84.0184 Y26.3559 
G01 X84.0184 Y38.3898 
G01 X85.4352 Y39.8066 
G01 X121.5748 Y39.8066 
G01 X122.3566 Y39.0248 
G01 X122.3566 Y26.1044 
G01 X122.1026 Y25.8504 
G01 X122.1026 Y24.9496 
G01 X122.7396 Y24.3126 
G01 X123.6404 Y24.3126 
G01 X124.2774 Y24.9496 
G01 X124.2774 Y25.8504 
G01 X124.0234 Y26.1044 
G01 X124.0234 Y39.4521 
G01 X123.9914 Y39.6131 
G01 X123.9285 Y39.7648 
G01 X123.8373 Y39.9013 
G01 X122.5673 Y41.1713 
G01 X122.4513 Y41.2873 
G01 X122.3148 Y41.3785 
G01 X122.1631 Y41.4414 
G01 X122.0021 Y41.4734 
G01 X85.0079 Y41.4734 
G01 X84.8469 Y41.4414 
G01 X84.6952 Y41.3785 
G01 X84.5587 Y41.2873 
G01 X84.4427 Y41.1713 
G01 X82.5377 Y39.2663 
G01 X82.4464 Y39.1298 
G01 X82.3836 Y38.9781 
G01 X82.3516 Y38.8171 
G01 X82.3516 Y26.3559 
G01 X82.2200 Y26.2242 
G01 X82.1029 Y26.0631 
G01 X82.0125 Y25.8857 
G01 X81.9510 Y25.6963 
G01 X81.9198 Y25.4996 
G01 X81.9198 Y25.3004 
G01 X81.9510 Y25.1037 
G01 X82.0125 Y24.9143 
G01 X82.1029 Y24.7369 
G01 X82.2200 Y24.5758 
G01 X82.3608 Y24.4350 
G01 X82.5219 Y24.3179 
G01 X82.6993 Y24.2275 
G01 X82.8887 Y24.1660 
G01 X83.0854 Y24.1348 
G01 X83.2846 Y24.1348 
G01 X83.4813 Y24.1660 
G01 X83.6707 Y24.2275 
G01 X83.8481 Y24.3179 
G01 X84.0092 Y24.4350 
G01 X84.1500 Y24.5758 
G01 X84.2671 Y24.7369 
G01 X84.3575 Y24.9143 
G01 X84.4190 Y25.1037 
G01 X84.4502 Y25.3004 
G00 Z1.0000 
G00 X81.9102 Y25.3004 
G01 Z0.0000 F127.00 
G01 X81.9102 Y25.4996 F254.00 
G01 X81.8790 Y25.6963 
G01 X81.8175 Y25.8857 
G01 X81.7271 Y26.0631 
G01 X81.6100 Y26.2242 
G01 X81.4692 Y26.3650 
G01 X81.3081 Y26.4821 
G01 X81.1307 Y26.5725 
G01 X80.9413 Y26.6340 
G01 X80.7446 Y26.6652 
G01 X80.5454 Y26.6652 
G01 X80.3487 Y26.6340 
G01 X80.1593 Y26.5725 
G01 X79.9819 Y26.4821 
G01 X79.8208 Y26.3650 
G01 X79.6800 Y26.2242 
G01 X79.5629 Y26.0631 
G01 X79.4725 Y25.8857 
G01 X79.4110 Y25.6963 
G01 X79.3798 Y25.4996 
G01 X79.3798 Y25.3004 
G01 X79.4110 Y25.1037 
G01 X79.4725 Y24.9143 
G01 X79.5629 Y24.7369 
G01 X79.6800 Y24.5758 
G01 X79.8208 Y24.4350 
G01 X79.9819 Y24.3179 
G01 X80.1593 Y24.2275 
G01 X80.3487 Y24.1660 
G01 X80.5454 Y24.1348 
G01 X80.7446 Y24.1348 
G01 X80.9413 Y24.1660 
G01 X81.1307 Y24.2275 
G01 X81.3081 Y24.3179 
G01 X81.4692 Y24.4350 
G01 X81.6100 Y24.5758 
G01 X81.7271 Y24.7369 
G01 X81.8175 Y24.9143 
G01 X81.8790 Y25.1037 
G01 X81.9102 Y25.3004 
G00 Z1.0000 
G00 X83.1802 Y22.7604 
G01 Z0.0000 F127.00 
G01 X83.1802 Y22.9596 F254.00 
G01 X83.1490 Y23.1563 
G01 X83.0875 Y23.3457 
G01 X82.9971 Y23.5231 
G01 X82.8800 Y23.6842 
G01 X82.7392 Y23.8250 
G01 X82.5781 Y23.9421 
G01 X82.4007 Y24.0325 
G01 X82.2113 Y24.0940 
G01 X82.0146 Y24.1252 
G01 X81.8154 Y24.1252 
G01 X81.6187 Y24.0940 
G01 X81.4293 Y24.0325 
G01 X81.2519 Y23.9421 
G01 X81.0908 Y23.8250 
G01 X80.9500 Y23.6842 
G01 X80.8329 Y23.5231 
G01 X80.7425 Y23.3457 
G01 X80.6810 Y23.1563 
G01 X80.6498 Y22.9596 
G01 X80.6498 Y22.7604 
G01 X80.6810 Y22.5637 
G01 X80.7425 Y22.3743 
G01 X80.8329 Y22.1969 
G01 X80.9500 Y22.0358 
G01 X81.0816 Y21.9041 
G01 X81.0816 Y19.2272 
G01 X81.0275 Y19.1730 
G01 X80.9198 Y19.0249 
G01 X80.8367 Y18.8617 
G01 X80.7801 Y18.6875 
G01 X80.7514 Y18.5066 
G01 X80.7514 Y18.3234 
G01 X80.7801 Y18.1425 
G01 X80.8367 Y17.9683 
G01 X80.9198 Y17.8051 
G01 X81.0275 Y17.6570 
G01 X81.1570 Y17.5275 
G01 X81.3051 Y17.4198 
G01 X81.4683 Y17.3367 
G01 X81.6425 Y17.2801 
G01 X81.8234 Y17.2514 
G01 X82.0066 Y17.2514 
G01 X82.1875 Y17.2801 
G01 X82.3617 Y17.3367 
G01 X82.5249 Y17.4198 
G01 X82.6730 Y17.5275 
G01 X82.8025 Y17.6570 
G01 X82.9102 Y17.8051 
G01 X82.9933 Y17.9683 
G01 X83.0499 Y18.1425 
G01 X83.0786 Y18.3234 
G01 X83.0786 Y18.5066 
G01 X83.0499 Y18.6875 
G01 X82.9933 Y18.8617 
G01 X82.9102 Y19.0249 
G01 X82.8025 Y19.1730 
G01 X82.7484 Y19.2272 
G01 X82.7484 Y21.9041 
G01 X82.8800 Y22.0358 
G01 X82.9971 Y22.1969 
G01 X83.0875 Y22.3743 
G01 X83.1490 Y22.5637 
G01 X83.1802 Y22.7604 
G00 Z1.0000 
G00 X80.6402 Y22.7604 
G01 Z0.0000 F127.00 
G01 X80.6402 Y22.9596 F254.00 
G01 X80.6090 Y23.1563 
G01 X80.5475 Y23.3457 
G01 X80.4571 Y23.5231 
G01 X80.3400 Y23.6842 
G01 X80.1992 Y23.8250 
G01 X80.0381 Y23.9421 
G01 X79.8607 Y24.0325 
G01 X79.6713 Y24.0940 
G01 X79.4746 Y24.1252 
G01 X79.2754 Y24.1252 
G01 X79.0787 Y24.0940 
G01 X78.8893 Y24.0325 
G01 X78.7119 Y23.9421 
G01 X78.5508 Y23.8250 
G01 X78.4100 Y23.6842 
G01 X78.2929 Y23.5231 
G01 X78.2025 Y23.3457 
G01 X78.1410 Y23.1563 
G01 X78.1098 Y22.9596 
G01 X78.1098 Y22.7604 
G01 X78.1410 Y22.5637 
G01 X78.2025 Y22.3743 
G01 X78.2929 Y22.1969 
G01 X78.4100 Y22.0358 
G01 X78.5416 Y21.9041 
G01 X78.5416 Y21.7672 
G01 X78.4875 Y21.7130 
G01 X78.3798 Y21.5649 
G01 X78.2966 Y21.4017 
G01 X78.2401 Y21.2275 
G01 X78.2114 Y21.0466 
G01 X78.2114 Y20.8634 
G01 X78.2401 Y20.6825 
G01 X78.2966 Y20.5083 
G01 X78.3798 Y20.3451 
G01 X78.4875 Y20.1970 
G01 X78.6170 Y20.0675 
G01 X78.7651 Y19.9598 
G01 X78.9283 Y19.8767 
G01 X79.1025 Y19.8201 
G01 X79.2834 Y19.7914 
G01 X79.4666 Y19.7914 
G01 X79.6475 Y19.8201 
G01 X79.8217 Y19.8767 
G01 X79.9849 Y19.9598 
G01 X80.1330 Y20.0675 
G01 X80.2625 Y20.1970 
G01 X80.3702 Y20.3451 
G01 X80.4533 Y20.5083 
G01 X80.5099 Y20.6825 
G01 X80.5386 Y20.8634 
G01 X80.5386 Y21.0466 
G01 X80.5099 Y21.2275 
G01 X80.4533 Y21.4017 
G01 X80.3702 Y21.5649 
G01 X80.2625 Y21.7130 
G01 X80.2084 Y21.7672 
G01 X80.2084 Y21.9041 
G01 X80.3400 Y22.0358 
G01 X80.4571 Y22.1969 
G01 X80.5475 Y22.3743 
G01 X80.6090 Y22.5637 
G01 X80.6402 Y22.7604 
G00 Z1.0000 
G00 X79.3702 Y25.3004 
G01 Z0.0000 F127.00 
G01 X79.3702 Y25.4996 F254.00 
G01 X79.3390 Y25.6963 
G01 X79.2775 Y25.8857 
G01 X79.1871 Y26.0631 
G01 X79.0700 Y26.2242 
G01 X78.9292 Y26.3650 
G01 X78.7681 Y26.4821 
G01 X78.5907 Y26.5725 
G01 X78.4013 Y26.6340 
G01 X78.2046 Y26.6652 
G01 X78.0054 Y26.6652 
G01 X77.8087 Y26.6340 
G01 X77.6193 Y26.5725 
G01 X77.4419 Y26.4821 
G01 X77.2808 Y26.3650 
G01 X77.1400 Y26.2242 
G01 X77.0229 Y26.0631 
G01 X76.9325 Y25.8857 
G01 X76.8710 Y25.6963 
G01 X76.8398 Y25.4996 
G01 X76.8398 Y25.3004 
G01 X76.8710 Y25.1037 
G01 X76.9325 Y24.9143 
G01 X77.0229 Y24.7369 
G01 X77.1400 Y24.5758 
G01 X77.2808 Y24.4350 
G01 X77.4419 Y24.3179 
G01 X77.6193 Y24.2275 
G01 X77.8087 Y24.1660 
G01 X78.0054 Y24.1348 
G01 X78.2046 Y24.1348 
G01 X78.4013 Y24.1660 
G01 X78.5907 Y24.2275 
G01 X78.7681 Y24.3179 
G01 X78.9292 Y24.4350 
G01 X79.0700 Y24.5758 
G01 X79.1871 Y24.7369 
G01 X79.2775 Y24.9143 
G01 X79.3390 Y25.1037 
G01 X79.3702 Y25.3004 
G00 Z1.0000 
G00 X78.1002 Y22.7604 
G01 Z0.0000 F127.00 
G01 X78.1002 Y22.9596 F254.00 
G01 X78.0690 Y23.1563 
G01 X78.0075 Y23.3457 
G01 X77.9171 Y23.5231 
G01 X77.8000 Y23.6842 
G01 X77.6592 Y23.8250 
G01 X77.4981 Y23.9421 
G01 X77.3207 Y24.0325 
G01 X77.1313 Y24.0940 
G01 X76.9346 Y24.1252 
G01 X76.7354 Y24.1252 
G01 X76.5387 Y24.0940 
G01 X76.3493 Y24.0325 
G01 X76.1719 Y23.9421 
G01 X76.0108 Y23.8250 
G01 X75.8700 Y23.6842 
G01 X75.7529 Y23.5231 
G01 X75.6625 Y23.3457 
G01 X75.6010 Y23.1563 
G01 X75.5698 Y22.9596 
G01 X75.5698 Y22.7604 
G01 X75.6010 Y22.5637 
G01 X75.6625 Y22.3743 
G01 X75.7529 Y22.1969 
G01 X75.8700 Y22.0358 
G01 X76.0108 Y21.8950 
G01 X76.1719 Y21.7779 
G01 X76.3493 Y21.6875 
G01 X76.5387 Y21.6260 
G01 X76.7354 Y21.5948 
G01 X76.9346 Y21.5948 
G01 X77.1313 Y21.6260 
G01 X77.3207 Y21.6875 
G01 X77.4981 Y21.7779 
G01 X77.6592 Y21.8950 
G01 X77.8000 Y22.0358 
G01 X77.9171 Y22.1969 
G01 X78.0075 Y22.3743 
G01 X78.0690 Y22.5637 
G01 X78.1002 Y22.7604 
G00 Z1.0000 
G00 X13.0452 Y10.9934 
G01 Z0.0000 F127.00 
G01 X12.2634 Y11.7752 F254.00 
G01 X12.2634 Y22.1556 
G01 X12.5174 Y22.4096 
G01 X12.5174 Y23.3104 
G01 X11.8804 Y23.9474 
G01 X10.9796 Y23.9474 
G01 X10.3426 Y23.3104 
G01 X10.3426 Y22.4096 
G01 X10.5966 Y22.1556 
G01 X10.5966 Y11.3479 
G01 X10.6286 Y11.1869 
G01 X10.6914 Y11.0352 
G01 X10.7827 Y10.8987 
G01 X12.1687 Y9.5127 
G01 X12.3052 Y9.4215 
G01 X12.4569 Y9.3586 
G01 X12.6179 Y9.3266 
G01 X28.0221 Y9.3266 
G01 X28.1831 Y9.3586 
G01 X28.3348 Y9.4215 
G01 X28.4713 Y9.5127 
G01 X28.5900 Y9.6314 
G01 X28.6666 Y9.6314 
G01 X28.8475 Y9.6601 
G01 X29.0217 Y9.7167 
G01 X29.1849 Y9.7998 
G01 X29.3330 Y9.9075 
G01 X29.4625 Y10.0370 
G01 X29.5702 Y10.1851 
G01 X29.6533 Y10.3483 
G01 X29.7099 Y10.5225 
G01 X29.7386 Y10.7034 
G01 X29.7386 Y10.8866 
G01 X29.7099 Y11.0675 
G01 X29.6533 Y11.2417 
G01 X29.5702 Y11.4049 
G01 X29.4625 Y11.5530 
G01 X29.4084 Y11.6072 
G01 X29.4084 Y21.9041 
G01 X29.5400 Y22.0358 
G01 X29.6571 Y22.1969 
G01 X29.7475 Y22.3743 
G01 X29.8090 Y22.5637 
G01 X29.8402 Y22.7604 
G01 X29.8402 Y22.9596 
G01 X29.8090 Y23.1563 
G01 X29.7475 Y23.3457 
G01 X29.6571 Y23.5231 
G01 X29.5400 Y23.6842 
G01 X29.3992 Y23.8250 
G01 X29.2381 Y23.9421 
G01 X29.0607 Y24.0325 
G01 X28.8713 Y24.0940 
G01 X28.6746 Y24.1252 
G01 X28.4754 Y24.1252 
G01 X28.2787 Y24.0940 
G01 X28.0893 Y24.0325 
G01 X27.9119 Y23.9421 
G01 X27.7508 Y23.8250 
G01 X27.6100 Y23.6842 
G01 X27.4929 Y23.5231 
G01 X27.4025 Y23.3457 
G01 X27.3410 Y23.1563 
G01 X27.3098 Y22.9596 
G01 X27.3098 Y22.7604 
G01 X27.3410 Y22.5637 
G01 X27.4025 Y22.3743 
G01 X27.4929 Y22.1969 
G01 X27.6100 Y22.0358 
G01 X27.7416 Y21.9041 
G01 X27.7416 Y11.6072 
G01 X27.6875 Y11.5530 
G01 X27.5798 Y11.4049 
G01 X27.4967 Y11.2417 
G01 X27.4401 Y11.0675 
G01 X27.4283 Y10.9934 
G01 X13.0452 Y10.9934 
G00 Z1.0000 
G00 X32.0220 Y23.9219 
G01 Z0.0000 F127.00 
G01 X31.9037 Y24.0078 F254.00 
G01 X32.8096 Y24.0078 
G01 X32.6222 Y23.8204 
G01 X32.1235 Y23.8204 
G01 X32.0220 Y23.9219 
G00 Z1.0000 
G00 X60.1169 Y21.9530 
G01 Z0.0000 F127.00 
G01 X60.2457 Y22.1303 F254.00 
G01 X60.3250 Y22.2859 
G01 X60.4043 Y22.1303 
G01 X60.5331 Y21.9530 
G01 X60.6346 Y21.8515 
G01 X60.6346 Y21.8198 
G01 X60.6106 Y21.7958 
G01 X60.4912 Y21.6314 
G01 X60.3990 Y21.4504 
G01 X60.3362 Y21.2572 
G01 X60.3044 Y21.0566 
G01 X60.3044 Y20.8534 
G01 X60.3362 Y20.6528 
G01 X60.3990 Y20.4596 
G01 X60.4912 Y20.2786 
G01 X60.6106 Y20.1142 
G01 X60.7542 Y19.9706 
G01 X60.9186 Y19.8512 
G01 X61.0996 Y19.7590 
G01 X61.2928 Y19.6962 
G01 X61.4934 Y19.6644 
G01 X61.6966 Y19.6644 
G01 X61.8972 Y19.6962 
G01 X62.0904 Y19.7590 
G01 X62.2714 Y19.8512 
G01 X62.4358 Y19.9706 
G01 X62.5794 Y20.1142 
G01 X62.6988 Y20.2786 
G01 X62.7910 Y20.4596 
G01 X62.8538 Y20.6528 
G01 X62.8856 Y20.8534 
G01 X62.8856 Y21.0566 
G01 X62.8538 Y21.2572 
G01 X62.7910 Y21.4504 
G01 X62.6988 Y21.6314 
G01 X62.5794 Y21.7958 
G01 X62.5554 Y21.8198 
G01 X62.5554 Y21.8515 
G01 X62.6569 Y21.9530 
G01 X62.7857 Y22.1303 
G01 X62.8650 Y22.2859 
G01 X62.9443 Y22.1303 
G01 X63.0731 Y21.9530 
G01 X63.1746 Y21.8515 
G01 X63.1746 Y19.2798 
G01 X63.1506 Y19.2558 
G01 X63.0312 Y19.0914 
G01 X62.9390 Y18.9104 
G01 X62.8762 Y18.7172 
G01 X62.8444 Y18.5166 
G01 X62.8444 Y18.3134 
G01 X62.8762 Y18.1128 
G01 X62.9390 Y17.9196 
G01 X63.0312 Y17.7386 
G01 X63.1506 Y17.5742 
G01 X63.2942 Y17.4306 
G01 X63.4586 Y17.3112 
G01 X63.6396 Y17.2190 
G01 X63.8328 Y17.1562 
G01 X64.0334 Y17.1244 
G01 X64.2366 Y17.1244 
G01 X64.4372 Y17.1562 
G01 X64.6304 Y17.2190 
G01 X64.8114 Y17.3112 
G01 X64.9758 Y17.4306 
G01 X65.1194 Y17.5742 
G01 X65.2388 Y17.7386 
G01 X65.3310 Y17.9196 
G01 X65.3938 Y18.1128 
G01 X65.4256 Y18.3134 
G01 X65.4256 Y18.5166 
G01 X65.3938 Y18.7172 
G01 X65.3310 Y18.9104 
G01 X65.2388 Y19.0914 
G01 X65.1194 Y19.2558 
G01 X65.0954 Y19.2798 
G01 X65.0954 Y21.8515 
G01 X65.1969 Y21.9530 
G01 X65.3257 Y22.1303 
G01 X65.4050 Y22.2859 
G01 X65.4843 Y22.1303 
G01 X65.6131 Y21.9530 
G01 X65.7680 Y21.7981 
G01 X65.9453 Y21.6693 
G01 X66.1406 Y21.5698 
G01 X66.3490 Y21.5021 
G01 X66.5654 Y21.4678 
G01 X66.7846 Y21.4678 
G01 X67.0010 Y21.5021 
G01 X67.2094 Y21.5698 
G01 X67.4047 Y21.6693 
G01 X67.5820 Y21.7981 
G01 X67.6835 Y21.8996 
G01 X70.7222 Y21.8996 
G01 X71.4296 Y21.1922 
G01 X71.4296 Y16.4154 
G01 X71.4665 Y16.2299 
G01 X71.5389 Y16.0551 
G01 X71.6440 Y15.8978 
G01 X73.0478 Y14.4940 
G01 X73.2051 Y14.3889 
G01 X73.3799 Y14.3165 
G01 X73.5654 Y14.2796 
G01 X83.9146 Y14.2796 
G01 X84.1001 Y14.3165 
G01 X84.2749 Y14.3889 
G01 X84.4322 Y14.4940 
G01 X84.4550 Y14.5168 
G01 X84.4778 Y14.4940 
G01 X84.6351 Y14.3889 
G01 X84.8099 Y14.3165 
G01 X84.9954 Y14.2796 
G01 X101.6946 Y14.2796 
G01 X101.8801 Y14.3165 
G01 X102.0549 Y14.3889 
G01 X102.2122 Y14.4940 
G01 X102.3460 Y14.6278 
G01 X102.9810 Y15.2628 
G01 X103.0861 Y15.4201 
G01 X103.1585 Y15.5949 
G01 X103.1954 Y15.7804 
G01 X103.1954 Y21.8515 
G01 X103.2969 Y21.9530 
G01 X103.4257 Y22.1303 
G01 X103.5252 Y22.3256 
G01 X103.5929 Y22.5340 
G01 X103.6272 Y22.7504 
G01 X103.6272 Y22.9696 
G01 X103.5929 Y23.1860 
G01 X103.5288 Y23.3833 
G01 X103.6851 Y23.2789 
G01 X103.8599 Y23.2065 
G01 X104.0454 Y23.1696 
G01 X111.8156 Y23.1696 
G01 X111.8156 Y22.3570 
G01 X112.0696 Y22.1030 
G01 X112.0696 Y14.3678 
G01 X111.3622 Y13.6604 
G01 X60.0878 Y13.6604 
G01 X60.0154 Y13.7328 
G01 X60.0154 Y21.8515 
G01 X60.1169 Y21.9530 
G00 Z1.0000 
G00 X41.0378 Y26.9796 
G01 Z0.0000 F127.00 
G01 X44.0522 Y26.9796 F254.00 
G01 X44.1246 Y26.9072 
G01 X44.1246 Y26.4085 
G01 X44.0231 Y26.3070 
G01 X43.8943 Y26.1297 
G01 X43.8150 Y25.9741 
G01 X43.7357 Y26.1297 
G01 X43.6069 Y26.3070 
G01 X43.4520 Y26.4619 
G01 X43.2747 Y26.5907 
G01 X43.0794 Y26.6902 
G01 X42.8710 Y26.7579 
G01 X42.6546 Y26.7922 
G01 X42.4354 Y26.7922 
G01 X42.2190 Y26.7579 
G01 X42.0106 Y26.6902 
G01 X41.8153 Y26.5907 
G01 X41.6380 Y26.4619 
G01 X41.5365 Y26.3604 
G01 X40.5454 Y26.3604 
G01 X40.3871 Y26.3289 
G01 X41.0378 Y26.9796 
G00 Z1.0000 
G00 X41.6380 Y24.3381 
G01 Z0.0000 F127.00 
G01 X41.8153 Y24.2093 F254.00 
G01 X42.0106 Y24.1098 
G01 X42.2190 Y24.0421 
G01 X42.4354 Y24.0078 
G01 X42.6546 Y24.0078 
G01 X42.8710 Y24.0421 
G01 X43.0794 Y24.1098 
G01 X43.2747 Y24.2093 
G01 X43.4520 Y24.3381 
G01 X43.6069 Y24.4930 
G01 X43.7357 Y24.6703 
G01 X43.8150 Y24.8259 
G01 X43.8943 Y24.6703 
G01 X44.0231 Y24.4930 
G01 X44.1780 Y24.3381 
G01 X44.3553 Y24.2093 
G01 X44.5506 Y24.1098 
G01 X44.7590 Y24.0421 
G01 X44.9754 Y24.0078 
G01 X45.1946 Y24.0078 
G01 X45.4110 Y24.0421 
G01 X45.6194 Y24.1098 
G01 X45.8147 Y24.2093 
G01 X45.9920 Y24.3381 
G01 X46.1469 Y24.4930 
G01 X46.2757 Y24.6703 
G01 X46.3550 Y24.8259 
G01 X46.4343 Y24.6703 
G01 X46.5631 Y24.4930 
G01 X46.7180 Y24.3381 
G01 X46.8953 Y24.2093 
G01 X47.0906 Y24.1098 
G01 X47.2990 Y24.0421 
G01 X47.5154 Y24.0078 
G01 X47.7346 Y24.0078 
G01 X47.9510 Y24.0421 
G01 X48.1594 Y24.1098 
G01 X48.3547 Y24.2093 
G01 X48.5320 Y24.3381 
G01 X48.6869 Y24.4930 
G01 X48.7728 Y24.6113 
G01 X48.7728 Y24.4006 
G01 X48.8036 Y24.2856 
G01 X48.8229 Y24.2522 
G01 X48.7854 Y24.2522 
G01 X48.5690 Y24.2179 
G01 X48.3606 Y24.1502 
G01 X48.1653 Y24.0507 
G01 X47.9880 Y23.9219 
G01 X47.8331 Y23.7670 
G01 X47.7043 Y23.5897 
G01 X47.6250 Y23.4341 
G01 X47.5457 Y23.5897 
G01 X47.4169 Y23.7670 
G01 X47.2620 Y23.9219 
G01 X47.0847 Y24.0507 
G01 X46.8894 Y24.1502 
G01 X46.6810 Y24.2179 
G01 X46.4646 Y24.2522 
G01 X46.2454 Y24.2522 
G01 X46.0290 Y24.2179 
G01 X45.8206 Y24.1502 
G01 X45.6253 Y24.0507 
G01 X45.4480 Y23.9219 
G01 X45.2931 Y23.7670 
G01 X45.1643 Y23.5897 
G01 X45.0850 Y23.4341 
G01 X45.0057 Y23.5897 
G01 X44.8769 Y23.7670 
G01 X44.7220 Y23.9219 
G01 X44.5447 Y24.0507 
G01 X44.3494 Y24.1502 
G01 X44.1410 Y24.2179 
G01 X43.9246 Y24.2522 
G01 X43.7054 Y24.2522 
G01 X43.4890 Y24.2179 
G01 X43.2806 Y24.1502 
G01 X43.0853 Y24.0507 
G01 X42.9080 Y23.9219 
G01 X42.7531 Y23.7670 
G01 X42.6243 Y23.5897 
G01 X42.5450 Y23.4341 
G01 X42.4657 Y23.5897 
G01 X42.3369 Y23.7670 
G01 X42.1820 Y23.9219 
G01 X42.0047 Y24.0507 
G01 X41.8094 Y24.1502 
G01 X41.6010 Y24.2179 
G01 X41.3846 Y24.2522 
G01 X41.1654 Y24.2522 
G01 X40.9490 Y24.2179 
G01 X40.7522 Y24.1540 
G01 X41.0378 Y24.4396 
G01 X41.5365 Y24.4396 
G01 X41.6380 Y24.3381 
G00 Z1.0000 
G00 X37.7589 Y26.4171 
G01 Z0.0000 F127.00 
G01 X37.7904 Y26.5754 F254.00 
G01 X37.7904 Y35.1622 
G01 X38.4978 Y35.8696 
G01 X52.9422 Y35.8696 
G01 X53.6496 Y35.1622 
G01 X53.6496 Y24.5278 
G01 X52.9422 Y23.8204 
G01 X49.9035 Y23.8204 
G01 X49.8020 Y23.9219 
G01 X49.6837 Y24.0078 
G01 X51.1644 Y24.0078 
G01 X51.2794 Y24.0386 
G01 X51.3826 Y24.0982 
G01 X51.4668 Y24.1824 
G01 X51.5264 Y24.2856 
G01 X51.5572 Y24.4006 
G01 X51.5572 Y26.3994 
G01 X51.5264 Y26.5144 
G01 X51.4668 Y26.6176 
G01 X51.3826 Y26.7018 
G01 X51.2794 Y26.7614 
G01 X51.1644 Y26.7922 
G01 X49.1656 Y26.7922 
G01 X49.0506 Y26.7614 
G01 X48.9474 Y26.7018 
G01 X48.8632 Y26.6176 
G01 X48.8036 Y26.5144 
G01 X48.7728 Y26.3994 
G01 X48.7728 Y26.1887 
G01 X48.6869 Y26.3070 
G01 X48.5320 Y26.4619 
G01 X48.3547 Y26.5907 
G01 X48.1594 Y26.6902 
G01 X47.9510 Y26.7579 
G01 X47.7346 Y26.7922 
G01 X47.5154 Y26.7922 
G01 X47.2990 Y26.7579 
G01 X47.0906 Y26.6902 
G01 X46.8953 Y26.5907 
G01 X46.7180 Y26.4619 
G01 X46.5631 Y26.3070 
G01 X46.4343 Y26.1297 
G01 X46.3550 Y25.9741 
G01 X46.2757 Y26.1297 
G01 X46.1469 Y26.3070 
G01 X46.0454 Y26.4085 
G01 X46.0454 Y27.3996 
G01 X46.0085 Y27.5851 
G01 X45.9361 Y27.7599 
G01 X45.8310 Y27.9172 
G01 X45.1960 Y28.5522 
G01 X45.0622 Y28.6860 
G01 X44.9049 Y28.7911 
G01 X44.7301 Y28.8635 
G01 X44.5446 Y28.9004 
G01 X40.5454 Y28.9004 
G01 X40.3599 Y28.8635 
G01 X40.1851 Y28.7911 
G01 X40.0278 Y28.6860 
G01 X39.8940 Y28.5522 
G01 X37.7589 Y26.4171 
G00 Z1.0000 
G00 X20.0671 Y27.0111 
G01 Z0.0000 F127.00 
G01 X20.2254 Y26.9796 F254.00 
G01 X24.3672 Y26.9796 
G01 X24.5684 Y26.7784 
G01 X24.4390 Y26.7579 
G01 X24.2306 Y26.6902 
G01 X24.0353 Y26.5907 
G01 X23.8580 Y26.4619 
G01 X23.7565 Y26.3604 
G01 X20.7178 Y26.3604 
G01 X20.0671 Y27.0111 
G00 Z1.0000 
G00 X20.0671 Y24.4711 
G01 Z0.0000 F127.00 
G01 X20.2254 Y24.4396 F254.00 
G01 X23.7565 Y24.4396 
G01 X23.8580 Y24.3381 
G01 X24.0353 Y24.2093 
G01 X24.2306 Y24.1098 
G01 X24.4390 Y24.0421 
G01 X24.6554 Y24.0078 
G01 X24.8746 Y24.0078 
G01 X25.0910 Y24.0421 
G01 X25.2994 Y24.1098 
G01 X25.4947 Y24.2093 
G01 X25.6720 Y24.3381 
G01 X25.8269 Y24.4930 
G01 X25.9557 Y24.6703 
G01 X26.0350 Y24.8259 
G01 X26.1143 Y24.6703 
G01 X26.2431 Y24.4930 
G01 X26.3980 Y24.3381 
G01 X26.5753 Y24.2093 
G01 X26.7706 Y24.1098 
G01 X26.9790 Y24.0421 
G01 X27.1954 Y24.0078 
G01 X27.4146 Y24.0078 
G01 X27.6310 Y24.0421 
G01 X27.8394 Y24.1098 
G01 X28.0347 Y24.2093 
G01 X28.2120 Y24.3381 
G01 X28.3669 Y24.4930 
G01 X28.4957 Y24.6703 
G01 X28.5750 Y24.8259 
G01 X28.6543 Y24.6703 
G01 X28.7831 Y24.4930 
G01 X28.9380 Y24.3381 
G01 X29.1153 Y24.2093 
G01 X29.3106 Y24.1098 
G01 X29.5190 Y24.0421 
G01 X29.7354 Y24.0078 
G01 X29.9546 Y24.0078 
G01 X30.1710 Y24.0421 
G01 X30.3794 Y24.1098 
G01 X30.5747 Y24.2093 
G01 X30.7520 Y24.3381 
G01 X30.9069 Y24.4930 
G01 X30.9928 Y24.6113 
G01 X30.9928 Y24.4006 
G01 X31.0236 Y24.2856 
G01 X31.0429 Y24.2522 
G01 X31.0054 Y24.2522 
G01 X30.7890 Y24.2179 
G01 X30.5806 Y24.1502 
G01 X30.3853 Y24.0507 
G01 X30.2080 Y23.9219 
G01 X30.0531 Y23.7670 
G01 X29.9243 Y23.5897 
G01 X29.8450 Y23.4341 
G01 X29.7657 Y23.5897 
G01 X29.6369 Y23.7670 
G01 X29.4820 Y23.9219 
G01 X29.3047 Y24.0507 
G01 X29.1094 Y24.1502 
G01 X28.9010 Y24.2179 
G01 X28.6846 Y24.2522 
G01 X28.4654 Y24.2522 
G01 X28.2490 Y24.2179 
G01 X28.0406 Y24.1502 
G01 X27.8453 Y24.0507 
G01 X27.6680 Y23.9219 
G01 X27.5131 Y23.7670 
G01 X27.3843 Y23.5897 
G01 X27.3050 Y23.4341 
G01 X27.2257 Y23.5897 
G01 X27.0969 Y23.7670 
G01 X26.9420 Y23.9219 
G01 X26.7647 Y24.0507 
G01 X26.5694 Y24.1502 
G01 X26.3610 Y24.2179 
G01 X26.1446 Y24.2522 
G01 X25.9254 Y24.2522 
G01 X25.7090 Y24.2179 
G01 X25.5006 Y24.1502 
G01 X25.3053 Y24.0507 
G01 X25.1280 Y23.9219 
G01 X24.9731 Y23.7670 
G01 X24.8443 Y23.5897 
G01 X24.7650 Y23.4341 
G01 X24.6857 Y23.5897 
G01 X24.5569 Y23.7670 
G01 X24.4020 Y23.9219 
G01 X24.2247 Y24.0507 
G01 X24.0294 Y24.1502 
G01 X23.8210 Y24.2179 
G01 X23.6046 Y24.2522 
G01 X23.3854 Y24.2522 
G01 X23.1690 Y24.2179 
G01 X22.9606 Y24.1502 
G01 X22.7653 Y24.0507 
G01 X22.5880 Y23.9219 
G01 X22.4865 Y23.8204 
G01 X20.7178 Y23.8204 
G01 X20.0671 Y24.4711 
G00 Z1.0000 
G00 X15.1844 Y22.3570 
G01 Z0.0000 F127.00 
G01 X15.1844 Y23.3630 F254.00 
G01 X14.4730 Y24.0744 
G01 X13.4670 Y24.0744 
G01 X12.7556 Y23.3630 
G01 X12.7556 Y22.3570 
G01 X13.0096 Y22.1030 
G01 X13.0096 Y21.4954 
G01 X13.0465 Y21.3099 
G01 X13.1189 Y21.1351 
G01 X13.2240 Y20.9778 
G01 X14.6278 Y19.5740 
G01 X14.7851 Y19.4689 
G01 X14.9599 Y19.3965 
G01 X15.1454 Y19.3596 
G01 X25.4946 Y19.3596 
G01 X25.6801 Y19.3965 
G01 X25.8549 Y19.4689 
G01 X26.0122 Y19.5740 
G01 X26.1026 Y19.6644 
G01 X26.1366 Y19.6644 
G01 X26.3372 Y19.6962 
G01 X26.5304 Y19.7590 
G01 X26.7114 Y19.8512 
G01 X26.8758 Y19.9706 
G01 X27.0194 Y20.1142 
G01 X27.1388 Y20.2786 
G01 X27.2310 Y20.4596 
G01 X27.2938 Y20.6528 
G01 X27.3256 Y20.8534 
G01 X27.3256 Y21.0566 
G01 X27.2938 Y21.2572 
G01 X27.2310 Y21.4504 
G01 X27.1388 Y21.6314 
G01 X27.0194 Y21.7958 
G01 X26.9954 Y21.8198 
G01 X26.9954 Y21.8515 
G01 X27.0969 Y21.9530 
G01 X27.2257 Y22.1303 
G01 X27.3050 Y22.2859 
G01 X27.3843 Y22.1303 
G01 X27.5131 Y21.9530 
G01 X27.6146 Y21.8515 
G01 X27.6146 Y11.6598 
G01 X27.5906 Y11.6358 
G01 X27.4712 Y11.4714 
G01 X27.3790 Y11.2904 
G01 X27.3237 Y11.1204 
G01 X13.0978 Y11.1204 
G01 X12.3904 Y11.8278 
G01 X12.3904 Y22.1030 
G01 X12.6444 Y22.3570 
G01 X12.6444 Y23.3630 
G01 X11.9330 Y24.0744 
G01 X10.9270 Y24.0744 
G01 X10.2156 Y23.3630 
G01 X10.2156 Y22.3570 
G01 X10.4696 Y22.1030 
G01 X10.4696 Y11.3354 
G01 X10.5065 Y11.1499 
G01 X10.5789 Y10.9751 
G01 X10.6840 Y10.8178 
G01 X12.0878 Y9.4140 
G01 X12.2451 Y9.3089 
G01 X12.4199 Y9.2365 
G01 X12.6054 Y9.1996 
G01 X28.0346 Y9.1996 
G01 X28.2201 Y9.2365 
G01 X28.3949 Y9.3089 
G01 X28.5522 Y9.4140 
G01 X28.6426 Y9.5044 
G01 X28.6766 Y9.5044 
G01 X28.8772 Y9.5362 
G01 X29.0704 Y9.5990 
G01 X29.2514 Y9.6912 
G01 X29.4158 Y9.8106 
G01 X29.5594 Y9.9542 
G01 X29.6788 Y10.1186 
G01 X29.7710 Y10.2996 
G01 X29.8338 Y10.4928 
G01 X29.8656 Y10.6934 
G01 X29.8656 Y10.8966 
G01 X29.8338 Y11.0972 
G01 X29.7710 Y11.2904 
G01 X29.6788 Y11.4714 
G01 X29.5594 Y11.6358 
G01 X29.5354 Y11.6598 
G01 X29.5354 Y21.8515 
G01 X29.6369 Y21.9530 
G01 X29.7657 Y22.1303 
G01 X29.8450 Y22.2859 
G01 X29.9243 Y22.1303 
G01 X30.0531 Y21.9530 
G01 X30.2080 Y21.7981 
G01 X30.3853 Y21.6693 
G01 X30.5806 Y21.5698 
G01 X30.7890 Y21.5021 
G01 X30.7896 Y9.2878 
G01 X30.0822 Y8.5804 
G01 X10.5578 Y8.5804 
G01 X9.8504 Y9.2878 
G01 X9.8504 Y22.1030 
G01 X10.1044 Y22.3570 
G01 X10.1044 Y23.3630 
G01 X9.3930 Y24.0744 
G01 X8.3870 Y24.0744 
G01 X7.6756 Y23.3630 
G01 X7.6756 Y22.3570 
G01 X7.9296 Y22.1030 
G01 X7.9296 Y9.2878 
G01 X7.6200 Y8.9782 
G01 X7.3104 Y9.2878 
G01 X7.3104 Y22.1030 
G01 X7.5644 Y22.3570 
G01 X7.5644 Y23.3630 
G01 X6.8530 Y24.0744 
G01 X5.8470 Y24.0744 
G01 X5.1356 Y23.3630 
G01 X5.1356 Y22.3570 
G01 X5.3896 Y22.1030 
G01 X5.3896 Y9.2878 
G01 X5.0800 Y8.9782 
G01 X4.7704 Y9.2878 
G01 X4.7704 Y22.1030 
G01 X5.0244 Y22.3570 
G01 X5.0244 Y23.3630 
G01 X4.3130 Y24.0744 
G01 X3.3070 Y24.0744 
G01 X2.5956 Y23.3630 
G01 X2.5956 Y22.3570 
G01 X2.8496 Y22.1030 
G01 X2.8496 Y8.7954 
G01 X2.8865 Y8.6099 
G01 X2.9589 Y8.4351 
G01 X3.0640 Y8.2778 
G01 X4.3340 Y7.0078 
G01 X4.4678 Y6.8740 
G01 X4.6251 Y6.7689 
G01 X4.7999 Y6.6965 
G01 X4.9854 Y6.6596 
G01 X5.1746 Y6.6596 
G01 X5.3601 Y6.6965 
G01 X5.5349 Y6.7689 
G01 X5.6922 Y6.8740 
G01 X6.3500 Y7.5318 
G01 X6.8740 Y7.0078 
G01 X7.0078 Y6.8740 
G01 X7.1651 Y6.7689 
G01 X7.3399 Y6.6965 
G01 X7.5254 Y6.6596 
G01 X7.7146 Y6.6596 
G01 X7.9001 Y6.6965 
G01 X8.0749 Y6.7689 
G01 X8.2322 Y6.8740 
G01 X8.8900 Y7.5318 
G01 X9.4140 Y7.0078 
G01 X9.5478 Y6.8740 
G01 X9.7051 Y6.7689 
G01 X9.8799 Y6.6965 
G01 X10.0654 Y6.6596 
G01 X30.0822 Y6.6596 
G01 X30.7896 Y5.9522 
G01 X30.7896 Y3.7154 
G01 X30.8265 Y3.5299 
G01 X30.8989 Y3.3551 
G01 X31.0040 Y3.1978 
G01 X32.4078 Y1.7940 
G01 X32.5651 Y1.6889 
G01 X32.7399 Y1.6165 
G01 X32.9254 Y1.5796 
G01 X120.7446 Y1.5796 
G01 X120.9301 Y1.6165 
G01 X121.1049 Y1.6889 
G01 X121.2622 Y1.7940 
G01 X121.3960 Y1.9278 
G01 X123.8022 Y4.3340 
G01 X123.9360 Y4.4678 
G01 X124.0411 Y4.6251 
G01 X124.1135 Y4.7999 
G01 X124.1504 Y4.9854 
G01 X124.1504 Y22.1030 
G01 X124.4044 Y22.3570 
G01 X124.4044 Y23.3630 
G01 X123.6930 Y24.0744 
G01 X122.6870 Y24.0744 
G01 X121.9756 Y23.3630 
G01 X121.9756 Y22.3570 
G01 X122.2296 Y22.1030 
G01 X122.2296 Y5.4778 
G01 X120.2522 Y3.5004 
G01 X33.4178 Y3.5004 
G01 X32.7104 Y4.2078 
G01 X32.7104 Y6.4446 
G01 X32.6735 Y6.6301 
G01 X32.6011 Y6.8049 
G01 X32.4960 Y6.9622 
G01 X32.3622 Y7.0960 
G01 X31.8382 Y7.6200 
G01 X32.4960 Y8.2778 
G01 X32.6011 Y8.4351 
G01 X32.6735 Y8.6099 
G01 X32.7104 Y8.7954 
G01 X32.7104 Y21.1922 
G01 X33.7660 Y22.2478 
G01 X34.6311 Y23.1129 
G01 X34.5996 Y22.9546 
G01 X34.5996 Y6.2554 
G01 X34.6365 Y6.0699 
G01 X34.7089 Y5.8951 
G01 X34.8140 Y5.7378 
G01 X34.9478 Y5.6040 
G01 X36.0840 Y4.4678 
G01 X36.2178 Y4.3340 
G01 X36.3751 Y4.2289 
G01 X36.5499 Y4.1565 
G01 X36.7354 Y4.1196 
G01 X119.4746 Y4.1196 
G01 X119.6601 Y4.1565 
G01 X119.8349 Y4.2289 
G01 X119.9922 Y4.3340 
G01 X120.1260 Y4.4678 
G01 X121.3960 Y5.7378 
G01 X121.5011 Y5.8951 
G01 X121.5735 Y6.0699 
G01 X121.6104 Y6.2554 
G01 X121.6104 Y22.1030 
G01 X121.8644 Y22.3570 
G01 X121.8644 Y23.3630 
G01 X121.1530 Y24.0744 
G01 X120.1470 Y24.0744 
G01 X119.4356 Y23.3630 
G01 X119.4356 Y22.3570 
G01 X119.6896 Y22.1030 
G01 X119.6896 Y6.7478 
G01 X118.9822 Y6.0404 
G01 X37.2278 Y6.0404 
G01 X36.5204 Y6.7478 
G01 X36.5204 Y22.4622 
G01 X37.1711 Y23.1129 
G01 X37.1396 Y22.9546 
G01 X37.1396 Y8.7954 
G01 X37.1765 Y8.6099 
G01 X37.2489 Y8.4351 
G01 X37.3540 Y8.2778 
G01 X37.4878 Y8.1440 
G01 X38.7578 Y6.8740 
G01 X38.9151 Y6.7689 
G01 X39.0899 Y6.6965 
G01 X39.2754 Y6.6596 
G01 X116.9346 Y6.6596 
G01 X117.1201 Y6.6965 
G01 X117.2949 Y6.7689 
G01 X117.4522 Y6.8740 
G01 X117.5860 Y7.0078 
G01 X118.8560 Y8.2778 
G01 X118.9611 Y8.4351 
G01 X119.0335 Y8.6099 
G01 X119.0704 Y8.7954 
G01 X119.0704 Y22.1030 
G01 X119.3244 Y22.3570 
G01 X119.3244 Y23.3630 
G01 X118.6130 Y24.0744 
G01 X117.6070 Y24.0744 
G01 X116.8956 Y23.3630 
G01 X116.8956 Y22.3570 
G01 X117.1496 Y22.1030 
G01 X117.1496 Y9.2878 
G01 X116.4422 Y8.5804 
G01 X39.7678 Y8.5804 
G01 X39.0604 Y9.2878 
G01 X39.0604 Y22.4622 
G01 X39.9810 Y23.3828 
G01 X39.9171 Y23.1860 
G01 X39.8828 Y22.9696 
G01 X39.8828 Y22.7504 
G01 X39.9171 Y22.5340 
G01 X39.9848 Y22.3256 
G01 X40.0843 Y22.1303 
G01 X40.2131 Y21.9530 
G01 X40.3146 Y21.8515 
G01 X40.3146 Y10.7004 
G01 X40.3515 Y10.5149 
G01 X40.4239 Y10.3401 
G01 X40.5290 Y10.1828 
G01 X41.2978 Y9.4140 
G01 X41.4551 Y9.3089 
G01 X41.6299 Y9.2365 
G01 X41.8154 Y9.1996 
G01 X114.3946 Y9.1996 
G01 X114.5801 Y9.2365 
G01 X114.7549 Y9.3089 
G01 X114.9122 Y9.4140 
G01 X115.0460 Y9.5478 
G01 X116.3160 Y10.8178 
G01 X116.4211 Y10.9751 
G01 X116.4935 Y11.1499 
G01 X116.5304 Y11.3354 
G01 X116.5304 Y22.1030 
G01 X116.7844 Y22.3570 
G01 X116.7844 Y23.3630 
G01 X116.0730 Y24.0744 
G01 X115.0670 Y24.0744 
G01 X114.3556 Y23.3630 
G01 X114.3556 Y22.3570 
G01 X114.6096 Y22.1030 
G01 X114.6096 Y11.8278 
G01 X113.9022 Y11.1204 
G01 X42.3078 Y11.1204 
G01 X42.2354 Y11.1928 
G01 X42.2354 Y21.8515 
G01 X42.3369 Y21.9530 
G01 X42.4657 Y22.1303 
G01 X42.5450 Y22.2859 
G01 X42.6243 Y22.1303 
G01 X42.7531 Y21.9530 
G01 X42.8546 Y21.8515 
G01 X42.8546 Y21.8198 
G01 X42.8306 Y21.7958 
G01 X42.7112 Y21.6314 
G01 X42.6190 Y21.4504 
G01 X42.5562 Y21.2572 
G01 X42.5244 Y21.0566 
G01 X42.5244 Y20.8534 
G01 X42.5562 Y20.6528 
G01 X42.6190 Y20.4596 
G01 X42.7112 Y20.2786 
G01 X42.8306 Y20.1142 
G01 X42.9742 Y19.9706 
G01 X43.1386 Y19.8512 
G01 X43.3196 Y19.7590 
G01 X43.5128 Y19.6962 
G01 X43.7134 Y19.6644 
G01 X43.9166 Y19.6644 
G01 X44.1172 Y19.6962 
G01 X44.3104 Y19.7590 
G01 X44.4914 Y19.8512 
G01 X44.6558 Y19.9706 
G01 X44.7994 Y20.1142 
G01 X44.9188 Y20.2786 
G01 X45.0110 Y20.4596 
G01 X45.0738 Y20.6528 
G01 X45.1056 Y20.8534 
G01 X45.1056 Y21.0566 
G01 X45.0738 Y21.2572 
G01 X45.0110 Y21.4504 
G01 X44.9188 Y21.6314 
G01 X44.7994 Y21.7958 
G01 X44.7754 Y21.8198 
G01 X44.7754 Y21.8515 
G01 X44.8769 Y21.9530 
G01 X45.0057 Y22.1303 
G01 X45.0850 Y22.2859 
G01 X45.1643 Y22.1303 
G01 X45.2931 Y21.9530 
G01 X45.3946 Y21.8515 
G01 X45.3946 Y19.2798 
G01 X45.3706 Y19.2558 
G01 X45.2512 Y19.0914 
G01 X45.1590 Y18.9104 
G01 X45.0962 Y18.7172 
G01 X45.0644 Y18.5166 
G01 X45.0644 Y18.3134 
G01 X45.0962 Y18.1128 
G01 X45.1590 Y17.9196 
G01 X45.2512 Y17.7386 
G01 X45.3706 Y17.5742 
G01 X45.5142 Y17.4306 
G01 X45.6786 Y17.3112 
G01 X45.8596 Y17.2190 
G01 X46.0528 Y17.1562 
G01 X46.2534 Y17.1244 
G01 X46.4566 Y17.1244 
G01 X46.6572 Y17.1562 
G01 X46.8504 Y17.2190 
G01 X47.0314 Y17.3112 
G01 X47.1958 Y17.4306 
G01 X47.3394 Y17.5742 
G01 X47.4588 Y17.7386 
G01 X47.5510 Y17.9196 
G01 X47.6138 Y18.1128 
G01 X47.6456 Y18.3134 
G01 X47.6456 Y18.5166 
G01 X47.6138 Y18.7172 
G01 X47.5510 Y18.9104 
G01 X47.4588 Y19.0914 
G01 X47.3394 Y19.2558 
G01 X47.3154 Y19.2798 
G01 X47.3154 Y21.8515 
G01 X47.4169 Y21.9530 
G01 X47.5457 Y22.1303 
G01 X47.6250 Y22.2859 
G01 X47.7043 Y22.1303 
G01 X47.8331 Y21.9530 
G01 X47.9880 Y21.7981 
G01 X48.1653 Y21.6693 
G01 X48.3606 Y21.5698 
G01 X48.5690 Y21.5021 
G01 X48.7854 Y21.4678 
G01 X49.0046 Y21.4678 
G01 X49.2210 Y21.5021 
G01 X49.4294 Y21.5698 
G01 X49.6247 Y21.6693 
G01 X49.8020 Y21.7981 
G01 X49.9035 Y21.8996 
G01 X53.4346 Y21.8996 
G01 X53.6201 Y21.9365 
G01 X53.7949 Y22.0089 
G01 X53.9522 Y22.1140 
G01 X55.2222 Y23.3840 
G01 X55.3560 Y23.5178 
G01 X55.4611 Y23.6751 
G01 X55.5335 Y23.8499 
G01 X55.5704 Y24.0354 
G01 X55.5704 Y35.1622 
G01 X56.2778 Y35.8696 
G01 X70.7222 Y35.8696 
G01 X71.4296 Y35.1622 
G01 X71.4296 Y24.5278 
G01 X70.7222 Y23.8204 
G01 X67.6835 Y23.8204 
G01 X67.5820 Y23.9219 
G01 X67.4637 Y24.0078 
G01 X68.9444 Y24.0078 
G01 X69.0594 Y24.0386 
G01 X69.1626 Y24.0982 
G01 X69.2468 Y24.1824 
G01 X69.3064 Y24.2856 
G01 X69.3372 Y24.4006 
G01 X69.3372 Y26.3994 
G01 X69.3064 Y26.5144 
G01 X69.2468 Y26.6176 
G01 X69.1626 Y26.7018 
G01 X69.0594 Y26.7614 
G01 X68.9444 Y26.7922 
G01 X66.9456 Y26.7922 
G01 X66.8306 Y26.7614 
G01 X66.7274 Y26.7018 
G01 X66.6432 Y26.6176 
G01 X66.5836 Y26.5144 
G01 X66.5528 Y26.3994 
G01 X66.5528 Y26.1887 
G01 X66.4669 Y26.3070 
G01 X66.3120 Y26.4619 
G01 X66.1347 Y26.5907 
G01 X65.9394 Y26.6902 
G01 X65.7310 Y26.7579 
G01 X65.5146 Y26.7922 
G01 X65.2954 Y26.7922 
G01 X65.0790 Y26.7579 
G01 X64.8706 Y26.6902 
G01 X64.6753 Y26.5907 
G01 X64.4980 Y26.4619 
G01 X64.3431 Y26.3070 
G01 X64.2143 Y26.1297 
G01 X64.1350 Y25.9741 
G01 X64.0557 Y26.1297 
G01 X63.9269 Y26.3070 
G01 X63.7720 Y26.4619 
G01 X63.5947 Y26.5907 
G01 X63.3994 Y26.6902 
G01 X63.1910 Y26.7579 
G01 X62.9746 Y26.7922 
G01 X62.7554 Y26.7922 
G01 X62.5390 Y26.7579 
G01 X62.3306 Y26.6902 
G01 X62.1353 Y26.5907 
G01 X61.9580 Y26.4619 
G01 X61.8031 Y26.3070 
G01 X61.6743 Y26.1297 
G01 X61.5950 Y25.9741 
G01 X61.5157 Y26.1297 
G01 X61.3869 Y26.3070 
G01 X61.2320 Y26.4619 
G01 X61.0547 Y26.5907 
G01 X60.8594 Y26.6902 
G01 X60.6510 Y26.7579 
G01 X60.4346 Y26.7922 
G01 X60.2154 Y26.7922 
G01 X59.9990 Y26.7579 
G01 X59.7906 Y26.6902 
G01 X59.5953 Y26.5907 
G01 X59.4180 Y26.4619 
G01 X59.2631 Y26.3070 
G01 X59.1343 Y26.1297 
G01 X59.0348 Y25.9344 
G01 X58.9671 Y25.7260 
G01 X58.9328 Y25.5096 
G01 X58.9328 Y25.2904 
G01 X58.9671 Y25.0740 
G01 X59.0348 Y24.8656 
G01 X59.1343 Y24.6703 
G01 X59.2631 Y24.4930 
G01 X59.4180 Y24.3381 
G01 X59.5953 Y24.2093 
G01 X59.7906 Y24.1098 
G01 X59.9990 Y24.0421 
G01 X60.2154 Y24.0078 
G01 X60.4346 Y24.0078 
G01 X60.6510 Y24.0421 
G01 X60.8594 Y24.1098 
G01 X61.0547 Y24.2093 
G01 X61.2320 Y24.3381 
G01 X61.3869 Y24.4930 
G01 X61.5157 Y24.6703 
G01 X61.5950 Y24.8259 
G01 X61.6743 Y24.6703 
G01 X61.8031 Y24.4930 
G01 X61.9580 Y24.3381 
G01 X62.1353 Y24.2093 
G01 X62.3306 Y24.1098 
G01 X62.5390 Y24.0421 
G01 X62.7554 Y24.0078 
G01 X62.9746 Y24.0078 
G01 X63.1910 Y24.0421 
G01 X63.3994 Y24.1098 
G01 X63.5947 Y24.2093 
G01 X63.7720 Y24.3381 
G01 X63.9269 Y24.4930 
G01 X64.0557 Y24.6703 
G01 X64.1350 Y24.8259 
G01 X64.2143 Y24.6703 
G01 X64.3431 Y24.4930 
G01 X64.4980 Y24.3381 
G01 X64.6753 Y24.2093 
G01 X64.8706 Y24.1098 
G01 X65.0790 Y24.0421 
G01 X65.2954 Y24.0078 
G01 X65.5146 Y24.0078 
G01 X65.7310 Y24.0421 
G01 X65.9394 Y24.1098 
G01 X66.1347 Y24.2093 
G01 X66.3120 Y24.3381 
G01 X66.4669 Y24.4930 
G01 X66.5528 Y24.6113 
G01 X66.5528 Y24.4006 
G01 X66.5836 Y24.2856 
G01 X66.6029 Y24.2522 
G01 X66.5654 Y24.2522 
G01 X66.3490 Y24.2179 
G01 X66.1406 Y24.1502 
G01 X65.9453 Y24.0507 
G01 X65.7680 Y23.9219 
G01 X65.6131 Y23.7670 
G01 X65.4843 Y23.5897 
G01 X65.4050 Y23.4341 
G01 X65.3257 Y23.5897 
G01 X65.1969 Y23.7670 
G01 X65.0420 Y23.9219 
G01 X64.8647 Y24.0507 
G01 X64.6694 Y24.1502 
G01 X64.4610 Y24.2179 
G01 X64.2446 Y24.2522 
G01 X64.0254 Y24.2522 
G01 X63.8090 Y24.2179 
G01 X63.6006 Y24.1502 
G01 X63.4053 Y24.0507 
G01 X63.2280 Y23.9219 
G01 X63.0731 Y23.7670 
G01 X62.9443 Y23.5897 
G01 X62.8650 Y23.4341 
G01 X62.7857 Y23.5897 
G01 X62.6569 Y23.7670 
G01 X62.5020 Y23.9219 
G01 X62.3247 Y24.0507 
G01 X62.1294 Y24.1502 
G01 X61.9210 Y24.2179 
G01 X61.7046 Y24.2522 
G01 X61.4854 Y24.2522 
G01 X61.2690 Y24.2179 
G01 X61.0606 Y24.1502 
G01 X60.8653 Y24.0507 
G01 X60.6880 Y23.9219 
G01 X60.5331 Y23.7670 
G01 X60.4043 Y23.5897 
G01 X60.3250 Y23.4341 
G01 X60.2457 Y23.5897 
G01 X60.1169 Y23.7670 
G01 X59.9620 Y23.9219 
G01 X59.7847 Y24.0507 
G01 X59.5894 Y24.1502 
G01 X59.3810 Y24.2179 
G01 X59.1646 Y24.2522 
G01 X58.9454 Y24.2522 
G01 X58.7290 Y24.2179 
G01 X58.5206 Y24.1502 
G01 X58.3253 Y24.0507 
G01 X58.1480 Y23.9219 
G01 X57.9931 Y23.7670 
G01 X57.8643 Y23.5897 
G01 X57.7648 Y23.3944 
G01 X57.6971 Y23.1860 
G01 X57.6628 Y22.9696 
G01 X57.6628 Y22.7504 
G01 X57.6971 Y22.5340 
G01 X57.7648 Y22.3256 
G01 X57.8643 Y22.1303 
G01 X57.9931 Y21.9530 
G01 X58.0946 Y21.8515 
G01 X58.0946 Y13.2404 
G01 X58.1315 Y13.0549 
G01 X58.2039 Y12.8801 
G01 X58.3090 Y12.7228 
G01 X59.0778 Y11.9540 
G01 X59.2351 Y11.8489 
G01 X59.4099 Y11.7765 
G01 X59.5954 Y11.7396 
G01 X111.8546 Y11.7396 
G01 X112.0401 Y11.7765 
G01 X112.2149 Y11.8489 
G01 X112.3722 Y11.9540 
G01 X112.5060 Y12.0878 
G01 X113.7760 Y13.3578 
G01 X113.8811 Y13.5151 
G01 X113.9535 Y13.6899 
G01 X113.9904 Y13.8754 
G01 X113.9904 Y22.1030 
G01 X114.2444 Y22.3570 
G01 X114.2444 Y23.3630 
G01 X113.5330 Y24.0744 
G01 X113.0626 Y24.0744 
G01 X113.1738 Y24.1856 
G01 X113.5330 Y24.1856 
G01 X114.2444 Y24.8970 
G01 X114.2444 Y25.9030 
G01 X113.5330 Y26.6144 
G01 X112.5270 Y26.6144 
G01 X111.8156 Y25.9030 
G01 X111.8156 Y25.5438 
G01 X111.3622 Y25.0904 
G01 X104.8972 Y25.0904 
G01 X104.8972 Y26.3994 
G01 X104.8664 Y26.5144 
G01 X104.8068 Y26.6176 
G01 X104.7226 Y26.7018 
G01 X104.6194 Y26.7614 
G01 X104.5044 Y26.7922 
G01 X103.0804 Y26.7922 
G01 X103.2678 Y26.9796 
G01 X113.9022 Y26.9796 
G01 X114.6096 Y26.2722 
G01 X114.6096 Y26.1570 
G01 X114.3556 Y25.9030 
G01 X114.3556 Y24.8970 
G01 X115.0670 Y24.1856 
G01 X116.0730 Y24.1856 
G01 X116.7844 Y24.8970 
G01 X116.7844 Y25.9030 
G01 X116.5304 Y26.1570 
G01 X116.5304 Y26.7646 
G01 X116.4935 Y26.9501 
G01 X116.4211 Y27.1249 
G01 X116.3160 Y27.2822 
G01 X116.1822 Y27.4160 
G01 X114.9122 Y28.6860 
G01 X114.7549 Y28.7911 
G01 X114.5801 Y28.8635 
G01 X114.3946 Y28.9004 
G01 X102.7754 Y28.9004 
G01 X102.5899 Y28.8635 
G01 X102.4151 Y28.7911 
G01 X102.2578 Y28.6860 
G01 X102.1240 Y28.5522 
G01 X100.2190 Y26.6472 
G01 X100.1302 Y26.5144 
G01 X100.0580 Y26.4619 
G01 X99.9031 Y26.3070 
G01 X99.7743 Y26.1297 
G01 X99.6950 Y25.9741 
G01 X99.6157 Y26.1297 
G01 X99.4869 Y26.3070 
G01 X99.3854 Y26.4085 
G01 X99.3854 Y34.5272 
G01 X99.4578 Y34.5996 
G01 X116.4422 Y34.5996 
G01 X117.1496 Y33.8922 
G01 X117.1496 Y26.1570 
G01 X116.8956 Y25.9030 
G01 X116.8956 Y24.8970 
G01 X117.6070 Y24.1856 
G01 X118.6130 Y24.1856 
G01 X119.3244 Y24.8970 
G01 X119.3244 Y25.9030 
G01 X119.0704 Y26.1570 
G01 X119.0704 Y34.3846 
G01 X119.0335 Y34.5701 
G01 X118.9611 Y34.7449 
G01 X118.8560 Y34.9022 
G01 X117.4522 Y36.3060 
G01 X117.2949 Y36.4111 
G01 X117.1201 Y36.4835 
G01 X116.9346 Y36.5204 
G01 X98.9654 Y36.5204 
G01 X98.7799 Y36.4835 
G01 X98.6051 Y36.4111 
G01 X98.4478 Y36.3060 
G01 X97.6790 Y35.5372 
G01 X97.5739 Y35.3799 
G01 X97.5015 Y35.2051 
G01 X97.4646 Y35.0196 
G01 X97.4646 Y26.4085 
G01 X97.3631 Y26.3070 
G01 X97.2343 Y26.1297 
G01 X97.1550 Y25.9741 
G01 X97.0757 Y26.1297 
G01 X96.9469 Y26.3070 
G01 X96.7920 Y26.4619 
G01 X96.6147 Y26.5907 
G01 X96.4194 Y26.6902 
G01 X96.2110 Y26.7579 
G01 X95.9946 Y26.7922 
G01 X95.7754 Y26.7922 
G01 X95.5590 Y26.7579 
G01 X95.3506 Y26.6902 
G01 X95.1553 Y26.5907 
G01 X94.9780 Y26.4619 
G01 X94.8231 Y26.3070 
G01 X94.6943 Y26.1297 
G01 X94.5948 Y25.9344 
G01 X94.5271 Y25.7260 
G01 X94.4928 Y25.5096 
G01 X94.4928 Y25.2904 
G01 X94.5271 Y25.0740 
G01 X94.5948 Y24.8656 
G01 X94.6943 Y24.6703 
G01 X94.8231 Y24.4930 
G01 X94.9780 Y24.3381 
G01 X95.1553 Y24.2093 
G01 X95.3506 Y24.1098 
G01 X95.5590 Y24.0421 
G01 X95.7754 Y24.0078 
G01 X95.9946 Y24.0078 
G01 X96.2110 Y24.0421 
G01 X96.4194 Y24.1098 
G01 X96.6147 Y24.2093 
G01 X96.7920 Y24.3381 
G01 X96.9469 Y24.4930 
G01 X97.0757 Y24.6703 
G01 X97.1550 Y24.8259 
G01 X97.2343 Y24.6703 
G01 X97.3631 Y24.4930 
G01 X97.5180 Y24.3381 
G01 X97.6953 Y24.2093 
G01 X97.8906 Y24.1098 
G01 X98.0990 Y24.0421 
G01 X98.3154 Y24.0078 
G01 X98.5346 Y24.0078 
G01 X98.7510 Y24.0421 
G01 X98.9594 Y24.1098 
G01 X99.1547 Y24.2093 
G01 X99.3320 Y24.3381 
G01 X99.4869 Y24.4930 
G01 X99.6157 Y24.6703 
G01 X99.6950 Y24.8259 
G01 X99.7743 Y24.6703 
G01 X99.9031 Y24.4930 
G01 X100.0580 Y24.3381 
G01 X100.2353 Y24.2093 
G01 X100.4306 Y24.1098 
G01 X100.6390 Y24.0421 
G01 X100.8554 Y24.0078 
G01 X101.0746 Y24.0078 
G01 X101.2910 Y24.0421 
G01 X101.4994 Y24.1098 
G01 X101.6947 Y24.2093 
G01 X101.8720 Y24.3381 
G01 X102.0269 Y24.4930 
G01 X102.1128 Y24.6113 
G01 X102.1128 Y24.4006 
G01 X102.1436 Y24.2856 
G01 X102.1629 Y24.2522 
G01 X102.1254 Y24.2522 
G01 X101.9090 Y24.2179 
G01 X101.7006 Y24.1502 
G01 X101.5053 Y24.0507 
G01 X101.3280 Y23.9219 
G01 X101.1731 Y23.7670 
G01 X101.0443 Y23.5897 
G01 X100.9650 Y23.4341 
G01 X100.8857 Y23.5897 
G01 X100.7569 Y23.7670 
G01 X100.6020 Y23.9219 
G01 X100.4247 Y24.0507 
G01 X100.2294 Y24.1502 
G01 X100.0210 Y24.2179 
G01 X99.8046 Y24.2522 
G01 X99.5854 Y24.2522 
G01 X99.3690 Y24.2179 
G01 X99.1606 Y24.1502 
G01 X98.9653 Y24.0507 
G01 X98.7880 Y23.9219 
G01 X98.6331 Y23.7670 
G01 X98.5043 Y23.5897 
G01 X98.4250 Y23.4341 
G01 X98.3457 Y23.5897 
G01 X98.2169 Y23.7670 
G01 X98.0620 Y23.9219 
G01 X97.8847 Y24.0507 
G01 X97.6894 Y24.1502 
G01 X97.4810 Y24.2179 
G01 X97.2646 Y24.2522 
G01 X97.0454 Y24.2522 
G01 X96.8290 Y24.2179 
G01 X96.6206 Y24.1502 
G01 X96.4253 Y24.0507 
G01 X96.2480 Y23.9219 
G01 X96.0931 Y23.7670 
G01 X95.9643 Y23.5897 
G01 X95.8850 Y23.4341 
G01 X95.8057 Y23.5897 
G01 X95.6769 Y23.7670 
G01 X95.5220 Y23.9219 
G01 X95.3447 Y24.0507 
G01 X95.1494 Y24.1502 
G01 X94.9410 Y24.2179 
G01 X94.7246 Y24.2522 
G01 X94.5054 Y24.2522 
G01 X94.2890 Y24.2179 
G01 X94.0806 Y24.1502 
G01 X93.8853 Y24.0507 
G01 X93.7080 Y23.9219 
G01 X93.5531 Y23.7670 
G01 X93.4243 Y23.5897 
G01 X93.3248 Y23.3944 
G01 X93.2571 Y23.1860 
G01 X93.2228 Y22.9696 
G01 X93.2228 Y22.7504 
G01 X93.2571 Y22.5340 
G01 X93.3248 Y22.3256 
G01 X93.4243 Y22.1303 
G01 X93.5531 Y21.9530 
G01 X93.7080 Y21.7981 
G01 X93.8853 Y21.6693 
G01 X94.0806 Y21.5698 
G01 X94.2890 Y21.5021 
G01 X94.5054 Y21.4678 
G01 X94.7246 Y21.4678 
G01 X94.9410 Y21.5021 
G01 X95.1494 Y21.5698 
G01 X95.3447 Y21.6693 
G01 X95.5220 Y21.7981 
G01 X95.6769 Y21.9530 
G01 X95.8057 Y22.1303 
G01 X95.8850 Y22.2859 
G01 X95.9643 Y22.1303 
G01 X96.0931 Y21.9530 
G01 X96.1946 Y21.8515 
G01 X96.1946 Y21.8198 
G01 X96.1706 Y21.7958 
G01 X96.0512 Y21.6314 
G01 X95.9590 Y21.4504 
G01 X95.8962 Y21.2572 
G01 X95.8644 Y21.0566 
G01 X95.8644 Y20.8534 
G01 X95.8962 Y20.6528 
G01 X95.9590 Y20.4596 
G01 X96.0512 Y20.2786 
G01 X96.1706 Y20.1142 
G01 X96.3142 Y19.9706 
G01 X96.4786 Y19.8512 
G01 X96.6596 Y19.7590 
G01 X96.8528 Y19.6962 
G01 X97.0534 Y19.6644 
G01 X97.2566 Y19.6644 
G01 X97.4572 Y19.6962 
G01 X97.6504 Y19.7590 
G01 X97.8314 Y19.8512 
G01 X97.9958 Y19.9706 
G01 X98.1394 Y20.1142 
G01 X98.2588 Y20.2786 
G01 X98.3510 Y20.4596 
G01 X98.4138 Y20.6528 
G01 X98.4456 Y20.8534 
G01 X98.4456 Y21.0566 
G01 X98.4138 Y21.2572 
G01 X98.3510 Y21.4504 
G01 X98.2588 Y21.6314 
G01 X98.1394 Y21.7958 
G01 X98.1154 Y21.8198 
G01 X98.1154 Y21.8515 
G01 X98.2169 Y21.9530 
G01 X98.3457 Y22.1303 
G01 X98.4250 Y22.2859 
G01 X98.5043 Y22.1303 
G01 X98.6331 Y21.9530 
G01 X98.7346 Y21.8515 
G01 X98.7346 Y19.2798 
G01 X98.7106 Y19.2558 
G01 X98.5912 Y19.0914 
G01 X98.4990 Y18.9104 
G01 X98.4362 Y18.7172 
G01 X98.4044 Y18.5166 
G01 X98.4044 Y18.3134 
G01 X98.4362 Y18.1128 
G01 X98.4990 Y17.9196 
G01 X98.5912 Y17.7386 
G01 X98.7106 Y17.5742 
G01 X98.8542 Y17.4306 
G01 X99.0186 Y17.3112 
G01 X99.1996 Y17.2190 
G01 X99.3928 Y17.1562 
G01 X99.5934 Y17.1244 
G01 X99.7966 Y17.1244 
G01 X99.9972 Y17.1562 
G01 X100.1904 Y17.2190 
G01 X100.3714 Y17.3112 
G01 X100.5358 Y17.4306 
G01 X100.6794 Y17.5742 
G01 X100.7988 Y17.7386 
G01 X100.8910 Y17.9196 
G01 X100.9538 Y18.1128 
G01 X100.9856 Y18.3134 
G01 X100.9856 Y18.5166 
G01 X100.9538 Y18.7172 
G01 X100.8910 Y18.9104 
G01 X100.7988 Y19.0914 
G01 X100.6794 Y19.2558 
G01 X100.6554 Y19.2798 
G01 X100.6554 Y21.8515 
G01 X100.7569 Y21.9530 
G01 X100.8857 Y22.1303 
G01 X100.9650 Y22.2859 
G01 X101.0443 Y22.1303 
G01 X101.1731 Y21.9530 
G01 X101.2746 Y21.8515 
G01 X101.2746 Y16.2728 
G01 X101.2022 Y16.2004 
G01 X85.4878 Y16.2004 
G01 X85.4154 Y16.2728 
G01 X85.4154 Y21.8515 
G01 X85.5169 Y21.9530 
G01 X85.6457 Y22.1303 
G01 X85.7452 Y22.3256 
G01 X85.8129 Y22.5340 
G01 X85.8472 Y22.7504 
G01 X85.8472 Y22.9696 
G01 X85.8129 Y23.1860 
G01 X85.7452 Y23.3944 
G01 X85.6457 Y23.5897 
G01 X85.5169 Y23.7670 
G01 X85.3620 Y23.9219 
G01 X85.2437 Y24.0078 
G01 X86.7244 Y24.0078 
G01 X86.8394 Y24.0386 
G01 X86.9426 Y24.0982 
G01 X87.0268 Y24.1824 
G01 X87.0864 Y24.2856 
G01 X87.1172 Y24.4006 
G01 X87.1172 Y24.4396 
G01 X88.9946 Y24.4396 
G01 X89.1801 Y24.4765 
G01 X89.3549 Y24.5489 
G01 X89.5122 Y24.6540 
G01 X90.7822 Y25.9240 
G01 X90.9160 Y26.0578 
G01 X91.0211 Y26.2151 
G01 X91.0935 Y26.3899 
G01 X91.1304 Y26.5754 
G01 X91.1304 Y36.4322 
G01 X91.8378 Y37.1396 
G01 X118.9822 Y37.1396 
G01 X119.6896 Y36.4322 
G01 X119.6896 Y26.1570 
G01 X119.4356 Y25.9030 
G01 X119.4356 Y24.8970 
G01 X120.1470 Y24.1856 
G01 X121.1530 Y24.1856 
G01 X121.8644 Y24.8970 
G01 X121.8644 Y25.9030 
G01 X121.6104 Y26.1570 
G01 X121.6104 Y36.9246 
G01 X121.5735 Y37.1101 
G01 X121.5011 Y37.2849 
G01 X121.3960 Y37.4422 
G01 X119.9922 Y38.8460 
G01 X119.8349 Y38.9511 
G01 X119.6601 Y39.0235 
G01 X119.4746 Y39.0604 
G01 X91.3454 Y39.0604 
G01 X91.1599 Y39.0235 
G01 X90.9851 Y38.9511 
G01 X90.8278 Y38.8460 
G01 X90.6940 Y38.7122 
G01 X89.4240 Y37.4422 
G01 X89.3189 Y37.2849 
G01 X89.2465 Y37.1101 
G01 X89.2096 Y36.9246 
G01 X89.2096 Y27.0678 
G01 X88.5022 Y26.3604 
G01 X87.1172 Y26.3604 
G01 X87.1172 Y26.3994 
G01 X87.0864 Y26.5144 
G01 X87.0268 Y26.6176 
G01 X86.9426 Y26.7018 
G01 X86.8394 Y26.7614 
G01 X86.7244 Y26.7922 
G01 X84.7256 Y26.7922 
G01 X84.6106 Y26.7614 
G01 X84.5074 Y26.7018 
G01 X84.4232 Y26.6176 
G01 X84.3636 Y26.5144 
G01 X84.3328 Y26.3994 
G01 X84.3328 Y26.1887 
G01 X84.2469 Y26.3070 
G01 X84.1454 Y26.4085 
G01 X84.1454 Y38.3372 
G01 X85.4878 Y39.6796 
G01 X121.5222 Y39.6796 
G01 X122.2296 Y38.9722 
G01 X122.2296 Y26.1570 
G01 X121.9756 Y25.9030 
G01 X121.9756 Y24.8970 
G01 X122.6870 Y24.1856 
G01 X123.6930 Y24.1856 
G01 X124.4044 Y24.8970 
G01 X124.4044 Y25.9030 
G01 X124.1504 Y26.1570 
G01 X124.1504 Y39.4646 
G01 X124.1135 Y39.6501 
G01 X124.0411 Y39.8249 
G01 X123.9360 Y39.9822 
G01 X122.6660 Y41.2522 
G01 X122.5322 Y41.3860 
G01 X122.3749 Y41.4911 
G01 X122.2001 Y41.5635 
G01 X122.0146 Y41.6004 
G01 X84.9954 Y41.6004 
G01 X84.8099 Y41.5635 
G01 X84.6351 Y41.4911 
G01 X84.4778 Y41.3860 
G01 X84.3440 Y41.2522 
G01 X82.4390 Y39.3472 
G01 X82.3339 Y39.1899 
G01 X82.2615 Y39.0151 
G01 X82.2246 Y38.8296 
G01 X82.2246 Y26.4085 
G01 X82.1231 Y26.3070 
G01 X81.9943 Y26.1297 
G01 X81.9150 Y25.9741 
G01 X81.8357 Y26.1297 
G01 X81.7069 Y26.3070 
G01 X81.5520 Y26.4619 
G01 X81.3747 Y26.5907 
G01 X81.1794 Y26.6902 
G01 X80.9710 Y26.7579 
G01 X80.7546 Y26.7922 
G01 X80.5354 Y26.7922 
G01 X80.3190 Y26.7579 
G01 X80.1106 Y26.6902 
G01 X79.9153 Y26.5907 
G01 X79.7380 Y26.4619 
G01 X79.5831 Y26.3070 
G01 X79.4543 Y26.1297 
G01 X79.3750 Y25.9741 
G01 X79.2957 Y26.1297 
G01 X79.1669 Y26.3070 
G01 X79.0120 Y26.4619 
G01 X78.8347 Y26.5907 
G01 X78.6394 Y26.6902 
G01 X78.4310 Y26.7579 
G01 X78.2146 Y26.7922 
G01 X77.9954 Y26.7922 
G01 X77.7790 Y26.7579 
G01 X77.5706 Y26.6902 
G01 X77.3753 Y26.5907 
G01 X77.1980 Y26.4619 
G01 X77.0431 Y26.3070 
G01 X76.9143 Y26.1297 
G01 X76.8148 Y25.9344 
G01 X76.7471 Y25.7260 
G01 X76.7128 Y25.5096 
G01 X76.7128 Y25.2904 
G01 X76.7471 Y25.0740 
G01 X76.8148 Y24.8656 
G01 X76.9143 Y24.6703 
G01 X77.0431 Y24.4930 
G01 X77.1980 Y24.3381 
G01 X77.3753 Y24.2093 
G01 X77.5706 Y24.1098 
G01 X77.7790 Y24.0421 
G01 X77.9954 Y24.0078 
G01 X78.2146 Y24.0078 
G01 X78.4310 Y24.0421 
G01 X78.6394 Y24.1098 
G01 X78.8347 Y24.2093 
G01 X79.0120 Y24.3381 
G01 X79.1669 Y24.4930 
G01 X79.2957 Y24.6703 
G01 X79.3750 Y24.8259 
G01 X79.4543 Y24.6703 
G01 X79.5831 Y24.4930 
G01 X79.7380 Y24.3381 
G01 X79.9153 Y24.2093 
G01 X80.1106 Y24.1098 
G01 X80.3190 Y24.0421 
G01 X80.5354 Y24.0078 
G01 X80.7546 Y24.0078 
G01 X80.9710 Y24.0421 
G01 X81.1794 Y24.1098 
G01 X81.3747 Y24.2093 
G01 X81.5520 Y24.3381 
G01 X81.7069 Y24.4930 
G01 X81.8357 Y24.6703 
G01 X81.9150 Y24.8259 
G01 X81.9943 Y24.6703 
G01 X82.1231 Y24.4930 
G01 X82.2780 Y24.3381 
G01 X82.4553 Y24.2093 
G01 X82.6506 Y24.1098 
G01 X82.8590 Y24.0421 
G01 X83.0754 Y24.0078 
G01 X83.2946 Y24.0078 
G01 X83.5110 Y24.0421 
G01 X83.7194 Y24.1098 
G01 X83.9147 Y24.2093 
G01 X84.0920 Y24.3381 
G01 X84.2469 Y24.4930 
G01 X84.3328 Y24.6113 
G01 X84.3328 Y24.4006 
G01 X84.3636 Y24.2856 
G01 X84.3829 Y24.2522 
G01 X84.3454 Y24.2522 
G01 X84.1290 Y24.2179 
G01 X83.9206 Y24.1502 
G01 X83.7253 Y24.0507 
G01 X83.5480 Y23.9219 
G01 X83.3931 Y23.7670 
G01 X83.2643 Y23.5897 
G01 X83.1850 Y23.4341 
G01 X83.1057 Y23.5897 
G01 X82.9769 Y23.7670 
G01 X82.8220 Y23.9219 
G01 X82.6447 Y24.0507 
G01 X82.4494 Y24.1502 
G01 X82.2410 Y24.2179 
G01 X82.0246 Y24.2522 
G01 X81.8054 Y24.2522 
G01 X81.5890 Y24.2179 
G01 X81.3806 Y24.1502 
G01 X81.1853 Y24.0507 
G01 X81.0080 Y23.9219 
G01 X80.8531 Y23.7670 
G01 X80.7243 Y23.5897 
G01 X80.6450 Y23.4341 
G01 X80.5657 Y23.5897 
G01 X80.4369 Y23.7670 
G01 X80.2820 Y23.9219 
G01 X80.1047 Y24.0507 
G01 X79.9094 Y24.1502 
G01 X79.7010 Y24.2179 
G01 X79.4846 Y24.2522 
G01 X79.2654 Y24.2522 
G01 X79.0490 Y24.2179 
G01 X78.8406 Y24.1502 
G01 X78.6453 Y24.0507 
G01 X78.4680 Y23.9219 
G01 X78.3131 Y23.7670 
G01 X78.1843 Y23.5897 
G01 X78.1050 Y23.4341 
G01 X78.0257 Y23.5897 
G01 X77.8969 Y23.7670 
G01 X77.7420 Y23.9219 
G01 X77.5647 Y24.0507 
G01 X77.3694 Y24.1502 
G01 X77.1610 Y24.2179 
G01 X76.9446 Y24.2522 
G01 X76.7254 Y24.2522 
G01 X76.5090 Y24.2179 
G01 X76.3006 Y24.1502 
G01 X76.1053 Y24.0507 
G01 X75.9280 Y23.9219 
G01 X75.7731 Y23.7670 
G01 X75.6443 Y23.5897 
G01 X75.5448 Y23.3944 
G01 X75.4771 Y23.1860 
G01 X75.4428 Y22.9696 
G01 X75.4428 Y22.7504 
G01 X75.4771 Y22.5340 
G01 X75.5448 Y22.3256 
G01 X75.6443 Y22.1303 
G01 X75.7731 Y21.9530 
G01 X75.9280 Y21.7981 
G01 X76.1053 Y21.6693 
G01 X76.3006 Y21.5698 
G01 X76.5090 Y21.5021 
G01 X76.7254 Y21.4678 
G01 X76.9446 Y21.4678 
G01 X77.1610 Y21.5021 
G01 X77.3694 Y21.5698 
G01 X77.5647 Y21.6693 
G01 X77.7420 Y21.7981 
G01 X77.8969 Y21.9530 
G01 X78.0257 Y22.1303 
G01 X78.1050 Y22.2859 
G01 X78.1843 Y22.1303 
G01 X78.3131 Y21.9530 
G01 X78.4146 Y21.8515 
G01 X78.4146 Y21.8198 
G01 X78.3906 Y21.7958 
G01 X78.2712 Y21.6314 
G01 X78.1790 Y21.4504 
G01 X78.1162 Y21.2572 
G01 X78.0844 Y21.0566 
G01 X78.0844 Y20.8534 
G01 X78.1162 Y20.6528 
G01 X78.1790 Y20.4596 
G01 X78.2712 Y20.2786 
G01 X78.3906 Y20.1142 
G01 X78.5342 Y19.9706 
G01 X78.6986 Y19.8512 
G01 X78.8796 Y19.7590 
G01 X79.0728 Y19.6962 
G01 X79.2734 Y19.6644 
G01 X79.4766 Y19.6644 
G01 X79.6772 Y19.6962 
G01 X79.8704 Y19.7590 
G01 X80.0514 Y19.8512 
G01 X80.2158 Y19.9706 
G01 X80.3594 Y20.1142 
G01 X80.4788 Y20.2786 
G01 X80.5710 Y20.4596 
G01 X80.6338 Y20.6528 
G01 X80.6656 Y20.8534 
G01 X80.6656 Y21.0566 
G01 X80.6338 Y21.2572 
G01 X80.5710 Y21.4504 
G01 X80.4788 Y21.6314 
G01 X80.3594 Y21.7958 
G01 X80.3354 Y21.8198 
G01 X80.3354 Y21.8515 
G01 X80.4369 Y21.9530 
G01 X80.5657 Y22.1303 
G01 X80.6450 Y22.2859 
G01 X80.7243 Y22.1303 
G01 X80.8531 Y21.9530 
G01 X80.9546 Y21.8515 
G01 X80.9546 Y19.2798 
G01 X80.9306 Y19.2558 
G01 X80.8112 Y19.0914 
G01 X80.7190 Y18.9104 
G01 X80.6562 Y18.7172 
G01 X80.6244 Y18.5166 
G01 X80.6244 Y18.3134 
G01 X80.6562 Y18.1128 
G01 X80.7190 Y17.9196 
G01 X80.8112 Y17.7386 
G01 X80.9306 Y17.5742 
G01 X81.0742 Y17.4306 
G01 X81.2386 Y17.3112 
G01 X81.4196 Y17.2190 
G01 X81.6128 Y17.1562 
G01 X81.8134 Y17.1244 
G01 X82.0166 Y17.1244 
G01 X82.2172 Y17.1562 
G01 X82.4104 Y17.2190 
G01 X82.5914 Y17.3112 
G01 X82.7558 Y17.4306 
G01 X82.8994 Y17.5742 
G01 X83.0188 Y17.7386 
G01 X83.1110 Y17.9196 
G01 X83.1738 Y18.1128 
G01 X83.2056 Y18.3134 
G01 X83.2056 Y18.5166 
G01 X83.1738 Y18.7172 
G01 X83.1110 Y18.9104 
G01 X83.0188 Y19.0914 
G01 X82.8994 Y19.2558 
G01 X82.8754 Y19.2798 
G01 X82.8754 Y21.8515 
G01 X82.9769 Y21.9530 
G01 X83.1057 Y22.1303 
G01 X83.1850 Y22.2859 
G01 X83.2643 Y22.1303 
G01 X83.3931 Y21.9530 
G01 X83.4946 Y21.8515 
G01 X83.4946 Y16.2728 
G01 X83.4222 Y16.2004 
G01 X74.0578 Y16.2004 
G01 X73.3504 Y16.9078 
G01 X73.3504 Y21.6846 
G01 X73.3135 Y21.8701 
G01 X73.2411 Y22.0449 
G01 X73.1360 Y22.2022 
G01 X73.0022 Y22.3360 
G01 X72.4782 Y22.8600 
G01 X73.0022 Y23.3840 
G01 X73.1360 Y23.5178 
G01 X73.2411 Y23.6751 
G01 X73.3135 Y23.8499 
G01 X73.3504 Y24.0354 
G01 X73.3504 Y35.6546 
G01 X73.3135 Y35.8401 
G01 X73.2411 Y36.0149 
G01 X73.1360 Y36.1722 
G01 X71.7322 Y37.5760 
G01 X71.5749 Y37.6811 
G01 X71.4001 Y37.7535 
G01 X71.2146 Y37.7904 
G01 X55.7854 Y37.7904 
G01 X55.5999 Y37.7535 
G01 X55.4251 Y37.6811 
G01 X55.2678 Y37.5760 
G01 X55.1340 Y37.4422 
G01 X54.6100 Y36.9182 
G01 X53.9522 Y37.5760 
G01 X53.7949 Y37.6811 
G01 X53.6201 Y37.7535 
G01 X53.4346 Y37.7904 
G01 X38.0054 Y37.7904 
G01 X37.8199 Y37.7535 
G01 X37.6451 Y37.6811 
G01 X37.4878 Y37.5760 
G01 X36.2178 Y36.3060 
G01 X36.0840 Y36.1722 
G01 X35.9789 Y36.0149 
G01 X35.9065 Y35.8401 
G01 X35.8696 Y35.6546 
G01 X35.8696 Y27.0678 
G01 X33.7772 Y24.9754 
G01 X33.7772 Y26.3994 
G01 X33.7464 Y26.5144 
G01 X33.6868 Y26.6176 
G01 X33.6026 Y26.7018 
G01 X33.4994 Y26.7614 
G01 X33.3844 Y26.7922 
G01 X32.9860 Y26.7922 
G01 X30.1704 Y29.6078 
G01 X30.1704 Y36.9246 
G01 X30.1335 Y37.1101 
G01 X30.0611 Y37.2849 
G01 X29.9560 Y37.4422 
G01 X29.8222 Y37.5760 
G01 X28.5522 Y38.8460 
G01 X28.3949 Y38.9511 
G01 X28.2201 Y39.0235 
G01 X28.0346 Y39.0604 
G01 X4.9854 Y39.0604 
G01 X4.7999 Y39.0235 
G01 X4.6251 Y38.9511 
G01 X4.4678 Y38.8460 
G01 X4.3340 Y38.7122 
G01 X3.0640 Y37.4422 
G01 X2.9589 Y37.2849 
G01 X2.8865 Y37.1101 
G01 X2.8496 Y36.9246 
G01 X2.8496 Y26.1570 
G01 X2.5956 Y25.9030 
G01 X2.5956 Y24.8970 
G01 X3.3070 Y24.1856 
G01 X4.3130 Y24.1856 
G01 X5.0244 Y24.8970 
G01 X5.0244 Y25.9030 
G01 X4.7704 Y26.1570 
G01 X4.7704 Y36.4322 
G01 X5.4778 Y37.1396 
G01 X27.5422 Y37.1396 
G01 X28.2496 Y36.4322 
G01 X28.2496 Y29.1154 
G01 X28.2811 Y28.9571 
G01 X27.6304 Y29.6078 
G01 X27.6304 Y34.3846 
G01 X27.5935 Y34.5701 
G01 X27.5211 Y34.7449 
G01 X27.4160 Y34.9022 
G01 X26.0122 Y36.3060 
G01 X25.8549 Y36.4111 
G01 X25.6801 Y36.4835 
G01 X25.4946 Y36.5204 
G01 X7.5254 Y36.5204 
G01 X7.3399 Y36.4835 
G01 X7.1651 Y36.4111 
G01 X7.0078 Y36.3060 
G01 X6.8740 Y36.1722 
G01 X5.6040 Y34.9022 
G01 X5.4989 Y34.7449 
G01 X5.4265 Y34.5701 
G01 X5.3896 Y34.3846 
G01 X5.3896 Y26.1570 
G01 X5.1356 Y25.9030 
G01 X5.1356 Y24.8970 
G01 X5.8470 Y24.1856 
G01 X6.8530 Y24.1856 
G01 X7.5644 Y24.8970 
G01 X7.5644 Y25.9030 
G01 X7.3104 Y26.1570 
G01 X7.3104 Y33.8922 
G01 X8.0178 Y34.5996 
G01 X25.0022 Y34.5996 
G01 X25.7096 Y33.8922 
G01 X25.7096 Y29.1154 
G01 X25.7465 Y28.9299 
G01 X25.8189 Y28.7551 
G01 X25.9240 Y28.5978 
G01 X26.0578 Y28.4640 
G01 X27.8278 Y26.6940 
G01 X27.6310 Y26.7579 
G01 X27.4146 Y26.7922 
G01 X27.2710 Y26.7922 
G01 X25.3772 Y28.6860 
G01 X25.2199 Y28.7911 
G01 X25.0451 Y28.8635 
G01 X24.8596 Y28.9004 
G01 X20.7178 Y28.9004 
G01 X18.3922 Y31.2260 
G01 X18.2349 Y31.3311 
G01 X18.0601 Y31.4035 
G01 X17.8746 Y31.4404 
G01 X10.0654 Y31.4404 
G01 X9.8799 Y31.4035 
G01 X9.7051 Y31.3311 
G01 X9.5478 Y31.2260 
G01 X9.4140 Y31.0922 
G01 X8.1440 Y29.8222 
G01 X8.0389 Y29.6649 
G01 X7.9665 Y29.4901 
G01 X7.9296 Y29.3046 
G01 X7.9296 Y26.1570 
G01 X7.6756 Y25.9030 
G01 X7.6756 Y24.8970 
G01 X8.3870 Y24.1856 
G01 X9.3930 Y24.1856 
G01 X10.1044 Y24.8970 
G01 X10.1044 Y25.9030 
G01 X9.8504 Y26.1570 
G01 X9.8504 Y28.8122 
G01 X10.5578 Y29.5196 
G01 X17.3822 Y29.5196 
G01 X18.0329 Y28.8689 
G01 X17.8746 Y28.9004 
G01 X12.6054 Y28.9004 
G01 X12.4199 Y28.8635 
G01 X12.2451 Y28.7911 
G01 X12.0878 Y28.6860 
G01 X11.9540 Y28.5522 
G01 X10.6840 Y27.2822 
G01 X10.5789 Y27.1249 
G01 X10.5065 Y26.9501 
G01 X10.4696 Y26.7646 
G01 X10.4696 Y26.1570 
G01 X10.2156 Y25.9030 
G01 X10.2156 Y24.8970 
G01 X10.9270 Y24.1856 
G01 X11.9330 Y24.1856 
G01 X12.6444 Y24.8970 
G01 X12.6444 Y25.9030 
G01 X12.3904 Y26.1570 
G01 X12.3904 Y26.2722 
G01 X13.0978 Y26.9796 
G01 X17.3822 Y26.9796 
G01 X18.0329 Y26.3289 
G01 X17.8746 Y26.3604 
G01 X14.7270 Y26.3604 
G01 X14.4730 Y26.6144 
G01 X13.4670 Y26.6144 
G01 X12.7556 Y25.9030 
G01 X12.7556 Y24.8970 
G01 X13.4670 Y24.1856 
G01 X14.4730 Y24.1856 
G01 X14.7270 Y24.4396 
G01 X17.3822 Y24.4396 
G01 X19.5740 Y22.2478 
G01 X19.7078 Y22.1140 
G01 X19.8651 Y22.0089 
G01 X20.0399 Y21.9365 
G01 X20.2254 Y21.8996 
G01 X22.4865 Y21.8996 
G01 X22.5880 Y21.7981 
G01 X22.7653 Y21.6693 
G01 X22.9606 Y21.5698 
G01 X23.1690 Y21.5021 
G01 X23.3854 Y21.4678 
G01 X23.6046 Y21.4678 
G01 X23.8210 Y21.5021 
G01 X24.0294 Y21.5698 
