(.../pcb-gcode-3.6.0.4/pcb-gcode.ulp)
(Copyright 2005 - 2012 by John Johnson)
(See readme.txt for licensing terms.)
(This file generated from the board:)
(.../OpenHealth_Hardware/OpenHealth_rj45.brd)
(Current profile is .../pcb-gcode-3.6.0.4/profiles/emc.pp  )
(This file generated 27/09/16 19:58)
(Settings from pcb-machine.h)
(  Tool Size)
(0.6000 )
(Z Axis Settings)
(  High     Up        Down     Drill)
(1.1000 	1.0000 	0.0000 	0.0100 )
(spindle on time = 3.0000)
(milling depth = -0.0100)
(text depth = 0.0000)
(tool change at 0.0000 0.0000 0.0000 )
(feed rate xy = F254.00 )
(feed rate z  = F127.00 )
(Settings from pcb-defaults.h)
(isolate min = 0.0254)
(isolate max = 0.5080)
(isolate step = 0.1270)
(Generated top outlines, bottom outlines, )
(Unit of measure: mm)
(Metric Mode)
G21
(Absolute Coordinates)
G90
G00 X0.0000 Y0.0000 
M03
G04 P3.000000
G00 Z1.0000 
G00 X81.3051 Y19.4102 
G01 Z0.0000 F127.00 
G01 X81.1570 Y19.3025 F254.00 
G01 X81.0275 Y19.1730 
G01 X80.9198 Y19.0249 
G01 X80.8367 Y18.8617 
G01 X80.7801 Y18.6875 
G01 X80.7683 Y18.6134 
G01 X65.2817 Y18.6134 
G01 X65.2699 Y18.6875 
G01 X65.2133 Y18.8617 
G01 X65.1302 Y19.0249 
G01 X65.0225 Y19.1730 
G01 X64.8930 Y19.3025 
G01 X64.7449 Y19.4102 
G01 X64.5949 Y19.4866 
G01 X78.8221 Y19.4866 
G01 X78.9831 Y19.5186 
G01 X79.1348 Y19.5815 
G01 X79.2713 Y19.6727 
G01 X79.3750 Y19.7764 
G01 X79.4787 Y19.6727 
G01 X79.6152 Y19.5815 
G01 X79.7669 Y19.5186 
G01 X79.9279 Y19.4866 
G01 X81.4551 Y19.4866 
G01 X81.3051 Y19.4102 
G00 Z1.0000 
G00 X63.5251 Y19.4102 
G01 Z0.0000 F127.00 
G01 X63.3770 Y19.3025 F254.00 
G01 X63.2475 Y19.1730 
G01 X63.1398 Y19.0249 
G01 X63.0567 Y18.8617 
G01 X63.0001 Y18.6875 
G01 X62.9883 Y18.6134 
G01 X47.5017 Y18.6134 
G01 X47.4899 Y18.6875 
G01 X47.4333 Y18.8617 
G01 X47.3502 Y19.0249 
G01 X47.2425 Y19.1730 
G01 X47.1130 Y19.3025 
G01 X46.9649 Y19.4102 
G01 X46.8149 Y19.4866 
G01 X61.0421 Y19.4866 
G01 X61.2031 Y19.5186 
G01 X61.3548 Y19.5815 
G01 X61.4913 Y19.6727 
G01 X61.5950 Y19.7764 
G01 X61.6987 Y19.6727 
G01 X61.8352 Y19.5815 
G01 X61.9869 Y19.5186 
G01 X62.1479 Y19.4866 
G01 X63.6751 Y19.4866 
G01 X63.5251 Y19.4102 
G00 Z1.0000 
G00 X78.1002 Y22.7604 
G01 Z0.0000 F127.00 
G01 X78.1002 Y22.9596 F254.00 
G01 X78.0690 Y23.1563 
G01 X78.0075 Y23.3457 
G01 X77.9171 Y23.5231 
G01 X77.8000 Y23.6842 
G01 X77.6592 Y23.8250 
G01 X77.4981 Y23.9421 
G01 X77.3207 Y24.0325 
G01 X77.1313 Y24.0940 
G01 X76.9346 Y24.1252 
G01 X76.7354 Y24.1252 
G01 X76.5387 Y24.0940 
G01 X76.3493 Y24.0325 
G01 X76.1719 Y23.9421 
G01 X76.0108 Y23.8250 
G01 X75.8700 Y23.6842 
G01 X75.7529 Y23.5231 
G01 X75.6625 Y23.3457 
G01 X75.6010 Y23.1563 
G01 X75.5698 Y22.9596 
G01 X75.5698 Y22.7604 
G01 X75.6010 Y22.5637 
G01 X75.6625 Y22.3743 
G01 X75.7529 Y22.1969 
G01 X75.8700 Y22.0358 
G01 X76.0108 Y21.8950 
G01 X76.1719 Y21.7779 
G01 X76.3493 Y21.6875 
G01 X76.5387 Y21.6260 
G01 X76.7354 Y21.5948 
G01 X76.9346 Y21.5948 
G01 X77.1313 Y21.6260 
G01 X77.3207 Y21.6875 
G01 X77.4981 Y21.7779 
G01 X77.6592 Y21.8950 
G01 X77.8000 Y22.0358 
G01 X77.9171 Y22.1969 
G01 X78.0075 Y22.3743 
G01 X78.0690 Y22.5637 
G01 X78.1002 Y22.7604 
G00 Z1.0000 
G00 X79.3702 Y25.3004 
G01 Z0.0000 F127.00 
G01 X79.3702 Y25.4996 F254.00 
G01 X79.3390 Y25.6963 
G01 X79.2775 Y25.8857 
G01 X79.1871 Y26.0631 
G01 X79.0700 Y26.2242 
G01 X78.9292 Y26.3650 
G01 X78.7681 Y26.4821 
G01 X78.5907 Y26.5725 
G01 X78.4013 Y26.6340 
G01 X78.2046 Y26.6652 
G01 X78.0054 Y26.6652 
G01 X77.8087 Y26.6340 
G01 X77.6193 Y26.5725 
G01 X77.4419 Y26.4821 
G01 X77.2808 Y26.3650 
G01 X77.1400 Y26.2242 
G01 X77.0229 Y26.0631 
G01 X76.9325 Y25.8857 
G01 X76.8710 Y25.6963 
G01 X76.8398 Y25.4996 
G01 X76.8398 Y25.3004 
G01 X76.8710 Y25.1037 
G01 X76.9325 Y24.9143 
G01 X77.0229 Y24.7369 
G01 X77.1400 Y24.5758 
G01 X77.2808 Y24.4350 
G01 X77.4419 Y24.3179 
G01 X77.6193 Y24.2275 
G01 X77.8087 Y24.1660 
G01 X78.0054 Y24.1348 
G01 X78.2046 Y24.1348 
G01 X78.4013 Y24.1660 
G01 X78.5907 Y24.2275 
G01 X78.7681 Y24.3179 
G01 X78.9292 Y24.4350 
G01 X79.0700 Y24.5758 
G01 X79.1871 Y24.7369 
G01 X79.2775 Y24.9143 
G01 X79.3390 Y25.1037 
G01 X79.3702 Y25.3004 
G00 Z1.0000 
G00 X83.1802 Y22.7604 
G01 Z0.0000 F127.00 
G01 X83.1802 Y22.9596 F254.00 
G01 X83.1490 Y23.1563 
G01 X83.0875 Y23.3457 
G01 X82.9971 Y23.5231 
G01 X82.8800 Y23.6842 
G01 X82.7392 Y23.8250 
G01 X82.5781 Y23.9421 
G01 X82.4007 Y24.0325 
G01 X82.2113 Y24.0940 
G01 X82.0146 Y24.1252 
G01 X81.8154 Y24.1252 
G01 X81.6187 Y24.0940 
G01 X81.4293 Y24.0325 
G01 X81.2519 Y23.9421 
G01 X81.0908 Y23.8250 
G01 X80.9500 Y23.6842 
G01 X80.8329 Y23.5231 
G01 X80.7425 Y23.3457 
G01 X80.6810 Y23.1563 
G01 X80.6498 Y22.9596 
G01 X80.6498 Y22.7604 
G01 X80.6810 Y22.5637 
G01 X80.7425 Y22.3743 
G01 X80.8329 Y22.1969 
G01 X80.9500 Y22.0358 
G01 X81.0908 Y21.8950 
G01 X81.2519 Y21.7779 
G01 X81.4293 Y21.6875 
G01 X81.6187 Y21.6260 
G01 X81.8154 Y21.5948 
G01 X82.0146 Y21.5948 
G01 X82.2113 Y21.6260 
G01 X82.4007 Y21.6875 
G01 X82.5781 Y21.7779 
G01 X82.7392 Y21.8950 
G01 X82.8800 Y22.0358 
G01 X82.9971 Y22.1969 
G01 X83.0875 Y22.3743 
G01 X83.1490 Y22.5637 
G01 X83.1802 Y22.7604 
G00 Z1.0000 
G00 X85.7202 Y22.7604 
G01 Z0.0000 F127.00 
G01 X85.7202 Y22.9596 F254.00 
G01 X85.6890 Y23.1563 
G01 X85.6275 Y23.3457 
G01 X85.5371 Y23.5231 
G01 X85.4200 Y23.6842 
G01 X85.2792 Y23.8250 
G01 X85.1181 Y23.9421 
G01 X84.9407 Y24.0325 
G01 X84.7513 Y24.0940 
G01 X84.5546 Y24.1252 
G01 X84.3554 Y24.1252 
G01 X84.1587 Y24.0940 
G01 X83.9693 Y24.0325 
G01 X83.7919 Y23.9421 
G01 X83.6308 Y23.8250 
G01 X83.4900 Y23.6842 
G01 X83.3729 Y23.5231 
G01 X83.2825 Y23.3457 
G01 X83.2210 Y23.1563 
G01 X83.1898 Y22.9596 
G01 X83.1898 Y22.7604 
G01 X83.2210 Y22.5637 
G01 X83.2825 Y22.3743 
G01 X83.3729 Y22.1969 
G01 X83.4900 Y22.0358 
G01 X83.6308 Y21.8950 
G01 X83.7919 Y21.7779 
G01 X83.9693 Y21.6875 
G01 X84.1587 Y21.6260 
G01 X84.3554 Y21.5948 
G01 X84.5546 Y21.5948 
G01 X84.7513 Y21.6260 
G01 X84.9407 Y21.6875 
G01 X85.1181 Y21.7779 
G01 X85.2792 Y21.8950 
G01 X85.4200 Y22.0358 
G01 X85.5371 Y22.1969 
G01 X85.6275 Y22.3743 
G01 X85.6890 Y22.5637 
G01 X85.7202 Y22.7604 
G00 Z1.0000 
G00 X81.9102 Y25.3004 
G01 Z0.0000 F127.00 
G01 X81.9102 Y25.4996 F254.00 
G01 X81.8790 Y25.6963 
G01 X81.8175 Y25.8857 
G01 X81.7271 Y26.0631 
G01 X81.6100 Y26.2242 
G01 X81.4692 Y26.3650 
G01 X81.3081 Y26.4821 
G01 X81.1307 Y26.5725 
G01 X80.9413 Y26.6340 
G01 X80.7446 Y26.6652 
G01 X80.5454 Y26.6652 
G01 X80.3487 Y26.6340 
G01 X80.1593 Y26.5725 
G01 X79.9819 Y26.4821 
G01 X79.8208 Y26.3650 
G01 X79.6800 Y26.2242 
G01 X79.5629 Y26.0631 
G01 X79.4725 Y25.8857 
G01 X79.4110 Y25.6963 
G01 X79.3798 Y25.4996 
G01 X79.3798 Y25.3004 
G01 X79.4110 Y25.1037 
G01 X79.4725 Y24.9143 
G01 X79.5629 Y24.7369 
G01 X79.6800 Y24.5758 
G01 X79.8208 Y24.4350 
G01 X79.9819 Y24.3179 
G01 X80.1593 Y24.2275 
G01 X80.3487 Y24.1660 
G01 X80.5454 Y24.1348 
G01 X80.7446 Y24.1348 
G01 X80.9413 Y24.1660 
G01 X81.1307 Y24.2275 
G01 X81.3081 Y24.3179 
G01 X81.4692 Y24.4350 
G01 X81.6100 Y24.5758 
G01 X81.7271 Y24.7369 
G01 X81.8175 Y24.9143 
G01 X81.8790 Y25.1037 
G01 X81.9102 Y25.3004 
G00 Z1.0000 
G00 X84.4502 Y25.3004 
G01 Z0.0000 F127.00 
G01 X84.4502 Y25.4996 F254.00 
G01 X84.4190 Y25.6963 
G01 X84.3575 Y25.8857 
G01 X84.2671 Y26.0631 
G01 X84.1500 Y26.2242 
G01 X84.0092 Y26.3650 
G01 X83.8481 Y26.4821 
G01 X83.6707 Y26.5725 
G01 X83.4813 Y26.6340 
G01 X83.2846 Y26.6652 
G01 X83.0854 Y26.6652 
G01 X82.8887 Y26.6340 
G01 X82.6993 Y26.5725 
G01 X82.5219 Y26.4821 
G01 X82.3608 Y26.3650 
G01 X82.2200 Y26.2242 
G01 X82.1029 Y26.0631 
G01 X82.0125 Y25.8857 
G01 X81.9510 Y25.6963 
G01 X81.9198 Y25.4996 
G01 X81.9198 Y25.3004 
G01 X81.9510 Y25.1037 
G01 X82.0125 Y24.9143 
G01 X82.1029 Y24.7369 
G01 X82.2200 Y24.5758 
G01 X82.3608 Y24.4350 
G01 X82.5219 Y24.3179 
G01 X82.6993 Y24.2275 
G01 X82.8887 Y24.1660 
G01 X83.0854 Y24.1348 
G01 X83.2846 Y24.1348 
G01 X83.4813 Y24.1660 
G01 X83.6707 Y24.2275 
G01 X83.8481 Y24.3179 
G01 X84.0092 Y24.4350 
G01 X84.1500 Y24.5758 
G01 X84.2671 Y24.7369 
G01 X84.3575 Y24.9143 
G01 X84.4190 Y25.1037 
G01 X84.4502 Y25.3004 
G00 Z1.0000 
G00 X84.4598 Y26.3826 
G01 Z0.0000 F127.00 
G01 X84.4598 Y24.4174 F254.00 
G01 X84.4820 Y24.3346 
G01 X84.5248 Y24.2604 
G01 X84.5854 Y24.1998 
G01 X84.6596 Y24.1570 
G01 X84.7424 Y24.1348 
G01 X86.7076 Y24.1348 
G01 X86.7904 Y24.1570 
G01 X86.8646 Y24.1998 
G01 X86.9252 Y24.2604 
G01 X86.9680 Y24.3346 
G01 X86.9902 Y24.4174 
G01 X86.9902 Y26.3826 
G01 X86.9680 Y26.4654 
G01 X86.9252 Y26.5396 
G01 X86.8646 Y26.6002 
G01 X86.7904 Y26.6430 
G01 X86.7076 Y26.6652 
G01 X84.7424 Y26.6652 
G01 X84.6596 Y26.6430 
G01 X84.5854 Y26.6002 
G01 X84.5248 Y26.5396 
G01 X84.4820 Y26.4654 
G01 X84.4598 Y26.3826 
G00 Z1.0000 
G00 X114.1174 Y22.4096 
G01 Z0.0000 F127.00 
G01 X114.1174 Y23.3104 F254.00 
G01 X113.4804 Y23.9474 
G01 X112.5796 Y23.9474 
G01 X111.9426 Y23.3104 
G01 X111.9426 Y22.4096 
G01 X112.5796 Y21.7726 
G01 X113.4804 Y21.7726 
G01 X114.1174 Y22.4096 
G00 Z1.0000 
G00 X114.1174 Y24.9496 
G01 Z0.0000 F127.00 
G01 X114.1174 Y25.8504 F254.00 
G01 X113.4804 Y26.4874 
G01 X112.5796 Y26.4874 
G01 X111.9426 Y25.8504 
G01 X111.9426 Y24.9496 
G01 X112.5796 Y24.3126 
G01 X113.4804 Y24.3126 
G01 X114.1174 Y24.9496 
G00 Z1.0000 
G00 X116.6574 Y22.4096 
G01 Z0.0000 F127.00 
G01 X116.6574 Y23.3104 F254.00 
G01 X116.0204 Y23.9474 
G01 X115.1196 Y23.9474 
G01 X114.4826 Y23.3104 
G01 X114.4826 Y22.4096 
G01 X115.1196 Y21.7726 
G01 X116.0204 Y21.7726 
G01 X116.6574 Y22.4096 
G00 Z1.0000 
G00 X116.6574 Y24.9496 
G01 Z0.0000 F127.00 
G01 X116.6574 Y25.8504 F254.00 
G01 X116.0204 Y26.4874 
G01 X115.1196 Y26.4874 
G01 X114.4826 Y25.8504 
G01 X114.4826 Y24.9496 
G01 X115.1196 Y24.3126 
G01 X116.0204 Y24.3126 
G01 X116.6574 Y24.9496 
G00 Z1.0000 
G00 X119.1974 Y22.4096 
G01 Z0.0000 F127.00 
G01 X119.1974 Y23.3104 F254.00 
G01 X118.5604 Y23.9474 
G01 X117.6596 Y23.9474 
G01 X117.0226 Y23.3104 
G01 X117.0226 Y22.4096 
G01 X117.6596 Y21.7726 
G01 X118.5604 Y21.7726 
G01 X119.1974 Y22.4096 
G00 Z1.0000 
G00 X119.1974 Y24.9496 
G01 Z0.0000 F127.00 
G01 X119.1974 Y25.8504 F254.00 
G01 X118.5604 Y26.4874 
G01 X117.6596 Y26.4874 
G01 X117.0226 Y25.8504 
G01 X117.0226 Y24.9496 
G01 X117.6596 Y24.3126 
G01 X118.5604 Y24.3126 
G01 X119.1974 Y24.9496 
G00 Z1.0000 
G00 X121.7374 Y22.4096 
G01 Z0.0000 F127.00 
G01 X121.7374 Y23.3104 F254.00 
G01 X121.1004 Y23.9474 
G01 X120.1996 Y23.9474 
G01 X119.5626 Y23.3104 
G01 X119.5626 Y22.4096 
G01 X120.1996 Y21.7726 
G01 X121.1004 Y21.7726 
G01 X121.7374 Y22.4096 
G00 Z1.0000 
G00 X121.7374 Y24.9496 
G01 Z0.0000 F127.00 
G01 X121.7374 Y25.8504 F254.00 
G01 X121.1004 Y26.4874 
G01 X120.1996 Y26.4874 
G01 X119.5626 Y25.8504 
G01 X119.5626 Y24.9496 
G01 X120.1996 Y24.3126 
G01 X121.1004 Y24.3126 
G01 X121.7374 Y24.9496 
G00 Z1.0000 
G00 X124.2774 Y22.4096 
G01 Z0.0000 F127.00 
G01 X124.2774 Y23.3104 F254.00 
G01 X123.6404 Y23.9474 
G01 X122.7396 Y23.9474 
G01 X122.1026 Y23.3104 
G01 X122.1026 Y22.4096 
G01 X122.7396 Y21.7726 
G01 X123.6404 Y21.7726 
G01 X124.2774 Y22.4096 
G00 Z1.0000 
G00 X124.2774 Y24.9496 
G01 Z0.0000 F127.00 
G01 X124.2774 Y25.8504 F254.00 
G01 X123.6404 Y26.4874 
G01 X122.7396 Y26.4874 
G01 X122.1026 Y25.8504 
G01 X122.1026 Y24.9496 
G01 X122.7396 Y24.3126 
G01 X123.6404 Y24.3126 
G01 X124.2774 Y24.9496 
G00 Z1.0000 
G00 X4.8974 Y22.4096 
G01 Z0.0000 F127.00 
G01 X4.8974 Y23.3104 F254.00 
G01 X4.2604 Y23.9474 
G01 X3.3596 Y23.9474 
G01 X2.7226 Y23.3104 
G01 X2.7226 Y22.4096 
G01 X3.3596 Y21.7726 
G01 X4.2604 Y21.7726 
G01 X4.8974 Y22.4096 
G00 Z1.0000 
G00 X4.8974 Y24.9496 
G01 Z0.0000 F127.00 
G01 X4.8974 Y25.8504 F254.00 
G01 X4.2604 Y26.4874 
G01 X3.3596 Y26.4874 
G01 X2.7226 Y25.8504 
G01 X2.7226 Y24.9496 
G01 X3.3596 Y24.3126 
G01 X4.2604 Y24.3126 
G01 X4.8974 Y24.9496 
G00 Z1.0000 
G00 X7.4374 Y22.4096 
G01 Z0.0000 F127.00 
G01 X7.4374 Y23.3104 F254.00 
G01 X6.8004 Y23.9474 
G01 X5.8996 Y23.9474 
G01 X5.2626 Y23.3104 
G01 X5.2626 Y22.4096 
G01 X5.8996 Y21.7726 
G01 X6.8004 Y21.7726 
G01 X7.4374 Y22.4096 
G00 Z1.0000 
G00 X7.4374 Y24.9496 
G01 Z0.0000 F127.00 
G01 X7.4374 Y25.8504 F254.00 
G01 X6.8004 Y26.4874 
G01 X5.8996 Y26.4874 
G01 X5.2626 Y25.8504 
G01 X5.2626 Y24.9496 
G01 X5.8996 Y24.3126 
G01 X6.8004 Y24.3126 
G01 X7.4374 Y24.9496 
G00 Z1.0000 
G00 X9.9774 Y22.4096 
G01 Z0.0000 F127.00 
G01 X9.9774 Y23.3104 F254.00 
G01 X9.3404 Y23.9474 
G01 X8.4396 Y23.9474 
G01 X7.8026 Y23.3104 
G01 X7.8026 Y22.4096 
G01 X8.4396 Y21.7726 
G01 X9.3404 Y21.7726 
G01 X9.9774 Y22.4096 
G00 Z1.0000 
G00 X9.9774 Y24.9496 
G01 Z0.0000 F127.00 
G01 X9.9774 Y25.8504 F254.00 
G01 X9.3404 Y26.4874 
G01 X8.4396 Y26.4874 
G01 X7.8026 Y25.8504 
G01 X7.8026 Y24.9496 
G01 X8.4396 Y24.3126 
G01 X9.3404 Y24.3126 
G01 X9.9774 Y24.9496 
G00 Z1.0000 
G00 X12.5174 Y22.4096 
G01 Z0.0000 F127.00 
G01 X12.5174 Y23.3104 F254.00 
G01 X11.8804 Y23.9474 
G01 X10.9796 Y23.9474 
G01 X10.3426 Y23.3104 
G01 X10.3426 Y22.4096 
G01 X10.9796 Y21.7726 
G01 X11.8804 Y21.7726 
G01 X12.5174 Y22.4096 
G00 Z1.0000 
G00 X12.5174 Y24.9496 
G01 Z0.0000 F127.00 
G01 X12.5174 Y25.8504 F254.00 
G01 X11.8804 Y26.4874 
G01 X10.9796 Y26.4874 
G01 X10.3426 Y25.8504 
G01 X10.3426 Y24.9496 
G01 X10.9796 Y24.3126 
G01 X11.8804 Y24.3126 
G01 X12.5174 Y24.9496 
G00 Z1.0000 
G00 X15.0574 Y22.4096 
G01 Z0.0000 F127.00 
G01 X15.0574 Y23.3104 F254.00 
G01 X14.4204 Y23.9474 
G01 X13.5196 Y23.9474 
G01 X12.8826 Y23.3104 
G01 X12.8826 Y22.4096 
G01 X13.5196 Y21.7726 
G01 X14.4204 Y21.7726 
G01 X15.0574 Y22.4096 
G00 Z1.0000 
G00 X15.0574 Y24.9496 
G01 Z0.0000 F127.00 
G01 X15.0574 Y25.8504 F254.00 
G01 X14.4204 Y26.4874 
G01 X13.5196 Y26.4874 
G01 X12.8826 Y25.8504 
G01 X12.8826 Y24.9496 
G01 X13.5196 Y24.3126 
G01 X14.4204 Y24.3126 
G01 X15.0574 Y24.9496 
G00 Z1.0000 
G00 X95.8802 Y22.7604 
G01 Z0.0000 F127.00 
G01 X95.8802 Y22.9596 F254.00 
G01 X95.8490 Y23.1563 
G01 X95.7875 Y23.3457 
G01 X95.6971 Y23.5231 
G01 X95.5800 Y23.6842 
G01 X95.4392 Y23.8250 
G01 X95.2781 Y23.9421 
G01 X95.1007 Y24.0325 
G01 X94.9113 Y24.0940 
G01 X94.7146 Y24.1252 
G01 X94.5154 Y24.1252 
G01 X94.3187 Y24.0940 
G01 X94.1293 Y24.0325 
G01 X93.9519 Y23.9421 
G01 X93.7908 Y23.8250 
G01 X93.6500 Y23.6842 
G01 X93.5329 Y23.5231 
G01 X93.4425 Y23.3457 
G01 X93.3810 Y23.1563 
G01 X93.3498 Y22.9596 
G01 X93.3498 Y22.7604 
G01 X93.3810 Y22.5637 
G01 X93.4425 Y22.3743 
G01 X93.5329 Y22.1969 
G01 X93.6500 Y22.0358 
G01 X93.7908 Y21.8950 
G01 X93.9519 Y21.7779 
G01 X94.1293 Y21.6875 
G01 X94.3187 Y21.6260 
G01 X94.5154 Y21.5948 
G01 X94.7146 Y21.5948 
G01 X94.9113 Y21.6260 
G01 X95.1007 Y21.6875 
G01 X95.2781 Y21.7779 
G01 X95.4392 Y21.8950 
G01 X95.5800 Y22.0358 
G01 X95.6971 Y22.1969 
G01 X95.7875 Y22.3743 
G01 X95.8490 Y22.5637 
G01 X95.8802 Y22.7604 
G00 Z1.0000 
G00 X97.1502 Y25.3004 
G01 Z0.0000 F127.00 
G01 X97.1502 Y25.4996 F254.00 
G01 X97.1190 Y25.6963 
G01 X97.0575 Y25.8857 
G01 X96.9671 Y26.0631 
G01 X96.8500 Y26.2242 
G01 X96.7092 Y26.3650 
G01 X96.5481 Y26.4821 
G01 X96.3707 Y26.5725 
G01 X96.1813 Y26.6340 
G01 X95.9846 Y26.6652 
G01 X95.7854 Y26.6652 
G01 X95.5887 Y26.6340 
G01 X95.3993 Y26.5725 
G01 X95.2219 Y26.4821 
G01 X95.0608 Y26.3650 
G01 X94.9200 Y26.2242 
G01 X94.8029 Y26.0631 
G01 X94.7125 Y25.8857 
G01 X94.6510 Y25.6963 
G01 X94.6198 Y25.4996 
G01 X94.6198 Y25.3004 
G01 X94.6510 Y25.1037 
G01 X94.7125 Y24.9143 
G01 X94.8029 Y24.7369 
G01 X94.9200 Y24.5758 
G01 X95.0608 Y24.4350 
G01 X95.2219 Y24.3179 
G01 X95.3993 Y24.2275 
G01 X95.5887 Y24.1660 
G01 X95.7854 Y24.1348 
G01 X95.9846 Y24.1348 
G01 X96.1813 Y24.1660 
G01 X96.3707 Y24.2275 
G01 X96.5481 Y24.3179 
G01 X96.7092 Y24.4350 
G01 X96.8500 Y24.5758 
G01 X96.9671 Y24.7369 
G01 X97.0575 Y24.9143 
G01 X97.1190 Y25.1037 
G01 X97.1502 Y25.3004 
G00 Z1.0000 
G00 X100.9602 Y22.7604 
G01 Z0.0000 F127.00 
G01 X100.9602 Y22.9596 F254.00 
G01 X100.9290 Y23.1563 
G01 X100.8675 Y23.3457 
G01 X100.7771 Y23.5231 
G01 X100.6600 Y23.6842 
G01 X100.5192 Y23.8250 
G01 X100.3581 Y23.9421 
G01 X100.1807 Y24.0325 
G01 X99.9913 Y24.0940 
G01 X99.7946 Y24.1252 
G01 X99.5954 Y24.1252 
G01 X99.3987 Y24.0940 
G01 X99.2093 Y24.0325 
G01 X99.0319 Y23.9421 
G01 X98.8708 Y23.8250 
G01 X98.7300 Y23.6842 
G01 X98.6129 Y23.5231 
G01 X98.5225 Y23.3457 
G01 X98.4610 Y23.1563 
G01 X98.4298 Y22.9596 
G01 X98.4298 Y22.7604 
G01 X98.4610 Y22.5637 
G01 X98.5225 Y22.3743 
G01 X98.6129 Y22.1969 
G01 X98.7300 Y22.0358 
G01 X98.8708 Y21.8950 
G01 X99.0319 Y21.7779 
G01 X99.2093 Y21.6875 
G01 X99.3987 Y21.6260 
G01 X99.5954 Y21.5948 
G01 X99.7946 Y21.5948 
G01 X99.9913 Y21.6260 
G01 X100.1807 Y21.6875 
G01 X100.3581 Y21.7779 
G01 X100.5192 Y21.8950 
G01 X100.6600 Y22.0358 
G01 X100.7771 Y22.1969 
G01 X100.8675 Y22.3743 
G01 X100.9290 Y22.5637 
G01 X100.9602 Y22.7604 
G00 Z1.0000 
G00 X103.5002 Y22.7604 
G01 Z0.0000 F127.00 
G01 X103.5002 Y22.9596 F254.00 
G01 X103.4690 Y23.1563 
G01 X103.4075 Y23.3457 
G01 X103.3171 Y23.5231 
G01 X103.2000 Y23.6842 
G01 X103.0592 Y23.8250 
G01 X102.8981 Y23.9421 
G01 X102.7207 Y24.0325 
G01 X102.5313 Y24.0940 
G01 X102.3346 Y24.1252 
G01 X102.1354 Y24.1252 
G01 X101.9387 Y24.0940 
G01 X101.7493 Y24.0325 
G01 X101.5719 Y23.9421 
G01 X101.4108 Y23.8250 
G01 X101.2700 Y23.6842 
G01 X101.1529 Y23.5231 
G01 X101.0625 Y23.3457 
G01 X101.0010 Y23.1563 
G01 X100.9698 Y22.9596 
G01 X100.9698 Y22.7604 
G01 X101.0010 Y22.5637 
G01 X101.0625 Y22.3743 
G01 X101.1529 Y22.1969 
G01 X101.2700 Y22.0358 
G01 X101.4108 Y21.8950 
G01 X101.5719 Y21.7779 
G01 X101.7493 Y21.6875 
G01 X101.9387 Y21.6260 
G01 X102.1354 Y21.5948 
G01 X102.3346 Y21.5948 
G01 X102.5313 Y21.6260 
G01 X102.7207 Y21.6875 
G01 X102.8981 Y21.7779 
G01 X103.0592 Y21.8950 
G01 X103.2000 Y22.0358 
G01 X103.3171 Y22.1969 
G01 X103.4075 Y22.3743 
G01 X103.4690 Y22.5637 
G01 X103.5002 Y22.7604 
G00 Z1.0000 
G00 X99.6902 Y25.3004 
G01 Z0.0000 F127.00 
G01 X99.6902 Y25.4996 F254.00 
G01 X99.6590 Y25.6963 
G01 X99.5975 Y25.8857 
G01 X99.5071 Y26.0631 
G01 X99.3900 Y26.2242 
G01 X99.2492 Y26.3650 
G01 X99.0881 Y26.4821 
G01 X98.9107 Y26.5725 
G01 X98.7213 Y26.6340 
G01 X98.5246 Y26.6652 
G01 X98.3254 Y26.6652 
G01 X98.1287 Y26.6340 
G01 X97.9393 Y26.5725 
G01 X97.7619 Y26.4821 
G01 X97.6008 Y26.3650 
G01 X97.4600 Y26.2242 
G01 X97.3429 Y26.0631 
G01 X97.2525 Y25.8857 
G01 X97.1910 Y25.6963 
G01 X97.1598 Y25.4996 
G01 X97.1598 Y25.3004 
G01 X97.1910 Y25.1037 
G01 X97.2525 Y24.9143 
G01 X97.3429 Y24.7369 
G01 X97.4600 Y24.5758 
G01 X97.6008 Y24.4350 
G01 X97.7619 Y24.3179 
G01 X97.9393 Y24.2275 
G01 X98.1287 Y24.1660 
G01 X98.3254 Y24.1348 
G01 X98.5246 Y24.1348 
G01 X98.7213 Y24.1660 
G01 X98.9107 Y24.2275 
G01 X99.0881 Y24.3179 
G01 X99.2492 Y24.4350 
G01 X99.3900 Y24.5758 
G01 X99.5071 Y24.7369 
G01 X99.5975 Y24.9143 
G01 X99.6590 Y25.1037 
G01 X99.6902 Y25.3004 
G00 Z1.0000 
G00 X102.2302 Y25.3004 
G01 Z0.0000 F127.00 
G01 X102.2302 Y25.4996 F254.00 
G01 X102.1990 Y25.6963 
G01 X102.1375 Y25.8857 
G01 X102.0471 Y26.0631 
G01 X101.9300 Y26.2242 
G01 X101.7892 Y26.3650 
G01 X101.6281 Y26.4821 
G01 X101.4507 Y26.5725 
G01 X101.2613 Y26.6340 
G01 X101.0646 Y26.6652 
G01 X100.8654 Y26.6652 
G01 X100.6687 Y26.6340 
G01 X100.4793 Y26.5725 
G01 X100.3019 Y26.4821 
G01 X100.1408 Y26.3650 
G01 X100.0000 Y26.2242 
G01 X99.8829 Y26.0631 
G01 X99.7925 Y25.8857 
G01 X99.7310 Y25.6963 
G01 X99.6998 Y25.4996 
G01 X99.6998 Y25.3004 
G01 X99.7310 Y25.1037 
G01 X99.7925 Y24.9143 
G01 X99.8829 Y24.7369 
G01 X100.0000 Y24.5758 
G01 X100.1408 Y24.4350 
G01 X100.3019 Y24.3179 
G01 X100.4793 Y24.2275 
G01 X100.6687 Y24.1660 
G01 X100.8654 Y24.1348 
G01 X101.0646 Y24.1348 
G01 X101.2613 Y24.1660 
G01 X101.4507 Y24.2275 
G01 X101.6281 Y24.3179 
G01 X101.7892 Y24.4350 
G01 X101.9300 Y24.5758 
G01 X102.0471 Y24.7369 
G01 X102.1375 Y24.9143 
G01 X102.1990 Y25.1037 
G01 X102.2302 Y25.3004 
G00 Z1.0000 
G00 X102.2398 Y26.3826 
G01 Z0.0000 F127.00 
G01 X102.2398 Y24.4174 F254.00 
G01 X102.2620 Y24.3346 
G01 X102.3048 Y24.2604 
G01 X102.3654 Y24.1998 
G01 X102.4396 Y24.1570 
G01 X102.5224 Y24.1348 
G01 X104.4876 Y24.1348 
G01 X104.5704 Y24.1570 
G01 X104.6446 Y24.1998 
G01 X104.7052 Y24.2604 
G01 X104.7480 Y24.3346 
G01 X104.7702 Y24.4174 
G01 X104.7702 Y26.3826 
G01 X104.7480 Y26.4654 
G01 X104.7052 Y26.5396 
G01 X104.6446 Y26.6002 
G01 X104.5704 Y26.6430 
G01 X104.4876 Y26.6652 
G01 X102.5224 Y26.6652 
G01 X102.4396 Y26.6430 
G01 X102.3654 Y26.6002 
G01 X102.3048 Y26.5396 
G01 X102.2620 Y26.4654 
G01 X102.2398 Y26.3826 
G00 Z1.0000 
G00 X24.7602 Y22.7604 
G01 Z0.0000 F127.00 
G01 X24.7602 Y22.9596 F254.00 
G01 X24.7290 Y23.1563 
G01 X24.6675 Y23.3457 
G01 X24.5771 Y23.5231 
G01 X24.4600 Y23.6842 
G01 X24.3192 Y23.8250 
G01 X24.1581 Y23.9421 
G01 X23.9807 Y24.0325 
G01 X23.7913 Y24.0940 
G01 X23.5946 Y24.1252 
G01 X23.3954 Y24.1252 
G01 X23.1987 Y24.0940 
G01 X23.0093 Y24.0325 
G01 X22.8319 Y23.9421 
G01 X22.6708 Y23.8250 
G01 X22.5300 Y23.6842 
G01 X22.4129 Y23.5231 
G01 X22.3225 Y23.3457 
G01 X22.2610 Y23.1563 
G01 X22.2298 Y22.9596 
G01 X22.2298 Y22.7604 
G01 X22.2610 Y22.5637 
G01 X22.3225 Y22.3743 
G01 X22.4129 Y22.1969 
G01 X22.5300 Y22.0358 
G01 X22.6708 Y21.8950 
G01 X22.8319 Y21.7779 
G01 X23.0093 Y21.6875 
G01 X23.1987 Y21.6260 
G01 X23.3954 Y21.5948 
G01 X23.5946 Y21.5948 
G01 X23.7913 Y21.6260 
G01 X23.9807 Y21.6875 
G01 X24.1581 Y21.7779 
G01 X24.3192 Y21.8950 
G01 X24.4600 Y22.0358 
G01 X24.5771 Y22.1969 
G01 X24.6675 Y22.3743 
G01 X24.7290 Y22.5637 
G01 X24.7602 Y22.7604 
G00 Z1.0000 
G00 X26.0302 Y25.3004 
G01 Z0.0000 F127.00 
G01 X26.0302 Y25.4996 F254.00 
G01 X25.9990 Y25.6963 
G01 X25.9375 Y25.8857 
G01 X25.8471 Y26.0631 
G01 X25.7300 Y26.2242 
G01 X25.5892 Y26.3650 
G01 X25.4281 Y26.4821 
G01 X25.2507 Y26.5725 
G01 X25.0613 Y26.6340 
G01 X24.8646 Y26.6652 
G01 X24.6654 Y26.6652 
G01 X24.4687 Y26.6340 
G01 X24.2793 Y26.5725 
G01 X24.1019 Y26.4821 
G01 X23.9408 Y26.3650 
G01 X23.8000 Y26.2242 
G01 X23.6829 Y26.0631 
G01 X23.5925 Y25.8857 
G01 X23.5310 Y25.6963 
G01 X23.4998 Y25.4996 
G01 X23.4998 Y25.3004 
G01 X23.5310 Y25.1037 
G01 X23.5925 Y24.9143 
G01 X23.6829 Y24.7369 
G01 X23.8000 Y24.5758 
G01 X23.9408 Y24.4350 
G01 X24.1019 Y24.3179 
G01 X24.2793 Y24.2275 
G01 X24.4687 Y24.1660 
G01 X24.6654 Y24.1348 
G01 X24.8646 Y24.1348 
G01 X25.0613 Y24.1660 
G01 X25.2507 Y24.2275 
G01 X25.4281 Y24.3179 
G01 X25.5892 Y24.4350 
G01 X25.7300 Y24.5758 
G01 X25.8471 Y24.7369 
G01 X25.9375 Y24.9143 
G01 X25.9990 Y25.1037 
G01 X26.0302 Y25.3004 
G00 Z1.0000 
G00 X29.8402 Y22.7604 
G01 Z0.0000 F127.00 
G01 X29.8402 Y22.9596 F254.00 
G01 X29.8090 Y23.1563 
G01 X29.7475 Y23.3457 
G01 X29.6571 Y23.5231 
G01 X29.5400 Y23.6842 
G01 X29.3992 Y23.8250 
G01 X29.2381 Y23.9421 
G01 X29.0607 Y24.0325 
G01 X28.8713 Y24.0940 
G01 X28.6746 Y24.1252 
G01 X28.4754 Y24.1252 
G01 X28.2787 Y24.0940 
G01 X28.0893 Y24.0325 
G01 X27.9119 Y23.9421 
G01 X27.7508 Y23.8250 
G01 X27.6100 Y23.6842 
G01 X27.4929 Y23.5231 
G01 X27.4025 Y23.3457 
G01 X27.3410 Y23.1563 
G01 X27.3098 Y22.9596 
G01 X27.3098 Y22.7604 
G01 X27.3410 Y22.5637 
G01 X27.4025 Y22.3743 
G01 X27.4929 Y22.1969 
G01 X27.6100 Y22.0358 
G01 X27.7508 Y21.8950 
G01 X27.9119 Y21.7779 
G01 X28.0893 Y21.6875 
G01 X28.2787 Y21.6260 
G01 X28.4754 Y21.5948 
G01 X28.6746 Y21.5948 
G01 X28.8713 Y21.6260 
G01 X29.0607 Y21.6875 
G01 X29.2381 Y21.7779 
G01 X29.3992 Y21.8950 
G01 X29.5400 Y22.0358 
G01 X29.6571 Y22.1969 
G01 X29.7475 Y22.3743 
G01 X29.8090 Y22.5637 
G01 X29.8402 Y22.7604 
G00 Z1.0000 
G00 X32.3802 Y22.7604 
G01 Z0.0000 F127.00 
G01 X32.3802 Y22.9596 F254.00 
G01 X32.3490 Y23.1563 
G01 X32.2875 Y23.3457 
G01 X32.1971 Y23.5231 
G01 X32.0800 Y23.6842 
G01 X31.9392 Y23.8250 
G01 X31.7781 Y23.9421 
G01 X31.6007 Y24.0325 
G01 X31.4113 Y24.0940 
G01 X31.2146 Y24.1252 
G01 X31.0154 Y24.1252 
G01 X30.8187 Y24.0940 
G01 X30.6293 Y24.0325 
G01 X30.4519 Y23.9421 
G01 X30.2908 Y23.8250 
G01 X30.1500 Y23.6842 
G01 X30.0329 Y23.5231 
G01 X29.9425 Y23.3457 
G01 X29.8810 Y23.1563 
G01 X29.8498 Y22.9596 
G01 X29.8498 Y22.7604 
G01 X29.8810 Y22.5637 
G01 X29.9425 Y22.3743 
G01 X30.0329 Y22.1969 
G01 X30.1500 Y22.0358 
G01 X30.2908 Y21.8950 
G01 X30.4519 Y21.7779 
G01 X30.6293 Y21.6875 
G01 X30.8187 Y21.6260 
G01 X31.0154 Y21.5948 
G01 X31.2146 Y21.5948 
G01 X31.4113 Y21.6260 
G01 X31.6007 Y21.6875 
G01 X31.7781 Y21.7779 
G01 X31.9392 Y21.8950 
G01 X32.0800 Y22.0358 
G01 X32.1971 Y22.1969 
G01 X32.2875 Y22.3743 
G01 X32.3490 Y22.5637 
G01 X32.3802 Y22.7604 
G00 Z1.0000 
G00 X28.5702 Y25.3004 
G01 Z0.0000 F127.00 
G01 X28.5702 Y25.4996 F254.00 
G01 X28.5390 Y25.6963 
G01 X28.4775 Y25.8857 
G01 X28.3871 Y26.0631 
G01 X28.2700 Y26.2242 
G01 X28.1292 Y26.3650 
G01 X27.9681 Y26.4821 
G01 X27.7907 Y26.5725 
G01 X27.6013 Y26.6340 
G01 X27.4046 Y26.6652 
G01 X27.2054 Y26.6652 
G01 X27.0087 Y26.6340 
G01 X26.8193 Y26.5725 
G01 X26.6419 Y26.4821 
G01 X26.4808 Y26.3650 
G01 X26.3400 Y26.2242 
G01 X26.2229 Y26.0631 
G01 X26.1325 Y25.8857 
G01 X26.0710 Y25.6963 
G01 X26.0398 Y25.4996 
G01 X26.0398 Y25.3004 
G01 X26.0710 Y25.1037 
G01 X26.1325 Y24.9143 
G01 X26.2229 Y24.7369 
G01 X26.3400 Y24.5758 
G01 X26.4808 Y24.4350 
G01 X26.6419 Y24.3179 
G01 X26.8193 Y24.2275 
G01 X27.0087 Y24.1660 
G01 X27.2054 Y24.1348 
G01 X27.4046 Y24.1348 
G01 X27.6013 Y24.1660 
G01 X27.7907 Y24.2275 
G01 X27.9681 Y24.3179 
G01 X28.1292 Y24.4350 
G01 X28.2700 Y24.5758 
G01 X28.3871 Y24.7369 
G01 X28.4775 Y24.9143 
G01 X28.5390 Y25.1037 
G01 X28.5702 Y25.3004 
G00 Z1.0000 
G00 X31.1102 Y25.3004 
G01 Z0.0000 F127.00 
G01 X31.1102 Y25.4996 F254.00 
G01 X31.0790 Y25.6963 
G01 X31.0175 Y25.8857 
G01 X30.9271 Y26.0631 
G01 X30.8100 Y26.2242 
G01 X30.6692 Y26.3650 
G01 X30.5081 Y26.4821 
G01 X30.3307 Y26.5725 
G01 X30.1413 Y26.6340 
G01 X29.9446 Y26.6652 
G01 X29.7454 Y26.6652 
G01 X29.5487 Y26.6340 
G01 X29.3593 Y26.5725 
G01 X29.1819 Y26.4821 
G01 X29.0208 Y26.3650 
G01 X28.8800 Y26.2242 
G01 X28.7629 Y26.0631 
G01 X28.6725 Y25.8857 
G01 X28.6110 Y25.6963 
G01 X28.5798 Y25.4996 
G01 X28.5798 Y25.3004 
G01 X28.6110 Y25.1037 
G01 X28.6725 Y24.9143 
G01 X28.7629 Y24.7369 
G01 X28.8800 Y24.5758 
G01 X29.0208 Y24.4350 
G01 X29.1819 Y24.3179 
G01 X29.3593 Y24.2275 
G01 X29.5487 Y24.1660 
G01 X29.7454 Y24.1348 
G01 X29.9446 Y24.1348 
G01 X30.1413 Y24.1660 
G01 X30.3307 Y24.2275 
G01 X30.5081 Y24.3179 
G01 X30.6692 Y24.4350 
G01 X30.8100 Y24.5758 
G01 X30.9271 Y24.7369 
G01 X31.0175 Y24.9143 
G01 X31.0790 Y25.1037 
G01 X31.1102 Y25.3004 
G00 Z1.0000 
G00 X31.1198 Y26.3826 
G01 Z0.0000 F127.00 
G01 X31.1198 Y24.4174 F254.00 
G01 X31.1420 Y24.3346 
G01 X31.1848 Y24.2604 
G01 X31.2454 Y24.1998 
G01 X31.3196 Y24.1570 
G01 X31.4024 Y24.1348 
G01 X33.3676 Y24.1348 
G01 X33.4504 Y24.1570 
G01 X33.5246 Y24.1998 
G01 X33.5852 Y24.2604 
G01 X33.6280 Y24.3346 
G01 X33.6502 Y24.4174 
G01 X33.6502 Y26.3826 
G01 X33.6280 Y26.4654 
G01 X33.5852 Y26.5396 
G01 X33.5246 Y26.6002 
G01 X33.4504 Y26.6430 
G01 X33.3676 Y26.6652 
G01 X31.4024 Y26.6652 
G01 X31.3196 Y26.6430 
G01 X31.2454 Y26.6002 
G01 X31.1848 Y26.5396 
G01 X31.1420 Y26.4654 
G01 X31.1198 Y26.3826 
G00 Z1.0000 
G00 X42.5402 Y22.7604 
G01 Z0.0000 F127.00 
G01 X42.5402 Y22.9596 F254.00 
G01 X42.5090 Y23.1563 
G01 X42.4475 Y23.3457 
G01 X42.3571 Y23.5231 
G01 X42.2400 Y23.6842 
G01 X42.0992 Y23.8250 
G01 X41.9381 Y23.9421 
G01 X41.7607 Y24.0325 
G01 X41.5713 Y24.0940 
G01 X41.3746 Y24.1252 
G01 X41.1754 Y24.1252 
G01 X40.9787 Y24.0940 
G01 X40.7893 Y24.0325 
G01 X40.6119 Y23.9421 
G01 X40.4508 Y23.8250 
G01 X40.3100 Y23.6842 
G01 X40.1929 Y23.5231 
G01 X40.1025 Y23.3457 
G01 X40.0410 Y23.1563 
G01 X40.0098 Y22.9596 
G01 X40.0098 Y22.7604 
G01 X40.0410 Y22.5637 
G01 X40.1025 Y22.3743 
G01 X40.1929 Y22.1969 
G01 X40.3100 Y22.0358 
G01 X40.4508 Y21.8950 
G01 X40.6119 Y21.7779 
G01 X40.7893 Y21.6875 
G01 X40.9787 Y21.6260 
G01 X41.1754 Y21.5948 
G01 X41.3746 Y21.5948 
G01 X41.5713 Y21.6260 
G01 X41.7607 Y21.6875 
G01 X41.9381 Y21.7779 
G01 X42.0992 Y21.8950 
G01 X42.2400 Y22.0358 
G01 X42.3571 Y22.1969 
G01 X42.4475 Y22.3743 
G01 X42.5090 Y22.5637 
G01 X42.5402 Y22.7604 
G00 Z1.0000 
G00 X43.8102 Y25.3004 
G01 Z0.0000 F127.00 
G01 X43.8102 Y25.4996 F254.00 
G01 X43.7790 Y25.6963 
G01 X43.7175 Y25.8857 
G01 X43.6271 Y26.0631 
G01 X43.5100 Y26.2242 
G01 X43.3692 Y26.3650 
G01 X43.2081 Y26.4821 
G01 X43.0307 Y26.5725 
G01 X42.8413 Y26.6340 
G01 X42.6446 Y26.6652 
G01 X42.4454 Y26.6652 
G01 X42.2487 Y26.6340 
G01 X42.0593 Y26.5725 
G01 X41.8819 Y26.4821 
G01 X41.7208 Y26.3650 
G01 X41.5800 Y26.2242 
G01 X41.4629 Y26.0631 
G01 X41.3725 Y25.8857 
G01 X41.3110 Y25.6963 
G01 X41.2798 Y25.4996 
G01 X41.2798 Y25.3004 
G01 X41.3110 Y25.1037 
G01 X41.3725 Y24.9143 
G01 X41.4629 Y24.7369 
G01 X41.5800 Y24.5758 
G01 X41.7208 Y24.4350 
G01 X41.8819 Y24.3179 
G01 X42.0593 Y24.2275 
G01 X42.2487 Y24.1660 
G01 X42.4454 Y24.1348 
G01 X42.6446 Y24.1348 
G01 X42.8413 Y24.1660 
G01 X43.0307 Y24.2275 
G01 X43.2081 Y24.3179 
G01 X43.3692 Y24.4350 
G01 X43.5100 Y24.5758 
G01 X43.6271 Y24.7369 
G01 X43.7175 Y24.9143 
G01 X43.7790 Y25.1037 
G01 X43.8102 Y25.3004 
G00 Z1.0000 
G00 X47.6202 Y22.7604 
G01 Z0.0000 F127.00 
G01 X47.6202 Y22.9596 F254.00 
G01 X47.5890 Y23.1563 
G01 X47.5275 Y23.3457 
G01 X47.4371 Y23.5231 
G01 X47.3200 Y23.6842 
G01 X47.1792 Y23.8250 
G01 X47.0181 Y23.9421 
G01 X46.8407 Y24.0325 
G01 X46.6513 Y24.0940 
G01 X46.4546 Y24.1252 
G01 X46.2554 Y24.1252 
G01 X46.0587 Y24.0940 
G01 X45.8693 Y24.0325 
G01 X45.6919 Y23.9421 
G01 X45.5308 Y23.8250 
G01 X45.3900 Y23.6842 
G01 X45.2729 Y23.5231 
G01 X45.1825 Y23.3457 
G01 X45.1210 Y23.1563 
G01 X45.0898 Y22.9596 
G01 X45.0898 Y22.7604 
G01 X45.1210 Y22.5637 
G01 X45.1825 Y22.3743 
G01 X45.2729 Y22.1969 
G01 X45.3900 Y22.0358 
G01 X45.5308 Y21.8950 
G01 X45.6919 Y21.7779 
G01 X45.8693 Y21.6875 
G01 X46.0587 Y21.6260 
G01 X46.2554 Y21.5948 
G01 X46.4546 Y21.5948 
G01 X46.6513 Y21.6260 
G01 X46.8407 Y21.6875 
G01 X47.0181 Y21.7779 
G01 X47.1792 Y21.8950 
G01 X47.3200 Y22.0358 
G01 X47.4371 Y22.1969 
G01 X47.5275 Y22.3743 
G01 X47.5890 Y22.5637 
G01 X47.6202 Y22.7604 
G00 Z1.0000 
G00 X50.1602 Y22.7604 
G01 Z0.0000 F127.00 
G01 X50.1602 Y22.9596 F254.00 
G01 X50.1290 Y23.1563 
G01 X50.0675 Y23.3457 
G01 X49.9771 Y23.5231 
G01 X49.8600 Y23.6842 
G01 X49.7192 Y23.8250 
G01 X49.5581 Y23.9421 
G01 X49.3807 Y24.0325 
G01 X49.1913 Y24.0940 
G01 X48.9946 Y24.1252 
G01 X48.7954 Y24.1252 
G01 X48.5987 Y24.0940 
G01 X48.4093 Y24.0325 
G01 X48.2319 Y23.9421 
G01 X48.0708 Y23.8250 
G01 X47.9300 Y23.6842 
G01 X47.8129 Y23.5231 
G01 X47.7225 Y23.3457 
G01 X47.6610 Y23.1563 
G01 X47.6298 Y22.9596 
G01 X47.6298 Y22.7604 
G01 X47.6610 Y22.5637 
G01 X47.7225 Y22.3743 
G01 X47.8129 Y22.1969 
G01 X47.9300 Y22.0358 
G01 X48.0708 Y21.8950 
G01 X48.2319 Y21.7779 
G01 X48.4093 Y21.6875 
G01 X48.5987 Y21.6260 
G01 X48.7954 Y21.5948 
G01 X48.9946 Y21.5948 
G01 X49.1913 Y21.6260 
G01 X49.3807 Y21.6875 
G01 X49.5581 Y21.7779 
G01 X49.7192 Y21.8950 
G01 X49.8600 Y22.0358 
G01 X49.9771 Y22.1969 
G01 X50.0675 Y22.3743 
G01 X50.1290 Y22.5637 
G01 X50.1602 Y22.7604 
G00 Z1.0000 
G00 X46.3502 Y25.3004 
G01 Z0.0000 F127.00 
G01 X46.3502 Y25.4996 F254.00 
G01 X46.3190 Y25.6963 
G01 X46.2575 Y25.8857 
G01 X46.1671 Y26.0631 
G01 X46.0500 Y26.2242 
G01 X45.9092 Y26.3650 
G01 X45.7481 Y26.4821 
G01 X45.5707 Y26.5725 
G01 X45.3813 Y26.6340 
G01 X45.1846 Y26.6652 
G01 X44.9854 Y26.6652 
G01 X44.7887 Y26.6340 
G01 X44.5993 Y26.5725 
G01 X44.4219 Y26.4821 
G01 X44.2608 Y26.3650 
G01 X44.1200 Y26.2242 
G01 X44.0029 Y26.0631 
G01 X43.9125 Y25.8857 
G01 X43.8510 Y25.6963 
G01 X43.8198 Y25.4996 
G01 X43.8198 Y25.3004 
G01 X43.8510 Y25.1037 
G01 X43.9125 Y24.9143 
G01 X44.0029 Y24.7369 
G01 X44.1200 Y24.5758 
G01 X44.2608 Y24.4350 
G01 X44.4219 Y24.3179 
G01 X44.5993 Y24.2275 
G01 X44.7887 Y24.1660 
G01 X44.9854 Y24.1348 
G01 X45.1846 Y24.1348 
G01 X45.3813 Y24.1660 
G01 X45.5707 Y24.2275 
G01 X45.7481 Y24.3179 
G01 X45.9092 Y24.4350 
G01 X46.0500 Y24.5758 
G01 X46.1671 Y24.7369 
G01 X46.2575 Y24.9143 
G01 X46.3190 Y25.1037 
G01 X46.3502 Y25.3004 
G00 Z1.0000 
G00 X48.8902 Y25.3004 
G01 Z0.0000 F127.00 
G01 X48.8902 Y25.4996 F254.00 
G01 X48.8590 Y25.6963 
G01 X48.7975 Y25.8857 
G01 X48.7071 Y26.0631 
G01 X48.5900 Y26.2242 
G01 X48.4492 Y26.3650 
G01 X48.2881 Y26.4821 
G01 X48.1107 Y26.5725 
G01 X47.9213 Y26.6340 
G01 X47.7246 Y26.6652 
G01 X47.5254 Y26.6652 
G01 X47.3287 Y26.6340 
G01 X47.1393 Y26.5725 
G01 X46.9619 Y26.4821 
G01 X46.8008 Y26.3650 
G01 X46.6600 Y26.2242 
G01 X46.5429 Y26.0631 
G01 X46.4525 Y25.8857 
G01 X46.3910 Y25.6963 
G01 X46.3598 Y25.4996 
G01 X46.3598 Y25.3004 
G01 X46.3910 Y25.1037 
G01 X46.4525 Y24.9143 
G01 X46.5429 Y24.7369 
G01 X46.6600 Y24.5758 
G01 X46.8008 Y24.4350 
G01 X46.9619 Y24.3179 
G01 X47.1393 Y24.2275 
G01 X47.3287 Y24.1660 
G01 X47.5254 Y24.1348 
G01 X47.7246 Y24.1348 
G01 X47.9213 Y24.1660 
G01 X48.1107 Y24.2275 
G01 X48.2881 Y24.3179 
G01 X48.4492 Y24.4350 
G01 X48.5900 Y24.5758 
G01 X48.7071 Y24.7369 
G01 X48.7975 Y24.9143 
G01 X48.8590 Y25.1037 
G01 X48.8902 Y25.3004 
G00 Z1.0000 
G00 X48.8998 Y26.3826 
G01 Z0.0000 F127.00 
G01 X48.8998 Y24.4174 F254.00 
G01 X48.9220 Y24.3346 
G01 X48.9648 Y24.2604 
G01 X49.0254 Y24.1998 
G01 X49.0996 Y24.1570 
G01 X49.1824 Y24.1348 
G01 X51.1476 Y24.1348 
G01 X51.2304 Y24.1570 
G01 X51.3046 Y24.1998 
G01 X51.3652 Y24.2604 
G01 X51.4080 Y24.3346 
G01 X51.4302 Y24.4174 
G01 X51.4302 Y26.3826 
G01 X51.4080 Y26.4654 
G01 X51.3652 Y26.5396 
G01 X51.3046 Y26.6002 
G01 X51.2304 Y26.6430 
G01 X51.1476 Y26.6652 
G01 X49.1824 Y26.6652 
G01 X49.0996 Y26.6430 
G01 X49.0254 Y26.6002 
G01 X48.9648 Y26.5396 
G01 X48.9220 Y26.4654 
G01 X48.8998 Y26.3826 
G00 Z1.0000 
G00 X60.3202 Y22.7604 
G01 Z0.0000 F127.00 
G01 X60.3202 Y22.9596 F254.00 
G01 X60.2890 Y23.1563 
G01 X60.2275 Y23.3457 
G01 X60.1371 Y23.5231 
G01 X60.0200 Y23.6842 
G01 X59.8792 Y23.8250 
G01 X59.7181 Y23.9421 
G01 X59.5407 Y24.0325 
G01 X59.3513 Y24.0940 
G01 X59.1546 Y24.1252 
G01 X58.9554 Y24.1252 
G01 X58.7587 Y24.0940 
G01 X58.5693 Y24.0325 
G01 X58.3919 Y23.9421 
G01 X58.2308 Y23.8250 
G01 X58.0900 Y23.6842 
G01 X57.9729 Y23.5231 
G01 X57.8825 Y23.3457 
G01 X57.8210 Y23.1563 
G01 X57.7898 Y22.9596 
G01 X57.7898 Y22.7604 
G01 X57.8210 Y22.5637 
G01 X57.8825 Y22.3743 
G01 X57.9729 Y22.1969 
G01 X58.0900 Y22.0358 
G01 X58.2308 Y21.8950 
G01 X58.3919 Y21.7779 
G01 X58.5693 Y21.6875 
G01 X58.7587 Y21.6260 
G01 X58.9554 Y21.5948 
G01 X59.1546 Y21.5948 
G01 X59.3513 Y21.6260 
G01 X59.5407 Y21.6875 
G01 X59.7181 Y21.7779 
G01 X59.8792 Y21.8950 
G01 X60.0200 Y22.0358 
G01 X60.1371 Y22.1969 
G01 X60.2275 Y22.3743 
G01 X60.2890 Y22.5637 
G01 X60.3202 Y22.7604 
G00 Z1.0000 
G00 X61.5902 Y25.3004 
G01 Z0.0000 F127.00 
G01 X61.5902 Y25.4996 F254.00 
G01 X61.5590 Y25.6963 
G01 X61.4975 Y25.8857 
G01 X61.4071 Y26.0631 
G01 X61.2900 Y26.2242 
G01 X61.1492 Y26.3650 
G01 X60.9881 Y26.4821 
G01 X60.8107 Y26.5725 
G01 X60.6213 Y26.6340 
G01 X60.4246 Y26.6652 
G01 X60.2254 Y26.6652 
G01 X60.0287 Y26.6340 
G01 X59.8393 Y26.5725 
G01 X59.6619 Y26.4821 
G01 X59.5008 Y26.3650 
G01 X59.3600 Y26.2242 
G01 X59.2429 Y26.0631 
G01 X59.1525 Y25.8857 
G01 X59.0910 Y25.6963 
G01 X59.0598 Y25.4996 
G01 X59.0598 Y25.3004 
G01 X59.0910 Y25.1037 
G01 X59.1525 Y24.9143 
G01 X59.2429 Y24.7369 
G01 X59.3600 Y24.5758 
G01 X59.5008 Y24.4350 
G01 X59.6619 Y24.3179 
G01 X59.8393 Y24.2275 
G01 X60.0287 Y24.1660 
G01 X60.2254 Y24.1348 
G01 X60.4246 Y24.1348 
G01 X60.6213 Y24.1660 
G01 X60.8107 Y24.2275 
G01 X60.9881 Y24.3179 
G01 X61.1492 Y24.4350 
G01 X61.2900 Y24.5758 
G01 X61.4071 Y24.7369 
G01 X61.4975 Y24.9143 
G01 X61.5590 Y25.1037 
G01 X61.5902 Y25.3004 
G00 Z1.0000 
G00 X62.8602 Y22.7604 
G01 Z0.0000 F127.00 
G01 X62.8602 Y22.9596 F254.00 
G01 X62.8290 Y23.1563 
G01 X62.7675 Y23.3457 
G01 X62.6771 Y23.5231 
G01 X62.5600 Y23.6842 
G01 X62.4192 Y23.8250 
G01 X62.2581 Y23.9421 
G01 X62.0807 Y24.0325 
G01 X61.8913 Y24.0940 
G01 X61.6946 Y24.1252 
G01 X61.4954 Y24.1252 
G01 X61.2987 Y24.0940 
G01 X61.1093 Y24.0325 
G01 X60.9319 Y23.9421 
G01 X60.7708 Y23.8250 
G01 X60.6300 Y23.6842 
G01 X60.5129 Y23.5231 
G01 X60.4225 Y23.3457 
G01 X60.3610 Y23.1563 
G01 X60.3298 Y22.9596 
G01 X60.3298 Y22.7604 
G01 X60.3610 Y22.5637 
G01 X60.4225 Y22.3743 
G01 X60.5129 Y22.1969 
G01 X60.6300 Y22.0358 
G01 X60.7708 Y21.8950 
G01 X60.8399 Y21.8447 
G01 X60.8370 Y21.8425 
G01 X60.7075 Y21.7130 
G01 X60.5998 Y21.5649 
G01 X60.5167 Y21.4017 
G01 X60.4601 Y21.2275 
G01 X60.4483 Y21.1534 
G01 X44.9617 Y21.1534 
G01 X44.9499 Y21.2275 
G01 X44.8933 Y21.4017 
G01 X44.8102 Y21.5649 
G01 X44.7025 Y21.7130 
G01 X44.5730 Y21.8425 
G01 X44.5701 Y21.8447 
G01 X44.6392 Y21.8950 
G01 X44.7800 Y22.0358 
G01 X44.8971 Y22.1969 
G01 X44.9875 Y22.3743 
G01 X45.0490 Y22.5637 
G01 X45.0802 Y22.7604 
G01 X45.0802 Y22.9596 
G01 X45.0490 Y23.1563 
G01 X44.9875 Y23.3457 
G01 X44.8971 Y23.5231 
G01 X44.7800 Y23.6842 
G01 X44.6392 Y23.8250 
G01 X44.4781 Y23.9421 
G01 X44.3007 Y24.0325 
G01 X44.1113 Y24.0940 
G01 X43.9146 Y24.1252 
G01 X43.7154 Y24.1252 
G01 X43.5187 Y24.0940 
G01 X43.3293 Y24.0325 
G01 X43.1519 Y23.9421 
G01 X42.9908 Y23.8250 
G01 X42.8500 Y23.6842 
G01 X42.7329 Y23.5231 
G01 X42.6425 Y23.3457 
G01 X42.5810 Y23.1563 
G01 X42.5498 Y22.9596 
G01 X42.5498 Y22.7604 
G01 X42.5810 Y22.5637 
G01 X42.6425 Y22.3743 
G01 X42.7329 Y22.1969 
G01 X42.8500 Y22.0358 
G01 X42.9908 Y21.8950 
G01 X43.0599 Y21.8447 
G01 X43.0570 Y21.8425 
G01 X42.9275 Y21.7130 
G01 X42.8198 Y21.5649 
G01 X42.7367 Y21.4017 
G01 X42.6801 Y21.2275 
G01 X42.6683 Y21.1534 
G01 X27.1817 Y21.1534 
G01 X27.1699 Y21.2275 
G01 X27.1133 Y21.4017 
G01 X27.0302 Y21.5649 
G01 X26.9225 Y21.7130 
G01 X26.7930 Y21.8425 
G01 X26.7901 Y21.8447 
G01 X26.8592 Y21.8950 
G01 X27.0000 Y22.0358 
G01 X27.1171 Y22.1969 
G01 X27.2075 Y22.3743 
G01 X27.2690 Y22.5637 
G01 X27.3002 Y22.7604 
G01 X27.3002 Y22.9596 
G01 X27.2690 Y23.1563 
G01 X27.2075 Y23.3457 
G01 X27.1171 Y23.5231 
G01 X27.0000 Y23.6842 
G01 X26.8592 Y23.8250 
G01 X26.6981 Y23.9421 
G01 X26.5207 Y24.0325 
G01 X26.3313 Y24.0940 
G01 X26.1346 Y24.1252 
G01 X25.9354 Y24.1252 
G01 X25.7387 Y24.0940 
G01 X25.5493 Y24.0325 
G01 X25.3719 Y23.9421 
G01 X25.2108 Y23.8250 
G01 X25.0700 Y23.6842 
G01 X24.9529 Y23.5231 
G01 X24.8625 Y23.3457 
G01 X24.8010 Y23.1563 
G01 X24.7698 Y22.9596 
G01 X24.7698 Y22.7604 
G01 X24.8010 Y22.5637 
G01 X24.8625 Y22.3743 
G01 X24.9529 Y22.1969 
G01 X25.0700 Y22.0358 
G01 X25.2108 Y21.8950 
G01 X25.2799 Y21.8447 
G01 X25.2770 Y21.8425 
G01 X25.1475 Y21.7130 
G01 X25.0398 Y21.5649 
G01 X24.9566 Y21.4017 
G01 X24.9001 Y21.2275 
G01 X24.8714 Y21.0466 
G01 X24.8714 Y20.8634 
G01 X24.9001 Y20.6825 
G01 X24.9566 Y20.5083 
G01 X25.0398 Y20.3451 
G01 X25.1475 Y20.1970 
G01 X25.2770 Y20.0675 
G01 X25.4251 Y19.9598 
G01 X25.5883 Y19.8767 
G01 X25.7625 Y19.8201 
G01 X25.9434 Y19.7914 
G01 X26.0200 Y19.7914 
G01 X26.1387 Y19.6727 
G01 X26.2752 Y19.5815 
G01 X26.4269 Y19.5186 
G01 X26.5879 Y19.4866 
G01 X43.2621 Y19.4866 
G01 X43.4231 Y19.5186 
G01 X43.5748 Y19.5815 
G01 X43.7113 Y19.6727 
G01 X43.8150 Y19.7764 
G01 X43.9187 Y19.6727 
G01 X44.0552 Y19.5815 
G01 X44.2069 Y19.5186 
G01 X44.3679 Y19.4866 
G01 X45.8951 Y19.4866 
G01 X45.7451 Y19.4102 
G01 X45.5970 Y19.3025 
G01 X45.4675 Y19.1730 
G01 X45.3598 Y19.0249 
G01 X45.2767 Y18.8617 
G01 X45.2201 Y18.6875 
G01 X45.2083 Y18.6134 
G01 X43.0979 Y18.6134 
G01 X42.9369 Y18.5814 
G01 X42.7852 Y18.5185 
G01 X42.6487 Y18.4273 
G01 X42.5327 Y18.3113 
G01 X41.2627 Y17.0413 
G01 X41.1715 Y16.9048 
G01 X41.1086 Y16.7531 
G01 X41.0766 Y16.5921 
G01 X41.0766 Y11.7752 
G01 X40.2948 Y10.9934 
G01 X29.7217 Y10.9934 
G01 X29.7099 Y11.0675 
G01 X29.6533 Y11.2417 
G01 X29.5702 Y11.4049 
G01 X29.4625 Y11.5530 
G01 X29.3330 Y11.6825 
G01 X29.1849 Y11.7902 
G01 X29.0217 Y11.8733 
G01 X28.8475 Y11.9299 
G01 X28.6666 Y11.9586 
G01 X28.4834 Y11.9586 
G01 X28.3025 Y11.9299 
G01 X28.1283 Y11.8733 
G01 X27.9651 Y11.7902 
G01 X27.8170 Y11.6825 
G01 X27.6875 Y11.5530 
G01 X27.5798 Y11.4049 
G01 X27.4967 Y11.2417 
G01 X27.4401 Y11.0675 
G01 X27.4114 Y10.8866 
G01 X27.4114 Y10.7034 
G01 X27.4401 Y10.5225 
G01 X27.4967 Y10.3483 
G01 X27.5798 Y10.1851 
G01 X27.6875 Y10.0370 
G01 X27.8170 Y9.9075 
G01 X27.9651 Y9.7998 
G01 X28.1283 Y9.7167 
G01 X28.3025 Y9.6601 
G01 X28.4834 Y9.6314 
G01 X28.5600 Y9.6314 
G01 X28.5627 Y9.6287 
G01 X28.6787 Y9.5127 
G01 X28.8152 Y9.4215 
G01 X28.9669 Y9.3586 
G01 X29.1279 Y9.3266 
G01 X40.7221 Y9.3266 
G01 X40.8831 Y9.3586 
G01 X41.0348 Y9.4215 
G01 X41.1713 Y9.5127 
G01 X42.4413 Y10.7827 
G01 X42.5573 Y10.8987 
G01 X42.6485 Y11.0352 
G01 X42.7114 Y11.1869 
G01 X42.7434 Y11.3479 
G01 X42.7434 Y16.1648 
G01 X43.5252 Y16.9466 
G01 X45.8021 Y16.9466 
G01 X45.9631 Y16.9786 
G01 X46.1148 Y17.0415 
G01 X46.2513 Y17.1327 
G01 X46.3550 Y17.2364 
G01 X46.4587 Y17.1327 
G01 X46.5952 Y17.0415 
G01 X46.7469 Y16.9786 
G01 X46.9079 Y16.9466 
G01 X63.5821 Y16.9466 
G01 X63.7431 Y16.9786 
G01 X63.8948 Y17.0415 
G01 X64.0313 Y17.1327 
G01 X64.1350 Y17.2364 
G01 X64.2387 Y17.1327 
G01 X64.3752 Y17.0415 
G01 X64.5269 Y16.9786 
G01 X64.6879 Y16.9466 
G01 X81.3621 Y16.9466 
G01 X81.5231 Y16.9786 
G01 X81.6748 Y17.0415 
G01 X81.8113 Y17.1327 
G01 X81.9150 Y17.2364 
G01 X82.0187 Y17.1327 
G01 X82.1552 Y17.0415 
G01 X82.3069 Y16.9786 
G01 X82.4679 Y16.9466 
G01 X99.1421 Y16.9466 
G01 X99.3031 Y16.9786 
G01 X99.4548 Y17.0415 
G01 X99.5913 Y17.1327 
G01 X99.7073 Y17.2487 
G01 X99.7100 Y17.2514 
G01 X99.7866 Y17.2514 
G01 X99.9675 Y17.2801 
G01 X100.1417 Y17.3367 
G01 X100.3049 Y17.4198 
G01 X100.4530 Y17.5275 
G01 X100.5825 Y17.6570 
G01 X100.6902 Y17.8051 
G01 X100.7733 Y17.9683 
G01 X100.8299 Y18.1425 
G01 X100.8586 Y18.3234 
G01 X100.8586 Y18.5066 
G01 X100.8299 Y18.6875 
G01 X100.7733 Y18.8617 
G01 X100.6902 Y19.0249 
G01 X100.5825 Y19.1730 
G01 X100.4530 Y19.3025 
G01 X100.3049 Y19.4102 
G01 X100.1417 Y19.4933 
G01 X99.9675 Y19.5499 
G01 X99.7866 Y19.5786 
G01 X99.6034 Y19.5786 
G01 X99.4225 Y19.5499 
G01 X99.2483 Y19.4933 
G01 X99.0851 Y19.4102 
G01 X98.9370 Y19.3025 
G01 X98.8075 Y19.1730 
G01 X98.6998 Y19.0249 
G01 X98.6167 Y18.8617 
G01 X98.5601 Y18.6875 
G01 X98.5483 Y18.6134 
G01 X83.0617 Y18.6134 
G01 X83.0499 Y18.6875 
G01 X82.9933 Y18.8617 
G01 X82.9102 Y19.0249 
G01 X82.8025 Y19.1730 
G01 X82.6730 Y19.3025 
G01 X82.5249 Y19.4102 
G01 X82.3749 Y19.4866 
G01 X96.6021 Y19.4866 
G01 X96.7631 Y19.5186 
G01 X96.9148 Y19.5815 
G01 X97.0513 Y19.6727 
G01 X97.1673 Y19.7887 
G01 X97.1700 Y19.7914 
G01 X97.2466 Y19.7914 
G01 X97.4275 Y19.8201 
G01 X97.6017 Y19.8767 
G01 X97.7649 Y19.9598 
G01 X97.9130 Y20.0675 
G01 X98.0425 Y20.1970 
G01 X98.1502 Y20.3451 
G01 X98.2333 Y20.5083 
G01 X98.2899 Y20.6825 
G01 X98.3186 Y20.8634 
G01 X98.3186 Y21.0466 
G01 X98.2899 Y21.2275 
G01 X98.2333 Y21.4017 
G01 X98.1502 Y21.5649 
G01 X98.0425 Y21.7130 
G01 X97.9130 Y21.8425 
G01 X97.9100 Y21.8447 
G01 X97.9792 Y21.8950 
G01 X98.1200 Y22.0358 
G01 X98.2371 Y22.1969 
G01 X98.3275 Y22.3743 
G01 X98.3890 Y22.5637 
G01 X98.4202 Y22.7604 
G01 X98.4202 Y22.9596 
G01 X98.3890 Y23.1563 
G01 X98.3275 Y23.3457 
G01 X98.2371 Y23.5231 
G01 X98.1200 Y23.6842 
G01 X97.9792 Y23.8250 
G01 X97.8181 Y23.9421 
G01 X97.6407 Y24.0325 
G01 X97.4513 Y24.0940 
G01 X97.2546 Y24.1252 
G01 X97.0554 Y24.1252 
G01 X96.8587 Y24.0940 
G01 X96.6693 Y24.0325 
G01 X96.4919 Y23.9421 
G01 X96.3308 Y23.8250 
G01 X96.1900 Y23.6842 
G01 X96.0729 Y23.5231 
G01 X95.9825 Y23.3457 
G01 X95.9210 Y23.1563 
G01 X95.8898 Y22.9596 
G01 X95.8898 Y22.7604 
G01 X95.9210 Y22.5637 
G01 X95.9825 Y22.3743 
G01 X96.0729 Y22.1969 
G01 X96.1900 Y22.0358 
G01 X96.3308 Y21.8950 
G01 X96.3999 Y21.8447 
G01 X96.3970 Y21.8425 
G01 X96.2675 Y21.7130 
G01 X96.1598 Y21.5649 
G01 X96.0767 Y21.4017 
G01 X96.0201 Y21.2275 
G01 X96.0083 Y21.1534 
G01 X80.5217 Y21.1534 
G01 X80.5099 Y21.2275 
G01 X80.4533 Y21.4017 
G01 X80.3702 Y21.5649 
G01 X80.2625 Y21.7130 
G01 X80.1330 Y21.8425 
G01 X80.1300 Y21.8447 
G01 X80.1992 Y21.8950 
G01 X80.3400 Y22.0358 
G01 X80.4571 Y22.1969 
G01 X80.5475 Y22.3743 
G01 X80.6090 Y22.5637 
G01 X80.6402 Y22.7604 
G01 X80.6402 Y22.9596 
G01 X80.6090 Y23.1563 
G01 X80.5475 Y23.3457 
G01 X80.4571 Y23.5231 
G01 X80.3400 Y23.6842 
G01 X80.1992 Y23.8250 
G01 X80.0381 Y23.9421 
G01 X79.8607 Y24.0325 
G01 X79.6713 Y24.0940 
G01 X79.4746 Y24.1252 
G01 X79.2754 Y24.1252 
G01 X79.0787 Y24.0940 
G01 X78.8893 Y24.0325 
G01 X78.7119 Y23.9421 
G01 X78.5508 Y23.8250 
G01 X78.4100 Y23.6842 
G01 X78.2929 Y23.5231 
G01 X78.2025 Y23.3457 
G01 X78.1410 Y23.1563 
G01 X78.1098 Y22.9596 
G01 X78.1098 Y22.7604 
G01 X78.1410 Y22.5637 
G01 X78.2025 Y22.3743 
G01 X78.2929 Y22.1969 
G01 X78.4100 Y22.0358 
G01 X78.5508 Y21.8950 
G01 X78.6199 Y21.8447 
G01 X78.6170 Y21.8425 
G01 X78.4875 Y21.7130 
G01 X78.3798 Y21.5649 
G01 X78.2966 Y21.4017 
G01 X78.2401 Y21.2275 
G01 X78.2283 Y21.1534 
G01 X62.7417 Y21.1534 
G01 X62.7299 Y21.2275 
G01 X62.6733 Y21.4017 
G01 X62.5902 Y21.5649 
G01 X62.4825 Y21.7130 
G01 X62.3530 Y21.8425 
G01 X62.3501 Y21.8447 
G01 X62.4192 Y21.8950 
G01 X62.5600 Y22.0358 
G01 X62.6771 Y22.1969 
G01 X62.7675 Y22.3743 
G01 X62.8290 Y22.5637 
G01 X62.8602 Y22.7604 
G00 Z1.0000 
G00 X65.4002 Y22.7604 
G01 Z0.0000 F127.00 
G01 X65.4002 Y22.9596 F254.00 
G01 X65.3690 Y23.1563 
G01 X65.3075 Y23.3457 
G01 X65.2171 Y23.5231 
G01 X65.1000 Y23.6842 
G01 X64.9592 Y23.8250 
G01 X64.7981 Y23.9421 
G01 X64.6207 Y24.0325 
G01 X64.4313 Y24.0940 
G01 X64.2346 Y24.1252 
G01 X64.0354 Y24.1252 
G01 X63.8387 Y24.0940 
G01 X63.6493 Y24.0325 
G01 X63.4719 Y23.9421 
G01 X63.3108 Y23.8250 
G01 X63.1700 Y23.6842 
G01 X63.0529 Y23.5231 
G01 X62.9625 Y23.3457 
G01 X62.9010 Y23.1563 
G01 X62.8698 Y22.9596 
G01 X62.8698 Y22.7604 
G01 X62.9010 Y22.5637 
G01 X62.9625 Y22.3743 
G01 X63.0529 Y22.1969 
G01 X63.1700 Y22.0358 
G01 X63.3108 Y21.8950 
G01 X63.4719 Y21.7779 
G01 X63.6493 Y21.6875 
G01 X63.8387 Y21.6260 
G01 X64.0354 Y21.5948 
G01 X64.2346 Y21.5948 
G01 X64.4313 Y21.6260 
G01 X64.6207 Y21.6875 
G01 X64.7981 Y21.7779 
G01 X64.9592 Y21.8950 
G01 X65.1000 Y22.0358 
G01 X65.2171 Y22.1969 
G01 X65.3075 Y22.3743 
G01 X65.3690 Y22.5637 
G01 X65.4002 Y22.7604 
G00 Z1.0000 
G00 X67.9402 Y22.7604 
G01 Z0.0000 F127.00 
G01 X67.9402 Y22.9596 F254.00 
G01 X67.9090 Y23.1563 
G01 X67.8475 Y23.3457 
G01 X67.7571 Y23.5231 
G01 X67.6400 Y23.6842 
G01 X67.4992 Y23.8250 
G01 X67.3381 Y23.9421 
G01 X67.1607 Y24.0325 
G01 X66.9713 Y24.0940 
G01 X66.7746 Y24.1252 
G01 X66.5754 Y24.1252 
G01 X66.3787 Y24.0940 
G01 X66.1893 Y24.0325 
G01 X66.0119 Y23.9421 
G01 X65.8508 Y23.8250 
G01 X65.7100 Y23.6842 
G01 X65.5929 Y23.5231 
G01 X65.5025 Y23.3457 
G01 X65.4410 Y23.1563 
G01 X65.4098 Y22.9596 
G01 X65.4098 Y22.7604 
G01 X65.4410 Y22.5637 
G01 X65.5025 Y22.3743 
G01 X65.5929 Y22.1969 
G01 X65.7100 Y22.0358 
G01 X65.8508 Y21.8950 
G01 X66.0119 Y21.7779 
G01 X66.1893 Y21.6875 
G01 X66.3787 Y21.6260 
G01 X66.5754 Y21.5948 
G01 X66.7746 Y21.5948 
G01 X66.9713 Y21.6260 
G01 X67.1607 Y21.6875 
G01 X67.3381 Y21.7779 
G01 X67.4992 Y21.8950 
G01 X67.6400 Y22.0358 
G01 X67.7571 Y22.1969 
G01 X67.8475 Y22.3743 
G01 X67.9090 Y22.5637 
G01 X67.9402 Y22.7604 
G00 Z1.0000 
G00 X64.1302 Y25.3004 
G01 Z0.0000 F127.00 
G01 X64.1302 Y25.4996 F254.00 
G01 X64.0990 Y25.6963 
G01 X64.0375 Y25.8857 
G01 X63.9471 Y26.0631 
G01 X63.8300 Y26.2242 
G01 X63.6892 Y26.3650 
G01 X63.5281 Y26.4821 
G01 X63.3507 Y26.5725 
G01 X63.1613 Y26.6340 
G01 X62.9646 Y26.6652 
G01 X62.7654 Y26.6652 
G01 X62.5687 Y26.6340 
G01 X62.3793 Y26.5725 
G01 X62.2019 Y26.4821 
G01 X62.0408 Y26.3650 
G01 X61.9000 Y26.2242 
G01 X61.7829 Y26.0631 
G01 X61.6925 Y25.8857 
G01 X61.6310 Y25.6963 
G01 X61.5998 Y25.4996 
G01 X61.5998 Y25.3004 
G01 X61.6310 Y25.1037 
G01 X61.6925 Y24.9143 
G01 X61.7829 Y24.7369 
G01 X61.9000 Y24.5758 
G01 X62.0408 Y24.4350 
G01 X62.2019 Y24.3179 
G01 X62.3793 Y24.2275 
G01 X62.5687 Y24.1660 
G01 X62.7654 Y24.1348 
G01 X62.9646 Y24.1348 
G01 X63.1613 Y24.1660 
G01 X63.3507 Y24.2275 
G01 X63.5281 Y24.3179 
G01 X63.6892 Y24.4350 
G01 X63.8300 Y24.5758 
G01 X63.9471 Y24.7369 
G01 X64.0375 Y24.9143 
G01 X64.0990 Y25.1037 
G01 X64.1302 Y25.3004 
G00 Z1.0000 
G00 X66.6702 Y25.3004 
G01 Z0.0000 F127.00 
G01 X66.6702 Y25.4996 F254.00 
G01 X66.6390 Y25.6963 
G01 X66.5775 Y25.8857 
G01 X66.4871 Y26.0631 
G01 X66.3700 Y26.2242 
G01 X66.2292 Y26.3650 
G01 X66.0681 Y26.4821 
G01 X65.8907 Y26.5725 
G01 X65.7013 Y26.6340 
G01 X65.5046 Y26.6652 
G01 X65.3054 Y26.6652 
G01 X65.1087 Y26.6340 
G01 X64.9193 Y26.5725 
G01 X64.7419 Y26.4821 
G01 X64.5808 Y26.3650 
G01 X64.4400 Y26.2242 
G01 X64.3229 Y26.0631 
G01 X64.2325 Y25.8857 
G01 X64.1710 Y25.6963 
G01 X64.1398 Y25.4996 
G01 X64.1398 Y25.3004 
G01 X64.1710 Y25.1037 
G01 X64.2325 Y24.9143 
G01 X64.3229 Y24.7369 
G01 X64.4400 Y24.5758 
G01 X64.5808 Y24.4350 
G01 X64.7419 Y24.3179 
G01 X64.9193 Y24.2275 
G01 X65.1087 Y24.1660 
G01 X65.3054 Y24.1348 
G01 X65.5046 Y24.1348 
G01 X65.7013 Y24.1660 
G01 X65.8907 Y24.2275 
G01 X66.0681 Y24.3179 
G01 X66.2292 Y24.4350 
G01 X66.3700 Y24.5758 
G01 X66.4871 Y24.7369 
G01 X66.5775 Y24.9143 
G01 X66.6390 Y25.1037 
G01 X66.6702 Y25.3004 
G00 Z1.0000 
G00 X66.6798 Y26.3826 
G01 Z0.0000 F127.00 
G01 X66.6798 Y24.4174 F254.00 
G01 X66.7020 Y24.3346 
G01 X66.7448 Y24.2604 
G01 X66.8054 Y24.1998 
G01 X66.8796 Y24.1570 
G01 X66.9624 Y24.1348 
G01 X68.9276 Y24.1348 
G01 X69.0104 Y24.1570 
G01 X69.0846 Y24.1998 
G01 X69.1452 Y24.2604 
G01 X69.1880 Y24.3346 
G01 X69.2102 Y24.4174 
G01 X69.2102 Y26.3826 
G01 X69.1880 Y26.4654 
G01 X69.1452 Y26.5396 
G01 X69.0846 Y26.6002 
G01 X69.0104 Y26.6430 
G01 X68.9276 Y26.6652 
G01 X66.9624 Y26.6652 
G01 X66.8796 Y26.6430 
G01 X66.8054 Y26.6002 
G01 X66.7448 Y26.5396 
G01 X66.7020 Y26.4654 
G01 X66.6798 Y26.3826 
G00 Z1.0000 
G00 X80.9306 Y19.2558 
G01 Z0.0000 F127.00 
G01 X80.8112 Y19.0914 F254.00 
G01 X80.7190 Y18.9104 
G01 X80.6637 Y18.7404 
G01 X65.3863 Y18.7404 
G01 X65.3310 Y18.9104 
G01 X65.2388 Y19.0914 
G01 X65.1194 Y19.2558 
G01 X65.0156 Y19.3596 
G01 X78.8346 Y19.3596 
G01 X79.0201 Y19.3965 
G01 X79.1949 Y19.4689 
G01 X79.3522 Y19.5740 
G01 X79.3750 Y19.5968 
G01 X79.3978 Y19.5740 
G01 X79.5551 Y19.4689 
G01 X79.7299 Y19.3965 
G01 X79.9154 Y19.3596 
G01 X81.0344 Y19.3596 
G01 X80.9306 Y19.2558 
G00 Z1.0000 
G00 X63.1506 Y19.2558 
G01 Z0.0000 F127.00 
G01 X63.0312 Y19.0914 F254.00 
G01 X62.9390 Y18.9104 
G01 X62.8837 Y18.7404 
G01 X47.6063 Y18.7404 
G01 X47.5510 Y18.9104 
G01 X47.4588 Y19.0914 
G01 X47.3394 Y19.2558 
G01 X47.2356 Y19.3596 
G01 X61.0546 Y19.3596 
G01 X61.2401 Y19.3965 
G01 X61.4149 Y19.4689 
G01 X61.5722 Y19.5740 
G01 X61.5950 Y19.5968 
G01 X61.6178 Y19.5740 
G01 X61.7751 Y19.4689 
G01 X61.9499 Y19.3965 
G01 X62.1354 Y19.3596 
G01 X63.2544 Y19.3596 
G01 X63.1506 Y19.2558 
G00 Z1.0000 
G00 X114.2444 Y22.3570 
G01 Z0.0000 F127.00 
G01 X114.2444 Y23.3630 F254.00 
G01 X113.5330 Y24.0744 
G01 X112.5270 Y24.0744 
G01 X111.8156 Y23.3630 
G01 X111.8156 Y22.3570 
G01 X112.5270 Y21.6456 
G01 X113.5330 Y21.6456 
G01 X114.2444 Y22.3570 
G00 Z1.0000 
G00 X114.2444 Y24.8970 
G01 Z0.0000 F127.00 
G01 X114.2444 Y25.9030 F254.00 
G01 X113.5330 Y26.6144 
G01 X112.5270 Y26.6144 
G01 X111.8156 Y25.9030 
G01 X111.8156 Y24.8970 
G01 X112.5270 Y24.1856 
G01 X113.5330 Y24.1856 
G01 X114.2444 Y24.8970 
G00 Z1.0000 
G00 X116.7844 Y22.3570 
G01 Z0.0000 F127.00 
G01 X116.7844 Y23.3630 F254.00 
G01 X116.0730 Y24.0744 
G01 X115.0670 Y24.0744 
G01 X114.3556 Y23.3630 
G01 X114.3556 Y22.3570 
G01 X115.0670 Y21.6456 
G01 X116.0730 Y21.6456 
G01 X116.7844 Y22.3570 
G00 Z1.0000 
G00 X116.7844 Y24.8970 
G01 Z0.0000 F127.00 
G01 X116.7844 Y25.9030 F254.00 
G01 X116.0730 Y26.6144 
G01 X115.0670 Y26.6144 
G01 X114.3556 Y25.9030 
G01 X114.3556 Y24.8970 
G01 X115.0670 Y24.1856 
G01 X116.0730 Y24.1856 
G01 X116.7844 Y24.8970 
G00 Z1.0000 
G00 X119.3244 Y22.3570 
G01 Z0.0000 F127.00 
G01 X119.3244 Y23.3630 F254.00 
G01 X118.6130 Y24.0744 
G01 X117.6070 Y24.0744 
G01 X116.8956 Y23.3630 
G01 X116.8956 Y22.3570 
G01 X117.6070 Y21.6456 
G01 X118.6130 Y21.6456 
G01 X119.3244 Y22.3570 
G00 Z1.0000 
G00 X119.3244 Y24.8970 
G01 Z0.0000 F127.00 
G01 X119.3244 Y25.9030 F254.00 
G01 X118.6130 Y26.6144 
G01 X117.6070 Y26.6144 
G01 X116.8956 Y25.9030 
G01 X116.8956 Y24.8970 
G01 X117.6070 Y24.1856 
G01 X118.6130 Y24.1856 
G01 X119.3244 Y24.8970 
G00 Z1.0000 
G00 X121.8644 Y22.3570 
G01 Z0.0000 F127.00 
G01 X121.8644 Y23.3630 F254.00 
G01 X121.1530 Y24.0744 
G01 X120.1470 Y24.0744 
G01 X119.4356 Y23.3630 
G01 X119.4356 Y22.3570 
G01 X120.1470 Y21.6456 
G01 X121.1530 Y21.6456 
G01 X121.8644 Y22.3570 
G00 Z1.0000 
G00 X121.8644 Y24.8970 
G01 Z0.0000 F127.00 
G01 X121.8644 Y25.9030 F254.00 
G01 X121.1530 Y26.6144 
G01 X120.1470 Y26.6144 
G01 X119.4356 Y25.9030 
G01 X119.4356 Y24.8970 
G01 X120.1470 Y24.1856 
G01 X121.1530 Y24.1856 
G01 X121.8644 Y24.8970 
G00 Z1.0000 
G00 X124.4044 Y22.3570 
G01 Z0.0000 F127.00 
G01 X124.4044 Y23.3630 F254.00 
G01 X123.6930 Y24.0744 
G01 X122.6870 Y24.0744 
G01 X121.9756 Y23.3630 
G01 X121.9756 Y22.3570 
G01 X122.6870 Y21.6456 
G01 X123.6930 Y21.6456 
G01 X124.4044 Y22.3570 
G00 Z1.0000 
G00 X124.4044 Y24.8970 
G01 Z0.0000 F127.00 
G01 X124.4044 Y25.9030 F254.00 
G01 X123.6930 Y26.6144 
G01 X122.6870 Y26.6144 
G01 X121.9756 Y25.9030 
G01 X121.9756 Y24.8970 
G01 X122.6870 Y24.1856 
G01 X123.6930 Y24.1856 
G01 X124.4044 Y24.8970 
G00 Z1.0000 
G00 X5.0244 Y22.3570 
G01 Z0.0000 F127.00 
G01 X5.0244 Y23.3630 F254.00 
G01 X4.3130 Y24.0744 
G01 X3.3070 Y24.0744 
G01 X2.5956 Y23.3630 
G01 X2.5956 Y22.3570 
G01 X3.3070 Y21.6456 
G01 X4.3130 Y21.6456 
G01 X5.0244 Y22.3570 
G00 Z1.0000 
G00 X5.0244 Y24.8970 
G01 Z0.0000 F127.00 
G01 X5.0244 Y25.9030 F254.00 
G01 X4.3130 Y26.6144 
G01 X3.3070 Y26.6144 
G01 X2.5956 Y25.9030 
G01 X2.5956 Y24.8970 
G01 X3.3070 Y24.1856 
G01 X4.3130 Y24.1856 
G01 X5.0244 Y24.8970 
G00 Z1.0000 
G00 X7.5644 Y22.3570 
G01 Z0.0000 F127.00 
G01 X7.5644 Y23.3630 F254.00 
G01 X6.8530 Y24.0744 
G01 X5.8470 Y24.0744 
G01 X5.1356 Y23.3630 
G01 X5.1356 Y22.3570 
G01 X5.8470 Y21.6456 
G01 X6.8530 Y21.6456 
G01 X7.5644 Y22.3570 
G00 Z1.0000 
G00 X7.5644 Y24.8970 
G01 Z0.0000 F127.00 
G01 X7.5644 Y25.9030 F254.00 
G01 X6.8530 Y26.6144 
G01 X5.8470 Y26.6144 
G01 X5.1356 Y25.9030 
G01 X5.1356 Y24.8970 
G01 X5.8470 Y24.1856 
G01 X6.8530 Y24.1856 
G01 X7.5644 Y24.8970 
G00 Z1.0000 
G00 X10.1044 Y22.3570 
G01 Z0.0000 F127.00 
G01 X10.1044 Y23.3630 F254.00 
G01 X9.3930 Y24.0744 
G01 X8.3870 Y24.0744 
G01 X7.6756 Y23.3630 
G01 X7.6756 Y22.3570 
G01 X8.3870 Y21.6456 
G01 X9.3930 Y21.6456 
G01 X10.1044 Y22.3570 
G00 Z1.0000 
G00 X10.1044 Y24.8970 
G01 Z0.0000 F127.00 
G01 X10.1044 Y25.9030 F254.00 
G01 X9.3930 Y26.6144 
G01 X8.3870 Y26.6144 
G01 X7.6756 Y25.9030 
G01 X7.6756 Y24.8970 
G01 X8.3870 Y24.1856 
G01 X9.3930 Y24.1856 
G01 X10.1044 Y24.8970 
G00 Z1.0000 
G00 X12.6444 Y22.3570 
G01 Z0.0000 F127.00 
G01 X12.6444 Y23.3630 F254.00 
G01 X11.9330 Y24.0744 
G01 X10.9270 Y24.0744 
G01 X10.2156 Y23.3630 
G01 X10.2156 Y22.3570 
G01 X10.9270 Y21.6456 
G01 X11.9330 Y21.6456 
G01 X12.6444 Y22.3570 
G00 Z1.0000 
G00 X12.6444 Y24.8970 
G01 Z0.0000 F127.00 
G01 X12.6444 Y25.9030 F254.00 
G01 X11.9330 Y26.6144 
G01 X10.9270 Y26.6144 
G01 X10.2156 Y25.9030 
G01 X10.2156 Y24.8970 
G01 X10.9270 Y24.1856 
G01 X11.9330 Y24.1856 
G01 X12.6444 Y24.8970 
G00 Z1.0000 
G00 X15.1844 Y22.3570 
G01 Z0.0000 F127.00 
G01 X15.1844 Y23.3630 F254.00 
G01 X14.4730 Y24.0744 
G01 X13.4670 Y24.0744 
G01 X12.7556 Y23.3630 
G01 X12.7556 Y22.3570 
G01 X13.4670 Y21.6456 
G01 X14.4730 Y21.6456 
G01 X15.1844 Y22.3570 
G00 Z1.0000 
G00 X15.1844 Y24.8970 
G01 Z0.0000 F127.00 
G01 X15.1844 Y25.9030 F254.00 
G01 X14.4730 Y26.6144 
G01 X13.4670 Y26.6144 
G01 X12.7556 Y25.9030 
G01 X12.7556 Y24.8970 
G01 X13.4670 Y24.1856 
G01 X14.4730 Y24.1856 
G01 X15.1844 Y24.8970 
G00 Z1.0000 
G00 X42.4657 Y23.5897 
G01 Z0.0000 F127.00 
G01 X42.3369 Y23.7670 F254.00 
G01 X42.1820 Y23.9219 
G01 X42.0047 Y24.0507 
G01 X41.8094 Y24.1502 
G01 X41.6010 Y24.2179 
G01 X41.3846 Y24.2522 
G01 X41.1654 Y24.2522 
G01 X40.9490 Y24.2179 
G01 X40.7406 Y24.1502 
G01 X40.5453 Y24.0507 
G01 X40.3680 Y23.9219 
G01 X40.2131 Y23.7670 
G01 X40.0843 Y23.5897 
G01 X39.9848 Y23.3944 
G01 X39.9171 Y23.1860 
G01 X39.8828 Y22.9696 
G01 X39.8828 Y22.7504 
G01 X39.9171 Y22.5340 
G01 X39.9848 Y22.3256 
G01 X40.0843 Y22.1303 
G01 X40.2131 Y21.9530 
G01 X40.3680 Y21.7981 
G01 X40.5453 Y21.6693 
G01 X40.7406 Y21.5698 
G01 X40.9490 Y21.5021 
G01 X41.1654 Y21.4678 
G01 X41.3846 Y21.4678 
G01 X41.6010 Y21.5021 
G01 X41.8094 Y21.5698 
G01 X42.0047 Y21.6693 
G01 X42.1820 Y21.7981 
G01 X42.3369 Y21.9530 
G01 X42.4657 Y22.1303 
G01 X42.5450 Y22.2859 
G01 X42.6243 Y22.1303 
G01 X42.7531 Y21.9530 
G01 X42.8705 Y21.8357 
G01 X42.8306 Y21.7958 
G01 X42.7112 Y21.6314 
G01 X42.6190 Y21.4504 
G01 X42.5637 Y21.2804 
G01 X27.2863 Y21.2804 
G01 X27.2310 Y21.4504 
G01 X27.1388 Y21.6314 
G01 X27.0194 Y21.7958 
G01 X26.9795 Y21.8357 
G01 X27.0969 Y21.9530 
G01 X27.2257 Y22.1303 
G01 X27.3050 Y22.2859 
G01 X27.3843 Y22.1303 
G01 X27.5131 Y21.9530 
G01 X27.6680 Y21.7981 
G01 X27.8453 Y21.6693 
G01 X28.0406 Y21.5698 
G01 X28.2490 Y21.5021 
G01 X28.4654 Y21.4678 
G01 X28.6846 Y21.4678 
G01 X28.9010 Y21.5021 
G01 X29.1094 Y21.5698 
G01 X29.3047 Y21.6693 
G01 X29.4820 Y21.7981 
G01 X29.6369 Y21.9530 
G01 X29.7657 Y22.1303 
G01 X29.8450 Y22.2859 
G01 X29.9243 Y22.1303 
G01 X30.0531 Y21.9530 
G01 X30.2080 Y21.7981 
G01 X30.3853 Y21.6693 
G01 X30.5806 Y21.5698 
G01 X30.7890 Y21.5021 
G01 X31.0054 Y21.4678 
G01 X31.2246 Y21.4678 
G01 X31.4410 Y21.5021 
G01 X31.6494 Y21.5698 
G01 X31.8447 Y21.6693 
G01 X32.0220 Y21.7981 
G01 X32.1769 Y21.9530 
G01 X32.3057 Y22.1303 
G01 X32.4052 Y22.3256 
G01 X32.4729 Y22.5340 
G01 X32.5072 Y22.7504 
G01 X32.5072 Y22.9696 
G01 X32.4729 Y23.1860 
G01 X32.4052 Y23.3944 
G01 X32.3057 Y23.5897 
G01 X32.1769 Y23.7670 
G01 X32.0220 Y23.9219 
G01 X31.9037 Y24.0078 
G01 X33.3844 Y24.0078 
G01 X33.4994 Y24.0386 
G01 X33.6026 Y24.0982 
G01 X33.6868 Y24.1824 
G01 X33.7464 Y24.2856 
G01 X33.7772 Y24.4006 
G01 X33.7772 Y26.3994 
G01 X33.7464 Y26.5144 
G01 X33.6868 Y26.6176 
G01 X33.6026 Y26.7018 
G01 X33.4994 Y26.7614 
G01 X33.3844 Y26.7922 
G01 X31.3856 Y26.7922 
G01 X31.2706 Y26.7614 
G01 X31.1674 Y26.7018 
G01 X31.0832 Y26.6176 
G01 X31.0236 Y26.5144 
G01 X30.9928 Y26.3994 
G01 X30.9928 Y26.1887 
G01 X30.9069 Y26.3070 
G01 X30.7520 Y26.4619 
G01 X30.5747 Y26.5907 
G01 X30.3794 Y26.6902 
G01 X30.1710 Y26.7579 
G01 X29.9546 Y26.7922 
G01 X29.7354 Y26.7922 
G01 X29.5190 Y26.7579 
G01 X29.3106 Y26.6902 
G01 X29.1153 Y26.5907 
G01 X28.9380 Y26.4619 
G01 X28.7831 Y26.3070 
G01 X28.6543 Y26.1297 
G01 X28.5750 Y25.9741 
G01 X28.4957 Y26.1297 
G01 X28.3669 Y26.3070 
G01 X28.2120 Y26.4619 
G01 X28.0347 Y26.5907 
G01 X27.8394 Y26.6902 
G01 X27.6310 Y26.7579 
G01 X27.4146 Y26.7922 
G01 X27.1954 Y26.7922 
G01 X26.9790 Y26.7579 
G01 X26.7706 Y26.6902 
G01 X26.5753 Y26.5907 
G01 X26.3980 Y26.4619 
G01 X26.2431 Y26.3070 
G01 X26.1143 Y26.1297 
G01 X26.0350 Y25.9741 
G01 X25.9557 Y26.1297 
G01 X25.8269 Y26.3070 
G01 X25.6720 Y26.4619 
G01 X25.4947 Y26.5907 
G01 X25.2994 Y26.6902 
G01 X25.0910 Y26.7579 
G01 X24.8746 Y26.7922 
G01 X24.6554 Y26.7922 
G01 X24.4390 Y26.7579 
G01 X24.2306 Y26.6902 
G01 X24.0353 Y26.5907 
G01 X23.8580 Y26.4619 
G01 X23.7031 Y26.3070 
G01 X23.5743 Y26.1297 
G01 X23.4748 Y25.9344 
G01 X23.4071 Y25.7260 
G01 X23.3728 Y25.5096 
G01 X23.3728 Y25.2904 
G01 X23.4071 Y25.0740 
G01 X23.4748 Y24.8656 
G01 X23.5743 Y24.6703 
G01 X23.7031 Y24.4930 
G01 X23.8580 Y24.3381 
G01 X24.0353 Y24.2093 
G01 X24.2306 Y24.1098 
G01 X24.4390 Y24.0421 
G01 X24.6554 Y24.0078 
G01 X24.8746 Y24.0078 
G01 X25.0910 Y24.0421 
G01 X25.2994 Y24.1098 
G01 X25.4947 Y24.2093 
G01 X25.6720 Y24.3381 
G01 X25.8269 Y24.4930 
G01 X25.9557 Y24.6703 
G01 X26.0350 Y24.8259 
G01 X26.1143 Y24.6703 
G01 X26.2431 Y24.4930 
G01 X26.3980 Y24.3381 
G01 X26.5753 Y24.2093 
G01 X26.7706 Y24.1098 
G01 X26.9790 Y24.0421 
G01 X27.1954 Y24.0078 
G01 X27.4146 Y24.0078 
G01 X27.6310 Y24.0421 
G01 X27.8394 Y24.1098 
G01 X28.0347 Y24.2093 
G01 X28.2120 Y24.3381 
G01 X28.3669 Y24.4930 
G01 X28.4957 Y24.6703 
G01 X28.5750 Y24.8259 
G01 X28.6543 Y24.6703 
G01 X28.7831 Y24.4930 
G01 X28.9380 Y24.3381 
G01 X29.1153 Y24.2093 
G01 X29.3106 Y24.1098 
G01 X29.5190 Y24.0421 
G01 X29.7354 Y24.0078 
G01 X29.9546 Y24.0078 
G01 X30.1710 Y24.0421 
G01 X30.3794 Y24.1098 
G01 X30.5747 Y24.2093 
G01 X30.7520 Y24.3381 
G01 X30.9069 Y24.4930 
G01 X30.9928 Y24.6113 
G01 X30.9928 Y24.4006 
G01 X31.0236 Y24.2856 
G01 X31.0429 Y24.2522 
G01 X31.0054 Y24.2522 
G01 X30.7890 Y24.2179 
G01 X30.5806 Y24.1502 
G01 X30.3853 Y24.0507 
G01 X30.2080 Y23.9219 
G01 X30.0531 Y23.7670 
G01 X29.9243 Y23.5897 
G01 X29.8450 Y23.4341 
G01 X29.7657 Y23.5897 
G01 X29.6369 Y23.7670 
G01 X29.4820 Y23.9219 
G01 X29.3047 Y24.0507 
G01 X29.1094 Y24.1502 
G01 X28.9010 Y24.2179 
G01 X28.6846 Y24.2522 
G01 X28.4654 Y24.2522 
G01 X28.2490 Y24.2179 
G01 X28.0406 Y24.1502 
G01 X27.8453 Y24.0507 
G01 X27.6680 Y23.9219 
G01 X27.5131 Y23.7670 
G01 X27.3843 Y23.5897 
G01 X27.3050 Y23.4341 
G01 X27.2257 Y23.5897 
G01 X27.0969 Y23.7670 
G01 X26.9420 Y23.9219 
G01 X26.7647 Y24.0507 
G01 X26.5694 Y24.1502 
G01 X26.3610 Y24.2179 
G01 X26.1446 Y24.2522 
G01 X25.9254 Y24.2522 
G01 X25.7090 Y24.2179 
G01 X25.5006 Y24.1502 
G01 X25.3053 Y24.0507 
G01 X25.1280 Y23.9219 
G01 X24.9731 Y23.7670 
G01 X24.8443 Y23.5897 
G01 X24.7650 Y23.4341 
G01 X24.6857 Y23.5897 
G01 X24.5569 Y23.7670 
G01 X24.4020 Y23.9219 
G01 X24.2247 Y24.0507 
G01 X24.0294 Y24.1502 
G01 X23.8210 Y24.2179 
G01 X23.6046 Y24.2522 
G01 X23.3854 Y24.2522 
G01 X23.1690 Y24.2179 
G01 X22.9606 Y24.1502 
G01 X22.7653 Y24.0507 
G01 X22.5880 Y23.9219 
G01 X22.4331 Y23.7670 
G01 X22.3043 Y23.5897 
G01 X22.2048 Y23.3944 
G01 X22.1371 Y23.1860 
G01 X22.1028 Y22.9696 
G01 X22.1028 Y22.7504 
G01 X22.1371 Y22.5340 
G01 X22.2048 Y22.3256 
G01 X22.3043 Y22.1303 
G01 X22.4331 Y21.9530 
G01 X22.5880 Y21.7981 
G01 X22.7653 Y21.6693 
G01 X22.9606 Y21.5698 
G01 X23.1690 Y21.5021 
G01 X23.3854 Y21.4678 
G01 X23.6046 Y21.4678 
G01 X23.8210 Y21.5021 
G01 X24.0294 Y21.5698 
G01 X24.2247 Y21.6693 
G01 X24.4020 Y21.7981 
G01 X24.5569 Y21.9530 
G01 X24.6857 Y22.1303 
G01 X24.7650 Y22.2859 
G01 X24.8443 Y22.1303 
G01 X24.9731 Y21.9530 
G01 X25.0905 Y21.8357 
G01 X25.0506 Y21.7958 
G01 X24.9312 Y21.6314 
G01 X24.8390 Y21.4504 
G01 X24.7762 Y21.2572 
G01 X24.7444 Y21.0566 
G01 X24.7444 Y20.8534 
G01 X24.7762 Y20.6528 
G01 X24.8390 Y20.4596 
G01 X24.9312 Y20.2786 
G01 X25.0506 Y20.1142 
G01 X25.1942 Y19.9706 
G01 X25.3586 Y19.8512 
G01 X25.5396 Y19.7590 
G01 X25.7328 Y19.6962 
G01 X25.9334 Y19.6644 
G01 X25.9674 Y19.6644 
G01 X26.0578 Y19.5740 
G01 X26.2151 Y19.4689 
G01 X26.3899 Y19.3965 
G01 X26.5754 Y19.3596 
G01 X43.2746 Y19.3596 
G01 X43.4601 Y19.3965 
G01 X43.6349 Y19.4689 
G01 X43.7922 Y19.5740 
G01 X43.8150 Y19.5968 
G01 X43.8378 Y19.5740 
G01 X43.9951 Y19.4689 
G01 X44.1699 Y19.3965 
G01 X44.3554 Y19.3596 
G01 X45.4744 Y19.3596 
G01 X45.3706 Y19.2558 
G01 X45.2512 Y19.0914 
G01 X45.1590 Y18.9104 
G01 X45.1037 Y18.7404 
G01 X43.0854 Y18.7404 
G01 X42.8999 Y18.7035 
G01 X42.7251 Y18.6311 
G01 X42.5678 Y18.5260 
G01 X42.4340 Y18.3922 
G01 X41.1640 Y17.1222 
G01 X41.0589 Y16.9649 
G01 X40.9865 Y16.7901 
G01 X40.9496 Y16.6046 
G01 X40.9496 Y11.8278 
G01 X40.2422 Y11.1204 
G01 X29.8263 Y11.1204 
G01 X29.7710 Y11.2904 
G01 X29.6788 Y11.4714 
G01 X29.5594 Y11.6358 
G01 X29.4158 Y11.7794 
G01 X29.2514 Y11.8988 
G01 X29.0704 Y11.9910 
G01 X28.8772 Y12.0538 
G01 X28.6766 Y12.0856 
G01 X28.4734 Y12.0856 
G01 X28.2728 Y12.0538 
G01 X28.0796 Y11.9910 
G01 X27.8986 Y11.8988 
G01 X27.7342 Y11.7794 
G01 X27.5906 Y11.6358 
G01 X27.4712 Y11.4714 
G01 X27.3790 Y11.2904 
G01 X27.3162 Y11.0972 
G01 X27.2844 Y10.8966 
G01 X27.2844 Y10.6934 
G01 X27.3162 Y10.4928 
G01 X27.3790 Y10.2996 
G01 X27.4712 Y10.1186 
G01 X27.5906 Y9.9542 
G01 X27.7342 Y9.8106 
G01 X27.8986 Y9.6912 
G01 X28.0796 Y9.5990 
G01 X28.2728 Y9.5362 
G01 X28.4734 Y9.5044 
G01 X28.5074 Y9.5044 
G01 X28.5978 Y9.4140 
G01 X28.7551 Y9.3089 
G01 X28.9299 Y9.2365 
G01 X29.1154 Y9.1996 
G01 X40.7346 Y9.1996 
G01 X40.9201 Y9.2365 
G01 X41.0949 Y9.3089 
G01 X41.2522 Y9.4140 
G01 X42.5222 Y10.6840 
G01 X42.6560 Y10.8178 
G01 X42.7611 Y10.9751 
G01 X42.8335 Y11.1499 
G01 X42.8704 Y11.3354 
G01 X42.8704 Y16.1122 
G01 X43.5778 Y16.8196 
G01 X45.8146 Y16.8196 
G01 X46.0001 Y16.8565 
G01 X46.1749 Y16.9289 
G01 X46.3322 Y17.0340 
G01 X46.3550 Y17.0568 
G01 X46.3778 Y17.0340 
G01 X46.5351 Y16.9289 
G01 X46.7099 Y16.8565 
G01 X46.8954 Y16.8196 
G01 X63.5946 Y16.8196 
G01 X63.7801 Y16.8565 
G01 X63.9549 Y16.9289 
G01 X64.1122 Y17.0340 
G01 X64.1350 Y17.0568 
G01 X64.1578 Y17.0340 
G01 X64.3151 Y16.9289 
G01 X64.4899 Y16.8565 
G01 X64.6754 Y16.8196 
G01 X81.3746 Y16.8196 
G01 X81.5601 Y16.8565 
G01 X81.7349 Y16.9289 
G01 X81.8922 Y17.0340 
G01 X81.9150 Y17.0568 
G01 X81.9378 Y17.0340 
G01 X82.0951 Y16.9289 
G01 X82.2699 Y16.8565 
G01 X82.4554 Y16.8196 
G01 X99.1546 Y16.8196 
G01 X99.3401 Y16.8565 
G01 X99.5149 Y16.9289 
G01 X99.6722 Y17.0340 
G01 X99.7626 Y17.1244 
G01 X99.7966 Y17.1244 
G01 X99.9972 Y17.1562 
G01 X100.1904 Y17.2190 
G01 X100.3714 Y17.3112 
G01 X100.5358 Y17.4306 
G01 X100.6794 Y17.5742 
G01 X100.7988 Y17.7386 
G01 X100.8910 Y17.9196 
G01 X100.9538 Y18.1128 
G01 X100.9856 Y18.3134 
G01 X100.9856 Y18.5166 
G01 X100.9538 Y18.7172 
G01 X100.8910 Y18.9104 
G01 X100.7988 Y19.0914 
G01 X100.6794 Y19.2558 
G01 X100.5358 Y19.3994 
G01 X100.3714 Y19.5188 
G01 X100.1904 Y19.6110 
G01 X99.9972 Y19.6738 
G01 X99.7966 Y19.7056 
G01 X99.5934 Y19.7056 
G01 X99.3928 Y19.6738 
G01 X99.1996 Y19.6110 
G01 X99.0186 Y19.5188 
G01 X98.8542 Y19.3994 
G01 X98.7106 Y19.2558 
G01 X98.5912 Y19.0914 
G01 X98.4990 Y18.9104 
G01 X98.4437 Y18.7404 
G01 X83.1663 Y18.7404 
G01 X83.1110 Y18.9104 
G01 X83.0188 Y19.0914 
G01 X82.8994 Y19.2558 
G01 X82.7956 Y19.3596 
G01 X96.6146 Y19.3596 
G01 X96.8001 Y19.3965 
G01 X96.9749 Y19.4689 
G01 X97.1322 Y19.5740 
G01 X97.2226 Y19.6644 
G01 X97.2566 Y19.6644 
G01 X97.4572 Y19.6962 
G01 X97.6504 Y19.7590 
G01 X97.8314 Y19.8512 
G01 X97.9958 Y19.9706 
G01 X98.1394 Y20.1142 
G01 X98.2588 Y20.2786 
G01 X98.3510 Y20.4596 
G01 X98.4138 Y20.6528 
G01 X98.4456 Y20.8534 
G01 X98.4456 Y21.0566 
G01 X98.4138 Y21.2572 
G01 X98.3510 Y21.4504 
G01 X98.2588 Y21.6314 
G01 X98.1394 Y21.7958 
G01 X98.0995 Y21.8357 
G01 X98.2169 Y21.9530 
G01 X98.3457 Y22.1303 
G01 X98.4250 Y22.2859 
G01 X98.5043 Y22.1303 
G01 X98.6331 Y21.9530 
G01 X98.7880 Y21.7981 
G01 X98.9653 Y21.6693 
G01 X99.1606 Y21.5698 
G01 X99.3690 Y21.5021 
G01 X99.5854 Y21.4678 
G01 X99.8046 Y21.4678 
G01 X100.0210 Y21.5021 
G01 X100.2294 Y21.5698 
G01 X100.4247 Y21.6693 
G01 X100.6020 Y21.7981 
G01 X100.7569 Y21.9530 
G01 X100.8857 Y22.1303 
G01 X100.9650 Y22.2859 
G01 X101.0443 Y22.1303 
G01 X101.1731 Y21.9530 
G01 X101.3280 Y21.7981 
G01 X101.5053 Y21.6693 
G01 X101.7006 Y21.5698 
G01 X101.9090 Y21.5021 
G01 X102.1254 Y21.4678 
G01 X102.3446 Y21.4678 
G01 X102.5610 Y21.5021 
G01 X102.7694 Y21.5698 
G01 X102.9647 Y21.6693 
G01 X103.1420 Y21.7981 
G01 X103.2969 Y21.9530 
G01 X103.4257 Y22.1303 
G01 X103.5252 Y22.3256 
G01 X103.5929 Y22.5340 
G01 X103.6272 Y22.7504 
G01 X103.6272 Y22.9696 
G01 X103.5929 Y23.1860 
G01 X103.5252 Y23.3944 
G01 X103.4257 Y23.5897 
G01 X103.2969 Y23.7670 
G01 X103.1420 Y23.9219 
G01 X103.0237 Y24.0078 
G01 X104.5044 Y24.0078 
G01 X104.6194 Y24.0386 
G01 X104.7226 Y24.0982 
G01 X104.8068 Y24.1824 
G01 X104.8664 Y24.2856 
G01 X104.8972 Y24.4006 
G01 X104.8972 Y26.3994 
G01 X104.8664 Y26.5144 
G01 X104.8068 Y26.6176 
G01 X104.7226 Y26.7018 
G01 X104.6194 Y26.7614 
G01 X104.5044 Y26.7922 
G01 X102.5056 Y26.7922 
G01 X102.3906 Y26.7614 
G01 X102.2874 Y26.7018 
G01 X102.2032 Y26.6176 
G01 X102.1436 Y26.5144 
G01 X102.1128 Y26.3994 
G01 X102.1128 Y26.1887 
G01 X102.0269 Y26.3070 
G01 X101.8720 Y26.4619 
G01 X101.6947 Y26.5907 
G01 X101.4994 Y26.6902 
G01 X101.2910 Y26.7579 
G01 X101.0746 Y26.7922 
G01 X100.8554 Y26.7922 
G01 X100.6390 Y26.7579 
G01 X100.4306 Y26.6902 
G01 X100.2353 Y26.5907 
G01 X100.0580 Y26.4619 
G01 X99.9031 Y26.3070 
G01 X99.7743 Y26.1297 
G01 X99.6950 Y25.9741 
G01 X99.6157 Y26.1297 
G01 X99.4869 Y26.3070 
G01 X99.3320 Y26.4619 
G01 X99.1547 Y26.5907 
G01 X98.9594 Y26.6902 
G01 X98.7510 Y26.7579 
G01 X98.5346 Y26.7922 
G01 X98.3154 Y26.7922 
G01 X98.0990 Y26.7579 
G01 X97.8906 Y26.6902 
G01 X97.6953 Y26.5907 
G01 X97.5180 Y26.4619 
G01 X97.3631 Y26.3070 
G01 X97.2343 Y26.1297 
G01 X97.1550 Y25.9741 
G01 X97.0757 Y26.1297 
G01 X96.9469 Y26.3070 
G01 X96.7920 Y26.4619 
G01 X96.6147 Y26.5907 
G01 X96.4194 Y26.6902 
G01 X96.2110 Y26.7579 
G01 X95.9946 Y26.7922 
G01 X95.7754 Y26.7922 
G01 X95.5590 Y26.7579 
G01 X95.3506 Y26.6902 
G01 X95.1553 Y26.5907 
G01 X94.9780 Y26.4619 
G01 X94.8231 Y26.3070 
G01 X94.6943 Y26.1297 
G01 X94.5948 Y25.9344 
G01 X94.5271 Y25.7260 
G01 X94.4928 Y25.5096 
G01 X94.4928 Y25.2904 
G01 X94.5271 Y25.0740 
G01 X94.5948 Y24.8656 
G01 X94.6943 Y24.6703 
G01 X94.8231 Y24.4930 
G01 X94.9780 Y24.3381 
G01 X95.1553 Y24.2093 
G01 X95.3506 Y24.1098 
G01 X95.5590 Y24.0421 
G01 X95.7754 Y24.0078 
G01 X95.9946 Y24.0078 
G01 X96.2110 Y24.0421 
G01 X96.4194 Y24.1098 
G01 X96.6147 Y24.2093 
G01 X96.7920 Y24.3381 
G01 X96.9469 Y24.4930 
G01 X97.0757 Y24.6703 
G01 X97.1550 Y24.8259 
G01 X97.2343 Y24.6703 
G01 X97.3631 Y24.4930 
G01 X97.5180 Y24.3381 
G01 X97.6953 Y24.2093 
G01 X97.8906 Y24.1098 
G01 X98.0990 Y24.0421 
G01 X98.3154 Y24.0078 
G01 X98.5346 Y24.0078 
G01 X98.7510 Y24.0421 
G01 X98.9594 Y24.1098 
G01 X99.1547 Y24.2093 
G01 X99.3320 Y24.3381 
G01 X99.4869 Y24.4930 
G01 X99.6157 Y24.6703 
G01 X99.6950 Y24.8259 
G01 X99.7743 Y24.6703 
G01 X99.9031 Y24.4930 
G01 X100.0580 Y24.3381 
G01 X100.2353 Y24.2093 
G01 X100.4306 Y24.1098 
G01 X100.6390 Y24.0421 
G01 X100.8554 Y24.0078 
G01 X101.0746 Y24.0078 
G01 X101.2910 Y24.0421 
G01 X101.4994 Y24.1098 
G01 X101.6947 Y24.2093 
G01 X101.8720 Y24.3381 
G01 X102.0269 Y24.4930 
G01 X102.1128 Y24.6113 
G01 X102.1128 Y24.4006 
G01 X102.1436 Y24.2856 
G01 X102.1629 Y24.2522 
G01 X102.1254 Y24.2522 
G01 X101.9090 Y24.2179 
G01 X101.7006 Y24.1502 
G01 X101.5053 Y24.0507 
G01 X101.3280 Y23.9219 
G01 X101.1731 Y23.7670 
G01 X101.0443 Y23.5897 
G01 X100.9650 Y23.4341 
G01 X100.8857 Y23.5897 
G01 X100.7569 Y23.7670 
G01 X100.6020 Y23.9219 
G01 X100.4247 Y24.0507 
G01 X100.2294 Y24.1502 
G01 X100.0210 Y24.2179 
G01 X99.8046 Y24.2522 
G01 X99.5854 Y24.2522 
G01 X99.3690 Y24.2179 
G01 X99.1606 Y24.1502 
G01 X98.9653 Y24.0507 
G01 X98.7880 Y23.9219 
G01 X98.6331 Y23.7670 
G01 X98.5043 Y23.5897 
G01 X98.4250 Y23.4341 
G01 X98.3457 Y23.5897 
G01 X98.2169 Y23.7670 
G01 X98.0620 Y23.9219 
G01 X97.8847 Y24.0507 
G01 X97.6894 Y24.1502 
G01 X97.4810 Y24.2179 
G01 X97.2646 Y24.2522 
G01 X97.0454 Y24.2522 
G01 X96.8290 Y24.2179 
G01 X96.6206 Y24.1502 
G01 X96.4253 Y24.0507 
G01 X96.2480 Y23.9219 
G01 X96.0931 Y23.7670 
G01 X95.9643 Y23.5897 
G01 X95.8850 Y23.4341 
G01 X95.8057 Y23.5897 
G01 X95.6769 Y23.7670 
G01 X95.5220 Y23.9219 
G01 X95.3447 Y24.0507 
G01 X95.1494 Y24.1502 
G01 X94.9410 Y24.2179 
G01 X94.7246 Y24.2522 
G01 X94.5054 Y24.2522 
G01 X94.2890 Y24.2179 
G01 X94.0806 Y24.1502 
G01 X93.8853 Y24.0507 
G01 X93.7080 Y23.9219 
G01 X93.5531 Y23.7670 
G01 X93.4243 Y23.5897 
G01 X93.3248 Y23.3944 
G01 X93.2571 Y23.1860 
G01 X93.2228 Y22.9696 
G01 X93.2228 Y22.7504 
G01 X93.2571 Y22.5340 
G01 X93.3248 Y22.3256 
G01 X93.4243 Y22.1303 
G01 X93.5531 Y21.9530 
G01 X93.7080 Y21.7981 
G01 X93.8853 Y21.6693 
G01 X94.0806 Y21.5698 
G01 X94.2890 Y21.5021 
G01 X94.5054 Y21.4678 
G01 X94.7246 Y21.4678 
G01 X94.9410 Y21.5021 
G01 X95.1494 Y21.5698 
G01 X95.3447 Y21.6693 
G01 X95.5220 Y21.7981 
G01 X95.6769 Y21.9530 
G01 X95.8057 Y22.1303 
G01 X95.8850 Y22.2859 
G01 X95.9643 Y22.1303 
G01 X96.0931 Y21.9530 
G01 X96.2105 Y21.8357 
G01 X96.1706 Y21.7958 
G01 X96.0512 Y21.6314 
G01 X95.9590 Y21.4504 
G01 X95.9037 Y21.2804 
G01 X80.6263 Y21.2804 
G01 X80.5710 Y21.4504 
G01 X80.4788 Y21.6314 
G01 X80.3594 Y21.7958 
G01 X80.3195 Y21.8357 
G01 X80.4369 Y21.9530 
G01 X80.5657 Y22.1303 
G01 X80.6450 Y22.2859 
G01 X80.7243 Y22.1303 
G01 X80.8531 Y21.9530 
G01 X81.0080 Y21.7981 
G01 X81.1853 Y21.6693 
G01 X81.3806 Y21.5698 
G01 X81.5890 Y21.5021 
G01 X81.8054 Y21.4678 
G01 X82.0246 Y21.4678 
G01 X82.2410 Y21.5021 
G01 X82.4494 Y21.5698 
G01 X82.6447 Y21.6693 
G01 X82.8220 Y21.7981 
G01 X82.9769 Y21.9530 
G01 X83.1057 Y22.1303 
G01 X83.1850 Y22.2859 
G01 X83.2643 Y22.1303 
G01 X83.3931 Y21.9530 
G01 X83.5480 Y21.7981 
G01 X83.7253 Y21.6693 
G01 X83.9206 Y21.5698 
G01 X84.1290 Y21.5021 
G01 X84.3454 Y21.4678 
G01 X84.5646 Y21.4678 
G01 X84.7810 Y21.5021 
G01 X84.9894 Y21.5698 
G01 X85.1847 Y21.6693 
G01 X85.3620 Y21.7981 
G01 X85.5169 Y21.9530 
G01 X85.6457 Y22.1303 
G01 X85.7452 Y22.3256 
G01 X85.8129 Y22.5340 
G01 X85.8472 Y22.7504 
G01 X85.8472 Y22.9696 
G01 X85.8129 Y23.1860 
G01 X85.7452 Y23.3944 
G01 X85.6457 Y23.5897 
G01 X85.5169 Y23.7670 
G01 X85.3620 Y23.9219 
G01 X85.2437 Y24.0078 
G01 X86.7244 Y24.0078 
G01 X86.8394 Y24.0386 
G01 X86.9426 Y24.0982 
G01 X87.0268 Y24.1824 
G01 X87.0864 Y24.2856 
G01 X87.1172 Y24.4006 
G01 X87.1172 Y26.3994 
G01 X87.0864 Y26.5144 
G01 X87.0268 Y26.6176 
G01 X86.9426 Y26.7018 
G01 X86.8394 Y26.7614 
G01 X86.7244 Y26.7922 
G01 X84.7256 Y26.7922 
G01 X84.6106 Y26.7614 
G01 X84.5074 Y26.7018 
G01 X84.4232 Y26.6176 
G01 X84.3636 Y26.5144 
G01 X84.3328 Y26.3994 
G01 X84.3328 Y26.1887 
G01 X84.2469 Y26.3070 
G01 X84.0920 Y26.4619 
G01 X83.9147 Y26.5907 
G01 X83.7194 Y26.6902 
G01 X83.5110 Y26.7579 
G01 X83.2946 Y26.7922 
G01 X83.0754 Y26.7922 
G01 X82.8590 Y26.7579 
G01 X82.6506 Y26.6902 
G01 X82.4553 Y26.5907 
G01 X82.2780 Y26.4619 
G01 X82.1231 Y26.3070 
G01 X81.9943 Y26.1297 
G01 X81.9150 Y25.9741 
G01 X81.8357 Y26.1297 
G01 X81.7069 Y26.3070 
G01 X81.5520 Y26.4619 
G01 X81.3747 Y26.5907 
G01 X81.1794 Y26.6902 
G01 X80.9710 Y26.7579 
G01 X80.7546 Y26.7922 
G01 X80.5354 Y26.7922 
G01 X80.3190 Y26.7579 
G01 X80.1106 Y26.6902 
G01 X79.9153 Y26.5907 
G01 X79.7380 Y26.4619 
G01 X79.5831 Y26.3070 
G01 X79.4543 Y26.1297 
G01 X79.3750 Y25.9741 
G01 X79.2957 Y26.1297 
G01 X79.1669 Y26.3070 
G01 X79.0120 Y26.4619 
G01 X78.8347 Y26.5907 
G01 X78.6394 Y26.6902 
G01 X78.4310 Y26.7579 
G01 X78.2146 Y26.7922 
G01 X77.9954 Y26.7922 
G01 X77.7790 Y26.7579 
G01 X77.5706 Y26.6902 
G01 X77.3753 Y26.5907 
G01 X77.1980 Y26.4619 
G01 X77.0431 Y26.3070 
G01 X76.9143 Y26.1297 
G01 X76.8148 Y25.9344 
G01 X76.7471 Y25.7260 
G01 X76.7128 Y25.5096 
G01 X76.7128 Y25.2904 
G01 X76.7471 Y25.0740 
G01 X76.8148 Y24.8656 
G01 X76.9143 Y24.6703 
G01 X77.0431 Y24.4930 
G01 X77.1980 Y24.3381 
G01 X77.3753 Y24.2093 
G01 X77.5706 Y24.1098 
G01 X77.7790 Y24.0421 
G01 X77.9954 Y24.0078 
G01 X78.2146 Y24.0078 
G01 X78.4310 Y24.0421 
G01 X78.6394 Y24.1098 
G01 X78.8347 Y24.2093 
G01 X79.0120 Y24.3381 
G01 X79.1669 Y24.4930 
G01 X79.2957 Y24.6703 
G01 X79.3750 Y24.8259 
G01 X79.4543 Y24.6703 
G01 X79.5831 Y24.4930 
G01 X79.7380 Y24.3381 
G01 X79.9153 Y24.2093 
G01 X80.1106 Y24.1098 
G01 X80.3190 Y24.0421 
G01 X80.5354 Y24.0078 
G01 X80.7546 Y24.0078 
G01 X80.9710 Y24.0421 
G01 X81.1794 Y24.1098 
G01 X81.3747 Y24.2093 
G01 X81.5520 Y24.3381 
G01 X81.7069 Y24.4930 
G01 X81.8357 Y24.6703 
G01 X81.9150 Y24.8259 
G01 X81.9943 Y24.6703 
G01 X82.1231 Y24.4930 
G01 X82.2780 Y24.3381 
G01 X82.4553 Y24.2093 
G01 X82.6506 Y24.1098 
G01 X82.8590 Y24.0421 
G01 X83.0754 Y24.0078 
G01 X83.2946 Y24.0078 
G01 X83.5110 Y24.0421 
G01 X83.7194 Y24.1098 
G01 X83.9147 Y24.2093 
G01 X84.0920 Y24.3381 
G01 X84.2469 Y24.4930 
G01 X84.3328 Y24.6113 
G01 X84.3328 Y24.4006 
G01 X84.3636 Y24.2856 
G01 X84.3829 Y24.2522 
G01 X84.3454 Y24.2522 
G01 X84.1290 Y24.2179 
G01 X83.9206 Y24.1502 
G01 X83.7253 Y24.0507 
G01 X83.5480 Y23.9219 
G01 X83.3931 Y23.7670 
G01 X83.2643 Y23.5897 
G01 X83.1850 Y23.4341 
G01 X83.1057 Y23.5897 
G01 X82.9769 Y23.7670 
G01 X82.8220 Y23.9219 
G01 X82.6447 Y24.0507 
G01 X82.4494 Y24.1502 
G01 X82.2410 Y24.2179 
G01 X82.0246 Y24.2522 
G01 X81.8054 Y24.2522 
G01 X81.5890 Y24.2179 
G01 X81.3806 Y24.1502 
G01 X81.1853 Y24.0507 
G01 X81.0080 Y23.9219 
G01 X80.8531 Y23.7670 
G01 X80.7243 Y23.5897 
G01 X80.6450 Y23.4341 
G01 X80.5657 Y23.5897 
G01 X80.4369 Y23.7670 
G01 X80.2820 Y23.9219 
G01 X80.1047 Y24.0507 
G01 X79.9094 Y24.1502 
G01 X79.7010 Y24.2179 
G01 X79.4846 Y24.2522 
G01 X79.2654 Y24.2522 
G01 X79.0490 Y24.2179 
G01 X78.8406 Y24.1502 
G01 X78.6453 Y24.0507 
G01 X78.4680 Y23.9219 
G01 X78.3131 Y23.7670 
G01 X78.1843 Y23.5897 
G01 X78.1050 Y23.4341 
G01 X78.0257 Y23.5897 
G01 X77.8969 Y23.7670 
G01 X77.7420 Y23.9219 
G01 X77.5647 Y24.0507 
G01 X77.3694 Y24.1502 
G01 X77.1610 Y24.2179 
G01 X76.9446 Y24.2522 
G01 X76.7254 Y24.2522 
G01 X76.5090 Y24.2179 
G01 X76.3006 Y24.1502 
G01 X76.1053 Y24.0507 
G01 X75.9280 Y23.9219 
G01 X75.7731 Y23.7670 
G01 X75.6443 Y23.5897 
G01 X75.5448 Y23.3944 
G01 X75.4771 Y23.1860 
G01 X75.4428 Y22.9696 
G01 X75.4428 Y22.7504 
G01 X75.4771 Y22.5340 
G01 X75.5448 Y22.3256 
G01 X75.6443 Y22.1303 
G01 X75.7731 Y21.9530 
G01 X75.9280 Y21.7981 
G01 X76.1053 Y21.6693 
G01 X76.3006 Y21.5698 
G01 X76.5090 Y21.5021 
G01 X76.7254 Y21.4678 
G01 X76.9446 Y21.4678 
G01 X77.1610 Y21.5021 
G01 X77.3694 Y21.5698 
G01 X77.5647 Y21.6693 
G01 X77.7420 Y21.7981 
G01 X77.8969 Y21.9530 
G01 X78.0257 Y22.1303 
G01 X78.1050 Y22.2859 
G01 X78.1843 Y22.1303 
G01 X78.3131 Y21.9530 
G01 X78.4305 Y21.8357 
G01 X78.3906 Y21.7958 
G01 X78.2712 Y21.6314 
G01 X78.1790 Y21.4504 
G01 X78.1237 Y21.2804 
G01 X62.8463 Y21.2804 
G01 X62.7910 Y21.4504 
G01 X62.6988 Y21.6314 
G01 X62.5794 Y21.7958 
G01 X62.5395 Y21.8357 
G01 X62.6569 Y21.9530 
G01 X62.7857 Y22.1303 
G01 X62.8650 Y22.2859 
G01 X62.9443 Y22.1303 
G01 X63.0731 Y21.9530 
G01 X63.2280 Y21.7981 
G01 X63.4053 Y21.6693 
G01 X63.6006 Y21.5698 
G01 X63.8090 Y21.5021 
G01 X64.0254 Y21.4678 
G01 X64.2446 Y21.4678 
G01 X64.4610 Y21.5021 
G01 X64.6694 Y21.5698 
G01 X64.8647 Y21.6693 
G01 X65.0420 Y21.7981 
G01 X65.1969 Y21.9530 
G01 X65.3257 Y22.1303 
G01 X65.4050 Y22.2859 
G01 X65.4843 Y22.1303 
G01 X65.6131 Y21.9530 
G01 X65.7680 Y21.7981 
G01 X65.9453 Y21.6693 
G01 X66.1406 Y21.5698 
G01 X66.3490 Y21.5021 
G01 X66.5654 Y21.4678 
G01 X66.7846 Y21.4678 
G01 X67.0010 Y21.5021 
G01 X67.2094 Y21.5698 
G01 X67.4047 Y21.6693 
G01 X67.5820 Y21.7981 
G01 X67.7369 Y21.9530 
G01 X67.8657 Y22.1303 
G01 X67.9652 Y22.3256 
G01 X68.0329 Y22.5340 
G01 X68.0672 Y22.7504 
G01 X68.0672 Y22.9696 
G01 X68.0329 Y23.1860 
G01 X67.9652 Y23.3944 
G01 X67.8657 Y23.5897 
G01 X67.7369 Y23.7670 
G01 X67.5820 Y23.9219 
G01 X67.4637 Y24.0078 
G01 X68.9444 Y24.0078 
G01 X69.0594 Y24.0386 
G01 X69.1626 Y24.0982 
G01 X69.2468 Y24.1824 
G01 X69.3064 Y24.2856 
G01 X69.3372 Y24.4006 
G01 X69.3372 Y26.3994 
G01 X69.3064 Y26.5144 
G01 X69.2468 Y26.6176 
G01 X69.1626 Y26.7018 
G01 X69.0594 Y26.7614 
G01 X68.9444 Y26.7922 
G01 X66.9456 Y26.7922 
G01 X66.8306 Y26.7614 
G01 X66.7274 Y26.7018 
G01 X66.6432 Y26.6176 
G01 X66.5836 Y26.5144 
G01 X66.5528 Y26.3994 
G01 X66.5528 Y26.1887 
G01 X66.4669 Y26.3070 
G01 X66.3120 Y26.4619 
G01 X66.1347 Y26.5907 
G01 X65.9394 Y26.6902 
G01 X65.7310 Y26.7579 
G01 X65.5146 Y26.7922 
G01 X65.2954 Y26.7922 
G01 X65.0790 Y26.7579 
G01 X64.8706 Y26.6902 
G01 X64.6753 Y26.5907 
G01 X64.4980 Y26.4619 
G01 X64.3431 Y26.3070 
G01 X64.2143 Y26.1297 
G01 X64.1350 Y25.9741 
G01 X64.0557 Y26.1297 
G01 X63.9269 Y26.3070 
G01 X63.7720 Y26.4619 
G01 X63.5947 Y26.5907 
G01 X63.3994 Y26.6902 
G01 X63.1910 Y26.7579 
G01 X62.9746 Y26.7922 
G01 X62.7554 Y26.7922 
G01 X62.5390 Y26.7579 
G01 X62.3306 Y26.6902 
G01 X62.1353 Y26.5907 
G01 X61.9580 Y26.4619 
G01 X61.8031 Y26.3070 
G01 X61.6743 Y26.1297 
G01 X61.5950 Y25.9741 
G01 X61.5157 Y26.1297 
G01 X61.3869 Y26.3070 
G01 X61.2320 Y26.4619 
G01 X61.0547 Y26.5907 
G01 X60.8594 Y26.6902 
G01 X60.6510 Y26.7579 
G01 X60.4346 Y26.7922 
G01 X60.2154 Y26.7922 
G01 X59.9990 Y26.7579 
G01 X59.7906 Y26.6902 
G01 X59.5953 Y26.5907 
G01 X59.4180 Y26.4619 
G01 X59.2631 Y26.3070 
G01 X59.1343 Y26.1297 
G01 X59.0348 Y25.9344 
G01 X58.9671 Y25.7260 
G01 X58.9328 Y25.5096 
G01 X58.9328 Y25.2904 
G01 X58.9671 Y25.0740 
G01 X59.0348 Y24.8656 
G01 X59.1343 Y24.6703 
G01 X59.2631 Y24.4930 
G01 X59.4180 Y24.3381 
G01 X59.5953 Y24.2093 
G01 X59.7906 Y24.1098 
G01 X59.9990 Y24.0421 
G01 X60.2154 Y24.0078 
G01 X60.4346 Y24.0078 
G01 X60.6510 Y24.0421 
G01 X60.8594 Y24.1098 
G01 X61.0547 Y24.2093 
G01 X61.2320 Y24.3381 
G01 X61.3869 Y24.4930 
G01 X61.5157 Y24.6703 
G01 X61.5950 Y24.8259 
G01 X61.6743 Y24.6703 
G01 X61.8031 Y24.4930 
G01 X61.9580 Y24.3381 
G01 X62.1353 Y24.2093 
G01 X62.3306 Y24.1098 
G01 X62.5390 Y24.0421 
G01 X62.7554 Y24.0078 
G01 X62.9746 Y24.0078 
G01 X63.1910 Y24.0421 
G01 X63.3994 Y24.1098 
G01 X63.5947 Y24.2093 
G01 X63.7720 Y24.3381 
G01 X63.9269 Y24.4930 
G01 X64.0557 Y24.6703 
G01 X64.1350 Y24.8259 
G01 X64.2143 Y24.6703 
G01 X64.3431 Y24.4930 
G01 X64.4980 Y24.3381 
G01 X64.6753 Y24.2093 
G01 X64.8706 Y24.1098 
G01 X65.0790 Y24.0421 
G01 X65.2954 Y24.0078 
G01 X65.5146 Y24.0078 
G01 X65.7310 Y24.0421 
G01 X65.9394 Y24.1098 
G01 X66.1347 Y24.2093 
G01 X66.3120 Y24.3381 
G01 X66.4669 Y24.4930 
G01 X66.5528 Y24.6113 
G01 X66.5528 Y24.4006 
G01 X66.5836 Y24.2856 
G01 X66.6029 Y24.2522 
G01 X66.5654 Y24.2522 
G01 X66.3490 Y24.2179 
G01 X66.1406 Y24.1502 
G01 X65.9453 Y24.0507 
G01 X65.7680 Y23.9219 
G01 X65.6131 Y23.7670 
G01 X65.4843 Y23.5897 
G01 X65.4050 Y23.4341 
G01 X65.3257 Y23.5897 
G01 X65.1969 Y23.7670 
G01 X65.0420 Y23.9219 
G01 X64.8647 Y24.0507 
G01 X64.6694 Y24.1502 
G01 X64.4610 Y24.2179 
G01 X64.2446 Y24.2522 
G01 X64.0254 Y24.2522 
G01 X63.8090 Y24.2179 
G01 X63.6006 Y24.1502 
G01 X63.4053 Y24.0507 
G01 X63.2280 Y23.9219 
G01 X63.0731 Y23.7670 
G01 X62.9443 Y23.5897 
G01 X62.8650 Y23.4341 
G01 X62.7857 Y23.5897 
G01 X62.6569 Y23.7670 
G01 X62.5020 Y23.9219 
G01 X62.3247 Y24.0507 
G01 X62.1294 Y24.1502 
G01 X61.9210 Y24.2179 
G01 X61.7046 Y24.2522 
G01 X61.4854 Y24.2522 
G01 X61.2690 Y24.2179 
G01 X61.0606 Y24.1502 
G01 X60.8653 Y24.0507 
G01 X60.6880 Y23.9219 
G01 X60.5331 Y23.7670 
G01 X60.4043 Y23.5897 
G01 X60.3250 Y23.4341 
G01 X60.2457 Y23.5897 
G01 X60.1169 Y23.7670 
G01 X59.9620 Y23.9219 
G01 X59.7847 Y24.0507 
G01 X59.5894 Y24.1502 
G01 X59.3810 Y24.2179 
G01 X59.1646 Y24.2522 
G01 X58.9454 Y24.2522 
G01 X58.7290 Y24.2179 
G01 X58.5206 Y24.1502 
G01 X58.3253 Y24.0507 
G01 X58.1480 Y23.9219 
G01 X57.9931 Y23.7670 
G01 X57.8643 Y23.5897 
G01 X57.7648 Y23.3944 
G01 X57.6971 Y23.1860 
G01 X57.6628 Y22.9696 
G01 X57.6628 Y22.7504 
G01 X57.6971 Y22.5340 
G01 X57.7648 Y22.3256 
G01 X57.8643 Y22.1303 
G01 X57.9931 Y21.9530 
G01 X58.1480 Y21.7981 
G01 X58.3253 Y21.6693 
G01 X58.5206 Y21.5698 
G01 X58.7290 Y21.5021 
G01 X58.9454 Y21.4678 
G01 X59.1646 Y21.4678 
G01 X59.3810 Y21.5021 
G01 X59.5894 Y21.5698 
G01 X59.7847 Y21.6693 
G01 X59.9620 Y21.7981 
G01 X60.1169 Y21.9530 
G01 X60.2457 Y22.1303 
G01 X60.3250 Y22.2859 
G01 X60.4043 Y22.1303 
G01 X60.5331 Y21.9530 
G01 X60.6505 Y21.8357 
G01 X60.6106 Y21.7958 
G01 X60.4912 Y21.6314 
G01 X60.3990 Y21.4504 
G01 X60.3437 Y21.2804 
G01 X45.0663 Y21.2804 
G01 X45.0110 Y21.4504 
G01 X44.9188 Y21.6314 
G01 X44.7994 Y21.7958 
G01 X44.7595 Y21.8357 
G01 X44.8769 Y21.9530 
G01 X45.0057 Y22.1303 
G01 X45.0850 Y22.2859 
G01 X45.1643 Y22.1303 
G01 X45.2931 Y21.9530 
G01 X45.4480 Y21.7981 
G01 X45.6253 Y21.6693 
G01 X45.8206 Y21.5698 
G01 X46.0290 Y21.5021 
G01 X46.2454 Y21.4678 
G01 X46.4646 Y21.4678 
G01 X46.6810 Y21.5021 
G01 X46.8894 Y21.5698 
G01 X47.0847 Y21.6693 
G01 X47.2620 Y21.7981 
G01 X47.4169 Y21.9530 
G01 X47.5457 Y22.1303 
G01 X47.6250 Y22.2859 
G01 X47.7043 Y22.1303 
G01 X47.8331 Y21.9530 
G01 X47.9880 Y21.7981 
G01 X48.1653 Y21.6693 
G01 X48.3606 Y21.5698 
G01 X48.5690 Y21.5021 
G01 X48.7854 Y21.4678 
G01 X49.0046 Y21.4678 
G01 X49.2210 Y21.5021 
G01 X49.4294 Y21.5698 
G01 X49.6247 Y21.6693 
G01 X49.8020 Y21.7981 
G01 X49.9569 Y21.9530 
G01 X50.0857 Y22.1303 
G01 X50.1852 Y22.3256 
G01 X50.2529 Y22.5340 
G01 X50.2872 Y22.7504 
G01 X50.2872 Y22.9696 
G01 X50.2529 Y23.1860 
G01 X50.1852 Y23.3944 
G01 X50.0857 Y23.5897 
G01 X49.9569 Y23.7670 
G01 X49.8020 Y23.9219 
G01 X49.6837 Y24.0078 
G01 X51.1644 Y24.0078 
G01 X51.2794 Y24.0386 
G01 X51.3826 Y24.0982 
G01 X51.4668 Y24.1824 
G01 X51.5264 Y24.2856 
G01 X51.5572 Y24.4006 
G01 X51.5572 Y26.3994 
G01 X51.5264 Y26.5144 
G01 X51.4668 Y26.6176 
G01 X51.3826 Y26.7018 
G01 X51.2794 Y26.7614 
G01 X51.1644 Y26.7922 
G01 X49.1656 Y26.7922 
G01 X49.0506 Y26.7614 
G01 X48.9474 Y26.7018 
G01 X48.8632 Y26.6176 
G01 X48.8036 Y26.5144 
G01 X48.7728 Y26.3994 
G01 X48.7728 Y26.1887 
G01 X48.6869 Y26.3070 
G01 X48.5320 Y26.4619 
G01 X48.3547 Y26.5907 
G01 X48.1594 Y26.6902 
G01 X47.9510 Y26.7579 
G01 X47.7346 Y26.7922 
G01 X47.5154 Y26.7922 
G01 X47.2990 Y26.7579 
G01 X47.0906 Y26.6902 
G01 X46.8953 Y26.5907 
G01 X46.7180 Y26.4619 
G01 X46.5631 Y26.3070 
G01 X46.4343 Y26.1297 
G01 X46.3550 Y25.9741 
G01 X46.2757 Y26.1297 
G01 X46.1469 Y26.3070 
G01 X45.9920 Y26.4619 
G01 X45.8147 Y26.5907 
G01 X45.6194 Y26.6902 
G01 X45.4110 Y26.7579 
G01 X45.1946 Y26.7922 
G01 X44.9754 Y26.7922 
G01 X44.7590 Y26.7579 
G01 X44.5506 Y26.6902 
G01 X44.3553 Y26.5907 
G01 X44.1780 Y26.4619 
G01 X44.0231 Y26.3070 
G01 X43.8943 Y26.1297 
G01 X43.8150 Y25.9741 
G01 X43.7357 Y26.1297 
G01 X43.6069 Y26.3070 
G01 X43.4520 Y26.4619 
G01 X43.2747 Y26.5907 
G01 X43.0794 Y26.6902 
G01 X42.8710 Y26.7579 
G01 X42.6546 Y26.7922 
G01 X42.4354 Y26.7922 
G01 X42.2190 Y26.7579 
G01 X42.0106 Y26.6902 
G01 X41.8153 Y26.5907 
G01 X41.6380 Y26.4619 
G01 X41.4831 Y26.3070 
G01 X41.3543 Y26.1297 
G01 X41.2548 Y25.9344 
G01 X41.1871 Y25.7260 
G01 X41.1528 Y25.5096 
G01 X41.1528 Y25.2904 
G01 X41.1871 Y25.0740 
G01 X41.2548 Y24.8656 
G01 X41.3543 Y24.6703 
G01 X41.4831 Y24.4930 
G01 X41.6380 Y24.3381 
G01 X41.8153 Y24.2093 
G01 X42.0106 Y24.1098 
G01 X42.2190 Y24.0421 
G01 X42.4354 Y24.0078 
G01 X42.6546 Y24.0078 
G01 X42.8710 Y24.0421 
G01 X43.0794 Y24.1098 
G01 X43.2747 Y24.2093 
G01 X43.4520 Y24.3381 
G01 X43.6069 Y24.4930 
G01 X43.7357 Y24.6703 
G01 X43.8150 Y24.8259 
G01 X43.8943 Y24.6703 
G01 X44.0231 Y24.4930 
G01 X44.1780 Y24.3381 
G01 X44.3553 Y24.2093 
G01 X44.5506 Y24.1098 
G01 X44.7590 Y24.0421 
G01 X44.9754 Y24.0078 
G01 X45.1946 Y24.0078 
G01 X45.4110 Y24.0421 
G01 X45.6194 Y24.1098 
G01 X45.8147 Y24.2093 
G01 X45.9920 Y24.3381 
G01 X46.1469 Y24.4930 
G01 X46.2757 Y24.6703 
G01 X46.3550 Y24.8259 
G01 X46.4343 Y24.6703 
G01 X46.5631 Y24.4930 
G01 X46.7180 Y24.3381 
G01 X46.8953 Y24.2093 
G01 X47.0906 Y24.1098 
G01 X47.2990 Y24.0421 
G01 X47.5154 Y24.0078 
G01 X47.7346 Y24.0078 
G01 X47.9510 Y24.0421 
G01 X48.1594 Y24.1098 
G01 X48.3547 Y24.2093 
G01 X48.5320 Y24.3381 
G01 X48.6869 Y24.4930 
G01 X48.7728 Y24.6113 
G01 X48.7728 Y24.4006 
G01 X48.8036 Y24.2856 
G01 X48.8229 Y24.2522 
G01 X48.7854 Y24.2522 
G01 X48.5690 Y24.2179 
G01 X48.3606 Y24.1502 
G01 X48.1653 Y24.0507 
G01 X47.9880 Y23.9219 
G01 X47.8331 Y23.7670 
G01 X47.7043 Y23.5897 
G01 X47.6250 Y23.4341 
G01 X47.5457 Y23.5897 
G01 X47.4169 Y23.7670 
G01 X47.2620 Y23.9219 
G01 X47.0847 Y24.0507 
G01 X46.8894 Y24.1502 
G01 X46.6810 Y24.2179 
G01 X46.4646 Y24.2522 
G01 X46.2454 Y24.2522 
G01 X46.0290 Y24.2179 
G01 X45.8206 Y24.1502 
G01 X45.6253 Y24.0507 
G01 X45.4480 Y23.9219 
G01 X45.2931 Y23.7670 
G01 X45.1643 Y23.5897 
G01 X45.0850 Y23.4341 
G01 X45.0057 Y23.5897 
G01 X44.8769 Y23.7670 
G01 X44.7220 Y23.9219 
G01 X44.5447 Y24.0507 
G01 X44.3494 Y24.1502 
G01 X44.1410 Y24.2179 
G01 X43.9246 Y24.2522 
G01 X43.7054 Y24.2522 
G01 X43.4890 Y24.2179 
G01 X43.2806 Y24.1502 
G01 X43.0853 Y24.0507 
G01 X42.9080 Y23.9219 
G01 X42.7531 Y23.7670 
G01 X42.6243 Y23.5897 
G01 X42.5450 Y23.4341 
G01 X42.4657 Y23.5897 
G00 Z1.0000 
G00 X43.7038 Y24.4103 
G01 Z0.0000 F127.00 
G01 X43.8150 Y24.5634 F254.00 
G01 X43.9262 Y24.4103 
G01 X43.9616 Y24.3749 
G01 X43.9346 Y24.3792 
G01 X43.6954 Y24.3792 
G01 X43.6684 Y24.3749 
G01 X43.7038 Y24.4103 
G00 Z1.0000 
G00 X46.4746 Y24.3792 
G01 Z0.0000 F127.00 
G01 X46.2354 Y24.3792 F254.00 
G01 X46.2084 Y24.3749 
G01 X46.2438 Y24.4103 
G01 X46.3550 Y24.5634 
G01 X46.4662 Y24.4103 
G01 X46.5016 Y24.3749 
G01 X46.4746 Y24.3792 
G00 Z1.0000 
G00 X47.7362 Y23.8497 
G01 Z0.0000 F127.00 
G01 X47.6250 Y23.6966 F254.00 
G01 X47.5138 Y23.8497 
G01 X47.4784 Y23.8851 
G01 X47.5054 Y23.8808 
G01 X47.7446 Y23.8808 
G01 X47.7716 Y23.8851 
G01 X47.7362 Y23.8497 
G00 Z1.0000 
G00 X45.1962 Y23.8497 
G01 Z0.0000 F127.00 
G01 X45.0850 Y23.6966 F254.00 
G01 X44.9738 Y23.8497 
G01 X44.9384 Y23.8851 
G01 X44.9654 Y23.8808 
G01 X45.2046 Y23.8808 
G01 X45.2316 Y23.8851 
G01 X45.1962 Y23.8497 
G00 Z1.0000 
G00 X42.4338 Y23.8497 
G01 Z0.0000 F127.00 
G01 X42.3984 Y23.8851 F254.00 
G01 X42.4254 Y23.8808 
G01 X42.6646 Y23.8808 
G01 X42.6916 Y23.8851 
G01 X42.6562 Y23.8497 
G01 X42.5450 Y23.6966 
G01 X42.4338 Y23.8497 
G00 Z1.0000 
G00 X97.0438 Y24.4103 
G01 Z0.0000 F127.00 
G01 X97.1550 Y24.5634 F254.00 
G01 X97.2662 Y24.4103 
G01 X97.3016 Y24.3749 
G01 X97.2746 Y24.3792 
G01 X97.0354 Y24.3792 
G01 X97.0084 Y24.3749 
G01 X97.0438 Y24.4103 
G00 Z1.0000 
G00 X99.8146 Y24.3792 
G01 Z0.0000 F127.00 
G01 X99.5754 Y24.3792 F254.00 
G01 X99.5484 Y24.3749 
G01 X99.5838 Y24.4103 
G01 X99.6950 Y24.5634 
G01 X99.8062 Y24.4103 
G01 X99.8416 Y24.3749 
G01 X99.8146 Y24.3792 
G00 Z1.0000 
G00 X101.0762 Y23.8497 
G01 Z0.0000 F127.00 
G01 X100.9650 Y23.6966 F254.00 
G01 X100.8538 Y23.8497 
G01 X100.8184 Y23.8851 
G01 X100.8454 Y23.8808 
G01 X101.0846 Y23.8808 
G01 X101.1116 Y23.8851 
G01 X101.0762 Y23.8497 
G00 Z1.0000 
G00 X80.7026 Y19.1580 
G01 Z0.0000 F127.00 
G01 X80.6013 Y18.9592 F254.00 
G01 X80.5714 Y18.8674 
G01 X65.4786 Y18.8674 
G01 X65.4487 Y18.9592 
G01 X65.3474 Y19.1580 
G01 X65.2932 Y19.2326 
G01 X78.8256 Y19.2326 
G01 X78.9946 Y19.2594 
G01 X79.1574 Y19.3123 
G01 X79.3099 Y19.3900 
G01 X79.3750 Y19.4373 
G01 X79.4401 Y19.3900 
G01 X79.5926 Y19.3123 
G01 X79.7554 Y19.2594 
G01 X79.9244 Y19.2326 
G01 X80.7568 Y19.2326 
G01 X80.7026 Y19.1580 
G00 Z1.0000 
G00 X80.6887 Y21.4992 
G01 Z0.0000 F127.00 
G01 X80.5874 Y21.6980 F254.00 
G01 X80.4923 Y21.8289 
G01 X80.5338 Y21.8703 
G01 X80.6450 Y22.0234 
G01 X80.7562 Y21.8703 
G01 X80.9253 Y21.7012 
G01 X81.1188 Y21.5607 
G01 X81.3318 Y21.4521 
G01 X81.4694 Y21.4074 
G01 X80.7186 Y21.4074 
G01 X80.6887 Y21.4992 
G00 Z1.0000 
G00 X82.4982 Y21.4521 
G01 Z0.0000 F127.00 
G01 X82.7112 Y21.5607 F254.00 
G01 X82.9047 Y21.7012 
G01 X83.0738 Y21.8703 
G01 X83.1850 Y22.0234 
G01 X83.2962 Y21.8703 
G01 X83.4653 Y21.7012 
G01 X83.6588 Y21.5607 
G01 X83.8718 Y21.4521 
G01 X84.0094 Y21.4074 
G01 X82.3606 Y21.4074 
G01 X82.4982 Y21.4521 
G00 Z1.0000 
G00 X95.1982 Y21.4521 
G01 Z0.0000 F127.00 
G01 X95.4112 Y21.5607 F254.00 
G01 X95.6047 Y21.7012 
G01 X95.7738 Y21.8703 
G01 X95.8850 Y22.0234 
G01 X95.9962 Y21.8703 
G01 X96.0377 Y21.8289 
G01 X95.9426 Y21.6980 
G01 X95.8413 Y21.4992 
G01 X95.8114 Y21.4074 
G01 X95.0606 Y21.4074 
G01 X95.1982 Y21.4521 
G00 Z1.0000 
G00 X98.5362 Y23.8497 
G01 Z0.0000 F127.00 
G01 X98.4250 Y23.6966 F254.00 
G01 X98.3138 Y23.8497 
G01 X98.2784 Y23.8851 
G01 X98.3054 Y23.8808 
G01 X98.5446 Y23.8808 
G01 X98.5716 Y23.8851 
G01 X98.5362 Y23.8497 
G00 Z1.0000 
G00 X95.7738 Y23.8497 
G01 Z0.0000 F127.00 
G01 X95.7384 Y23.8851 F254.00 
G01 X95.7654 Y23.8808 
G01 X96.0046 Y23.8808 
G01 X96.0316 Y23.8851 
G01 X95.9962 Y23.8497 
G01 X95.8850 Y23.6966 
G01 X95.7738 Y23.8497 
G00 Z1.0000 
G00 X113.6570 Y24.1300 
G01 Z0.0000 F127.00 
G01 X114.3000 Y24.7730 F254.00 
G01 X114.9430 Y24.1300 
G01 X114.3000 Y23.4870 
G01 X113.6570 Y24.1300 
G00 Z1.0000 
G00 X121.9200 Y23.4870 
G01 Z0.0000 F127.00 
G01 X121.2770 Y24.1300 F254.00 
G01 X121.9200 Y24.7730 
G01 X122.5630 Y24.1300 
G01 X121.9200 Y23.4870 
G00 Z1.0000 
G00 X119.3800 Y23.4870 
G01 Z0.0000 F127.00 
G01 X118.7370 Y24.1300 F254.00 
G01 X119.3800 Y24.7730 
G01 X120.0230 Y24.1300 
G01 X119.3800 Y23.4870 
G00 Z1.0000 
G00 X116.8400 Y23.4870 
G01 Z0.0000 F127.00 
G01 X116.1970 Y24.1300 F254.00 
G01 X116.8400 Y24.7730 
G01 X117.4830 Y24.1300 
G01 X116.8400 Y23.4870 
G00 Z1.0000 
G00 X77.9938 Y23.8497 
G01 Z0.0000 F127.00 
G01 X77.9584 Y23.8851 F254.00 
G01 X77.9854 Y23.8808 
G01 X78.2246 Y23.8808 
G01 X78.2516 Y23.8851 
G01 X78.2162 Y23.8497 
G01 X78.1050 Y23.6966 
G01 X77.9938 Y23.8497 
G00 Z1.0000 
G00 X80.7562 Y23.8497 
G01 Z0.0000 F127.00 
G01 X80.6450 Y23.6966 F254.00 
G01 X80.5338 Y23.8497 
G01 X80.4984 Y23.8851 
G01 X80.5254 Y23.8808 
G01 X80.7646 Y23.8808 
G01 X80.7916 Y23.8851 
G01 X80.7562 Y23.8497 
G00 Z1.0000 
G00 X62.9226 Y19.1580 
G01 Z0.0000 F127.00 
G01 X62.8213 Y18.9592 F254.00 
G01 X62.7914 Y18.8674 
G01 X47.6986 Y18.8674 
G01 X47.6687 Y18.9592 
G01 X47.5674 Y19.1580 
G01 X47.5132 Y19.2326 
G01 X61.0456 Y19.2326 
G01 X61.2146 Y19.2594 
G01 X61.3774 Y19.3123 
G01 X61.5299 Y19.3900 
G01 X61.5950 Y19.4373 
G01 X61.6601 Y19.3900 
G01 X61.8126 Y19.3123 
G01 X61.9754 Y19.2594 
G01 X62.1444 Y19.2326 
G01 X62.9768 Y19.2326 
G01 X62.9226 Y19.1580 
G00 Z1.0000 
G00 X62.9087 Y21.4992 
G01 Z0.0000 F127.00 
G01 X62.8074 Y21.6980 F254.00 
G01 X62.7123 Y21.8289 
G01 X62.7538 Y21.8703 
G01 X62.8650 Y22.0234 
G01 X62.9762 Y21.8703 
G01 X63.1453 Y21.7012 
G01 X63.3388 Y21.5607 
G01 X63.5518 Y21.4521 
G01 X63.6894 Y21.4074 
G01 X62.9386 Y21.4074 
G01 X62.9087 Y21.4992 
G00 Z1.0000 
G00 X64.7182 Y21.4521 
G01 Z0.0000 F127.00 
G01 X64.9312 Y21.5607 F254.00 
G01 X65.1247 Y21.7012 
G01 X65.2938 Y21.8703 
G01 X65.4050 Y22.0234 
G01 X65.5162 Y21.8703 
G01 X65.6853 Y21.7012 
G01 X65.8788 Y21.5607 
G01 X66.0918 Y21.4521 
G01 X66.2294 Y21.4074 
G01 X64.5806 Y21.4074 
G01 X64.7182 Y21.4521 
G00 Z1.0000 
G00 X77.4182 Y21.4521 
G01 Z0.0000 F127.00 
G01 X77.6312 Y21.5607 F254.00 
G01 X77.8247 Y21.7012 
G01 X77.9938 Y21.8703 
G01 X78.1050 Y22.0234 
G01 X78.2162 Y21.8703 
G01 X78.2577 Y21.8289 
G01 X78.1626 Y21.6980 
G01 X78.0613 Y21.4992 
G01 X78.0314 Y21.4074 
G01 X77.2806 Y21.4074 
G01 X77.4182 Y21.4521 
G00 Z1.0000 
G00 X83.2962 Y23.8497 
G01 Z0.0000 F127.00 
G01 X83.1850 Y23.6966 F254.00 
G01 X83.0738 Y23.8497 
G01 X83.0384 Y23.8851 
G01 X83.0654 Y23.8808 
G01 X83.3046 Y23.8808 
G01 X83.3316 Y23.8851 
G01 X83.2962 Y23.8497 
G00 Z1.0000 
G00 X82.0346 Y24.3792 
G01 Z0.0000 F127.00 
G01 X81.7954 Y24.3792 F254.00 
G01 X81.7684 Y24.3749 
G01 X81.8038 Y24.4103 
G01 X81.9150 Y24.5634 
G01 X82.0262 Y24.4103 
G01 X82.0616 Y24.3749 
G01 X82.0346 Y24.3792 
G00 Z1.0000 
G00 X79.2638 Y24.4103 
G01 Z0.0000 F127.00 
G01 X79.3750 Y24.5634 F254.00 
G01 X79.4862 Y24.4103 
G01 X79.5216 Y24.3749 
G01 X79.4946 Y24.3792 
G01 X79.2554 Y24.3792 
G01 X79.2284 Y24.3749 
G01 X79.2638 Y24.4103 
G00 Z1.0000 
G00 X7.6200 Y23.4870 
G01 Z0.0000 F127.00 
G01 X6.9770 Y24.1300 F254.00 
G01 X7.6200 Y24.7730 
G01 X8.2630 Y24.1300 
G01 X7.6200 Y23.4870 
G00 Z1.0000 
G00 X10.1600 Y23.4870 
G01 Z0.0000 F127.00 
G01 X9.5170 Y24.1300 F254.00 
G01 X10.1600 Y24.7730 
G01 X10.8030 Y24.1300 
G01 X10.1600 Y23.4870 
G00 Z1.0000 
G00 X12.7000 Y23.4870 
G01 Z0.0000 F127.00 
G01 X12.0570 Y24.1300 F254.00 
G01 X12.7000 Y24.7730 
G01 X13.3430 Y24.1300 
G01 X12.7000 Y23.4870 
G00 Z1.0000 
G00 X4.4370 Y24.1300 
G01 Z0.0000 F127.00 
G01 X5.0800 Y24.7730 F254.00 
G01 X5.7230 Y24.1300 
G01 X5.0800 Y23.4870 
G01 X4.4370 Y24.1300 
G00 Z1.0000 
G00 X24.6538 Y23.8497 
G01 Z0.0000 F127.00 
G01 X24.6184 Y23.8851 F254.00 
G01 X24.6454 Y23.8808 
G01 X24.8846 Y23.8808 
G01 X24.9116 Y23.8851 
G01 X24.8762 Y23.8497 
G01 X24.7650 Y23.6966 
G01 X24.6538 Y23.8497 
G00 Z1.0000 
G00 X27.4162 Y23.8497 
G01 Z0.0000 F127.00 
G01 X27.3050 Y23.6966 F254.00 
G01 X27.1938 Y23.8497 
G01 X27.1584 Y23.8851 
G01 X27.1854 Y23.8808 
G01 X27.4246 Y23.8808 
G01 X27.4516 Y23.8851 
G01 X27.4162 Y23.8497 
G00 Z1.0000 
G00 X29.1582 Y21.4521 
G01 Z0.0000 F127.00 
G01 X29.3712 Y21.5607 F254.00 
G01 X29.5647 Y21.7012 
G01 X29.7338 Y21.8703 
G01 X29.8450 Y22.0234 
G01 X29.9562 Y21.8703 
G01 X30.1253 Y21.7012 
G01 X30.3188 Y21.5607 
G01 X30.5318 Y21.4521 
G01 X30.6694 Y21.4074 
G01 X29.0206 Y21.4074 
G01 X29.1582 Y21.4521 
G00 Z1.0000 
G00 X41.8582 Y21.4521 
G01 Z0.0000 F127.00 
G01 X42.0712 Y21.5607 F254.00 
G01 X42.2647 Y21.7012 
G01 X42.4338 Y21.8703 
G01 X42.5450 Y22.0234 
G01 X42.6562 Y21.8703 
G01 X42.6977 Y21.8289 
G01 X42.6026 Y21.6980 
G01 X42.5013 Y21.4992 
G01 X42.4714 Y21.4074 
G01 X41.7206 Y21.4074 
G01 X41.8582 Y21.4521 
G00 Z1.0000 
G00 X27.1938 Y21.8703 
G01 Z0.0000 F127.00 
G01 X27.3050 Y22.0234 F254.00 
G01 X27.4162 Y21.8703 
G01 X27.5853 Y21.7012 
G01 X27.7788 Y21.5607 
G01 X27.9918 Y21.4521 
G01 X28.1294 Y21.4074 
G01 X27.3786 Y21.4074 
G01 X27.3487 Y21.4992 
G01 X27.2474 Y21.6980 
G01 X27.1523 Y21.8289 
G01 X27.1938 Y21.8703 
G00 Z1.0000 
G00 X29.9562 Y23.8497 
G01 Z0.0000 F127.00 
G01 X29.8450 Y23.6966 F254.00 
G01 X29.7338 Y23.8497 
G01 X29.6984 Y23.8851 
G01 X29.7254 Y23.8808 
G01 X29.9646 Y23.8808 
G01 X29.9916 Y23.8851 
G01 X29.9562 Y23.8497 
G00 Z1.0000 
G00 X28.6946 Y24.3792 
G01 Z0.0000 F127.00 
G01 X28.4554 Y24.3792 F254.00 
G01 X28.4284 Y24.3749 
G01 X28.4638 Y24.4103 
G01 X28.5750 Y24.5634 
G01 X28.6862 Y24.4103 
G01 X28.7216 Y24.3749 
G01 X28.6946 Y24.3792 
G00 Z1.0000 
G00 X25.9238 Y24.4103 
G01 Z0.0000 F127.00 
G01 X26.0350 Y24.5634 F254.00 
G01 X26.1462 Y24.4103 
G01 X26.1816 Y24.3749 
G01 X26.1546 Y24.3792 
G01 X25.9154 Y24.3792 
G01 X25.8884 Y24.3749 
G01 X25.9238 Y24.4103 
G00 Z1.0000 
G00 X60.2138 Y23.8497 
G01 Z0.0000 F127.00 
G01 X60.1784 Y23.8851 F254.00 
G01 X60.2054 Y23.8808 
G01 X60.4446 Y23.8808 
G01 X60.4716 Y23.8851 
G01 X60.4362 Y23.8497 
G01 X60.3250 Y23.6966 
G01 X60.2138 Y23.8497 
G00 Z1.0000 
G00 X62.9762 Y23.8497 
G01 Z0.0000 F127.00 
G01 X62.8650 Y23.6966 F254.00 
G01 X62.7538 Y23.8497 
G01 X62.7184 Y23.8851 
G01 X62.7454 Y23.8808 
G01 X62.9846 Y23.8808 
G01 X63.0116 Y23.8851 
G01 X62.9762 Y23.8497 
G00 Z1.0000 
G00 X46.9382 Y21.4521 
G01 Z0.0000 F127.00 
G01 X47.1512 Y21.5607 F254.00 
G01 X47.3447 Y21.7012 
G01 X47.5138 Y21.8703 
G01 X47.6250 Y22.0234 
G01 X47.7362 Y21.8703 
G01 X47.9053 Y21.7012 
G01 X48.0988 Y21.5607 
G01 X48.3118 Y21.4521 
G01 X48.4494 Y21.4074 
G01 X46.8006 Y21.4074 
G01 X46.9382 Y21.4521 
G00 Z1.0000 
G00 X45.1287 Y21.4992 
G01 Z0.0000 F127.00 
G01 X45.0274 Y21.6980 F254.00 
G01 X44.9323 Y21.8289 
G01 X44.9738 Y21.8703 
G01 X45.0850 Y22.0234 
G01 X45.1962 Y21.8703 
G01 X45.3653 Y21.7012 
G01 X45.5588 Y21.5607 
G01 X45.7718 Y21.4521 
G01 X45.9094 Y21.4074 
G01 X45.1586 Y21.4074 
G01 X45.1287 Y21.4992 
G00 Z1.0000 
G00 X59.5006 Y21.4074 
G01 Z0.0000 F127.00 
G01 X59.6382 Y21.4521 F254.00 
G01 X59.8512 Y21.5607 
G01 X60.0447 Y21.7012 
G01 X60.2138 Y21.8703 
G01 X60.3250 Y22.0234 
G01 X60.4362 Y21.8703 
G01 X60.4777 Y21.8289 
G01 X60.3826 Y21.6980 
G01 X60.2813 Y21.4992 
G01 X60.2514 Y21.4074 
G01 X59.5006 Y21.4074 
G00 Z1.0000 
G00 X65.5162 Y23.8497 
G01 Z0.0000 F127.00 
G01 X65.4050 Y23.6966 F254.00 
G01 X65.2938 Y23.8497 
G01 X65.2584 Y23.8851 
G01 X65.2854 Y23.8808 
G01 X65.5246 Y23.8808 
G01 X65.5516 Y23.8851 
G01 X65.5162 Y23.8497 
G00 Z1.0000 
G00 X64.2546 Y24.3792 
G01 Z0.0000 F127.00 
G01 X64.0154 Y24.3792 F254.00 
G01 X63.9884 Y24.3749 
G01 X64.0238 Y24.4103 
G01 X64.1350 Y24.5634 
G01 X64.2462 Y24.4103 
G01 X64.2816 Y24.3749 
G01 X64.2546 Y24.3792 
G00 Z1.0000 
G00 X61.4838 Y24.4103 
G01 Z0.0000 F127.00 
G01 X61.5950 Y24.5634 F254.00 
G01 X61.7062 Y24.4103 
G01 X61.7416 Y24.3749 
G01 X61.7146 Y24.3792 
G01 X61.4754 Y24.3792 
G01 X61.4484 Y24.3749 
G01 X61.4838 Y24.4103 
G00 Z1.0000 
G00 X25.9238 Y26.3897 
G01 Z0.0000 F127.00 
G01 X25.7547 Y26.5588 F254.00 
G01 X25.5612 Y26.6993 
G01 X25.3482 Y26.8079 
G01 X25.1207 Y26.8818 
G01 X24.8846 Y26.9192 
G01 X24.6454 Y26.9192 
G01 X24.4093 Y26.8818 
G01 X24.1818 Y26.8079 
G01 X23.9688 Y26.6993 
G01 X23.7753 Y26.5588 
G01 X23.6062 Y26.3897 
G01 X23.4657 Y26.1962 
G01 X23.3571 Y25.9832 
G01 X23.2832 Y25.7557 
G01 X23.2458 Y25.5196 
G01 X23.2458 Y25.2804 
G01 X23.2832 Y25.0443 
G01 X23.3571 Y24.8168 
G01 X23.4657 Y24.6038 
G01 X23.6062 Y24.4103 
G01 X23.6416 Y24.3749 
G01 X23.6146 Y24.3792 
G01 X23.3754 Y24.3792 
G01 X23.1393 Y24.3418 
G01 X22.9118 Y24.2679 
G01 X22.6988 Y24.1593 
G01 X22.5053 Y24.0188 
G01 X22.3362 Y23.8497 
G01 X22.1957 Y23.6562 
G01 X22.0871 Y23.4432 
G01 X22.0132 Y23.2157 
G01 X21.9758 Y22.9796 
G01 X21.9758 Y22.7404 
G01 X22.0132 Y22.5043 
G01 X22.0871 Y22.2768 
G01 X22.1957 Y22.0638 
G01 X22.3362 Y21.8703 
G01 X22.5053 Y21.7012 
G01 X22.6988 Y21.5607 
G01 X22.9118 Y21.4521 
G01 X23.1393 Y21.3782 
G01 X23.3754 Y21.3408 
G01 X23.6146 Y21.3408 
G01 X23.8507 Y21.3782 
G01 X24.0782 Y21.4521 
G01 X24.2912 Y21.5607 
