(.../pcb-gcode-3.6.0.4/pcb-gcode.ulp)
(Copyright 2005 - 2012 by John Johnson)
(See readme.txt for licensing terms.)
(This file generated from the board:)
(.../OpenHealth_Hardware/OpenHealth_rj45.brd)
(Current profile is .../pcb-gcode-3.6.0.4/profiles/emc.pp  )
(This file generated 27/09/16 20:30)
(Settings from pcb-machine.h)
(  Tool Size)
(0.6000 )
(Z Axis Settings)
(  High     Up        Down     Drill)
(1.1000 	1.0000 	0.0000 	0.0100 )
(spindle on time = 3.0000)
(milling depth = -0.0100)
(text depth = 0.0000)
(tool change at 0.0000 0.0000 0.0000 )
(feed rate xy = F254.00 )
(feed rate z  = F127.00 )
(Settings from pcb-defaults.h)
(isolate min = 0.0254)
(isolate max = 0.5080)
(isolate step = 0.1270)
(Generated bottom drill, )
(Unit of measure: mm)
( Tool|       Size       |  Min Sub |  Max Sub |   Count )
( T01 | 3.200mm 0.1260in | 0.0000in | 0.0000in |       0 )
( T02 | 0.800mm 0.0315in | 0.0000in | 0.0000in |       0 )
( T03 | 1.000mm 0.0394in | 0.0000in | 0.0000in |       0 )
( T04 | 1.016mm 0.0400in | 0.0000in | 0.0000in |       0 )
(Metric Mode)
G21
(Absolute Coordinates)
G90
M05
G00 Z0.0000 
G00 X0.0000 Y0.0000 
M06 T01 (3.2000 )
G01 Z0.0000 F127.00 
M06 T01 (3.2000 )
G00 Z1.0000 
M03
G04 P3.000000
G82 X33.6550 Y31.7500 Z0.0100 F127.00 R1.0000 P1.000000
G82 X40.0050 Y31.7500 
G82 X51.4350 Y31.7500 
G82 X57.7850 Y31.7500 
G82 X69.2150 Y31.7500 
G82 X75.5650 Y31.7500 
G82 X86.9950 Y31.7500 
G82 X93.3450 Y31.7500 
G82 X104.7750 Y31.7500 
G82 X125.7300 Y41.9100 
G82 X125.7300 Y2.5400 
G82 X17.7800 Y41.9100 
G82 X22.2250 Y31.7500 
G82 X2.5400 Y41.9100 
G82 X2.5400 Y2.5400 
M05
G00 Z0.0000 
M06 T02 (0.8000 )
G01 Z0.0000 F127.00 
M06 T02 (0.8000 )
G00 Z1.0000 
M03
G04 P3.000000
G82 X43.8150 Y20.9550 Z0.0100 F127.00 R1.0000 P1.000000
G82 X46.3550 Y18.4150 
G82 X61.5950 Y20.9550 
G82 X64.1350 Y18.4150 
G82 X79.3750 Y20.9550 
G82 X81.9150 Y18.4150 
G82 X97.1550 Y20.9550 
G82 X99.6950 Y18.4150 
G82 X26.0350 Y20.9550 
G82 X28.5750 Y10.7950 
M05
G00 Z0.0000 
M06 T03 (1.0000 )
G01 Z0.0000 F127.00 
M06 T03 (1.0000 )
G00 Z1.0000 
M03
G04 P3.000000
G82 X32.3850 Y25.4000 Z0.0100 F127.00 R1.0000 P1.000000
G82 X41.2750 Y22.8600 
G82 X42.5450 Y25.4000 
G82 X43.8150 Y22.8600 
G82 X45.0850 Y25.4000 
G82 X46.3550 Y22.8600 
G82 X47.6250 Y25.4000 
G82 X48.8950 Y22.8600 
G82 X50.1650 Y25.4000 
G82 X59.0550 Y22.8600 
G82 X60.3250 Y25.4000 
G82 X61.5950 Y22.8600 
G82 X62.8650 Y25.4000 
G82 X64.1350 Y22.8600 
G82 X65.4050 Y25.4000 
G82 X66.6750 Y22.8600 
G82 X67.9450 Y25.4000 
G82 X76.8350 Y22.8600 
G82 X78.1050 Y25.4000 
G82 X79.3750 Y22.8600 
G82 X80.6450 Y25.4000 
G82 X81.9150 Y22.8600 
G82 X83.1850 Y25.4000 
G82 X84.4550 Y22.8600 
G82 X85.7250 Y25.4000 
G82 X94.6150 Y22.8600 
G82 X95.8850 Y25.4000 
G82 X97.1550 Y22.8600 
G82 X98.4250 Y25.4000 
G82 X99.6950 Y22.8600 
G82 X100.9650 Y25.4000 
G82 X102.2350 Y22.8600 
G82 X103.5050 Y25.4000 
G82 X23.4950 Y22.8600 
G82 X24.7650 Y25.4000 
G82 X26.0350 Y22.8600 
G82 X27.3050 Y25.4000 
G82 X28.5750 Y22.8600 
G82 X29.8450 Y25.4000 
G82 X31.1150 Y22.8600 
M05
G00 Z0.0000 
M06 T04 (1.0160 )
G01 Z0.0000 F127.00 
M06 T04 (1.0160 )
G00 Z1.0000 
M03
G04 P3.000000
G82 X3.8100 Y22.8600 Z0.0100 F127.00 R1.0000 P1.000000
G82 X3.8100 Y25.4000 
G82 X6.3500 Y22.8600 
G82 X6.3500 Y25.4000 
G82 X8.8900 Y22.8600 
G82 X8.8900 Y25.4000 
G82 X113.0300 Y22.8600 
G82 X113.0300 Y25.4000 
G82 X11.4300 Y22.8600 
G82 X11.4300 Y25.4000 
G82 X115.5700 Y22.8600 
G82 X115.5700 Y25.4000 
G82 X118.1100 Y22.8600 
G82 X118.1100 Y25.4000 
G82 X120.6500 Y22.8600 
G82 X120.6500 Y25.4000 
G82 X123.1900 Y22.8600 
G82 X123.1900 Y25.4000 
G82 X13.9700 Y22.8600 
G82 X13.9700 Y25.4000 
T01 
G00 Z1.1000 
M05
M02
